(G-Code for Milling a PCB)
(Generated with CopperField)
(Date: 21.02.2013    Time: 19:14:27)

(All units in Millimeters)

(Cutter Diameter: 0.15 mm)
(Cutter z-Depth: -0.2 mm)
(Cutter z-Clearance: 0.5 mm)
(Mill Feedrate: 10 mm/s)
(Plunge Feedrate: 5 mm/s)



G0 x83.3005 y120.989
G0 z0.000
F300
G1 z-0.2
F600
G1 x83.3005 y120.909
G1 x83.3005 y120.829
G1 x83.3005 y120.749
G1 x83.3005 y120.669
G1 x83.3005 y120.589
G1 x83.3005 y120.509
G1 x83.3105 y120.429
G1 x83.3805 y120.389
G1 x83.4605 y120.389
G1 x83.5205 y120.329
G1 x83.5805 y120.269
G1 x83.6505 y120.229
G1 x83.7205 y120.189
G1 x83.7905 y120.159
G1 x83.8705 y120.149
G1 x83.9505 y120.139
G1 x84.0305 y120.139
G1 x84.1105 y120.139
G1 x84.1905 y120.139
G1 x84.2705 y120.139
G1 x84.3505 y120.139
G1 x84.4305 y120.139
G1 x84.5105 y120.139
G1 x84.5905 y120.139
G1 x84.6705 y120.139
G1 x84.7505 y120.139
G1 x84.8305 y120.139
G1 x84.9105 y120.139
G1 x84.9905 y120.139
G1 x85.0705 y120.139
G1 x85.1505 y120.139
G1 x85.2305 y120.139
G1 x85.3105 y120.139
G1 x85.3905 y120.139
G1 x85.4705 y120.139
G1 x85.5405 y120.089
G1 x85.6005 y120.029
G1 x85.6605 y119.969
G1 x85.7205 y119.909
G1 x85.7805 y119.849
G1 x85.8405 y119.789
G1 x85.9005 y119.729
G1 x85.9105 y119.649
G1 x85.9105 y119.569
G1 x85.9105 y119.489
G1 x85.9105 y119.409
G1 x85.9105 y119.329
G1 x85.9405 y119.259
G1 x86.0205 y119.249
G1 x86.1005 y119.249
G1 x86.1805 y119.249
G1 x86.2605 y119.249
G1 x86.3405 y119.249
G1 x86.4205 y119.249
G1 x86.5005 y119.249
G1 x86.5805 y119.249
G1 x86.6605 y119.249
G1 x86.7405 y119.249
G1 x86.8205 y119.249
G1 x86.9005 y119.249
G1 x86.9805 y119.249
G1 x87.0605 y119.249
G1 x87.1405 y119.249
G1 x87.2205 y119.249
G1 x87.3005 y119.249
G1 x87.3805 y119.249
G1 x87.4605 y119.249
G1 x87.5405 y119.249
G1 x87.6205 y119.249
G1 x87.7005 y119.249
G1 x87.7805 y119.249
G1 x87.8605 y119.249
G1 x87.9405 y119.249
G1 x88.0205 y119.249
G1 x88.0805 y119.299
G1 x88.0805 y119.379
G1 x88.0805 y119.459
G1 x88.0805 y119.539
G1 x88.0805 y119.619
G1 x88.0805 y119.699
G1 x88.0805 y119.779
G1 x88.0805 y119.859
G1 x88.0805 y119.939
G1 x88.0805 y120.019
G1 x88.0805 y120.099
G1 x88.0805 y120.179
G1 x88.0805 y120.259
G1 x88.0805 y120.339
G1 x88.0805 y120.419
G1 x88.0805 y120.499
G1 x88.0805 y120.579
G1 x88.0805 y120.659
G1 x88.0805 y120.739
G1 x88.0805 y120.819
G1 x88.0505 y120.899
G1 x87.9705 y120.909
G1 x87.8905 y120.909
G1 x87.8105 y120.909
G1 x87.7305 y120.909
G1 x87.6505 y120.909
G1 x87.5705 y120.909
G1 x87.4905 y120.909
G1 x87.4105 y120.909
G1 x87.3305 y120.909
G1 x87.2505 y120.909
G1 x87.1705 y120.909
G1 x87.0905 y120.909
G1 x87.0105 y120.909
G1 x86.9405 y120.939
G1 x86.8805 y120.999
G1 x86.8205 y121.059
G1 x86.7605 y121.119
G1 x86.7005 y121.179
G1 x86.6305 y121.219
G1 x86.5605 y121.249
G1 x86.4805 y121.269
G1 x86.4005 y121.279
G1 x86.3205 y121.279
G1 x86.2405 y121.279
G1 x86.1605 y121.249
G1 x86.0905 y121.219
G1 x86.0105 y121.209
G1 x85.9405 y121.249
G1 x85.8605 y121.269
G1 x85.7805 y121.279
G1 x85.7005 y121.289
G1 x85.6205 y121.289
G1 x85.5405 y121.289
G1 x85.4605 y121.289
G1 x85.3805 y121.289
G1 x85.3005 y121.289
G1 x85.2205 y121.289
G1 x85.1405 y121.289
G1 x85.0605 y121.289
G1 x84.9805 y121.289
G1 x84.9005 y121.289
G1 x84.8205 y121.289
G1 x84.7405 y121.289
G1 x84.6605 y121.289
G1 x84.5805 y121.289
G1 x84.5005 y121.289
G1 x84.4205 y121.289
G1 x84.3405 y121.289
G1 x84.2605 y121.289
G1 x84.1805 y121.289
G1 x84.1005 y121.289
G1 x84.0205 y121.289
G1 x83.9405 y121.289
G1 x83.8605 y121.279
G1 x83.7805 y121.259
G1 x83.7005 y121.229
G1 x83.6305 y121.189
G1 x83.5605 y121.139
G1 x83.5005 y121.079
G1 x83.4305 y121.039
G1 x83.3505 y121.039
G0 z0.5


G0 x39.3126 y115.111
G0 z0.000
F300
G1 z-0.2
F600
G1 x39.3126 y115.031
G1 x39.3126 y114.951
G1 x39.3226 y114.871
G1 x39.3426 y114.791
G1 x39.3726 y114.721
G1 x39.4226 y114.651
G1 x39.4726 y114.591
G1 x39.5326 y114.541
G1 x39.6026 y114.501
G1 x39.6726 y114.461
G1 x39.7526 y114.441
G1 x39.8326 y114.431
G1 x39.9126 y114.431
G1 x39.9926 y114.431
G1 x40.0726 y114.431
G1 x40.1526 y114.431
G1 x40.2126 y114.381
G1 x40.2626 y114.311
G1 x40.3126 y114.251
G1 x40.3726 y114.201
G1 x40.4326 y114.151
G1 x40.4926 y114.101
G1 x40.5626 y114.061
G1 x40.6326 y114.031
G1 x40.7026 y114.001
G1 x40.7726 y113.971
G1 x40.8526 y113.951
G1 x40.9326 y113.941
G1 x41.0126 y113.931
G1 x41.0926 y113.931
G1 x41.1726 y113.931
G1 x41.2526 y113.931
G1 x41.3326 y113.931
G1 x41.4126 y113.931
G1 x41.4926 y113.931
G1 x41.5726 y113.931
G1 x41.6526 y113.931
G1 x41.7326 y113.931
G1 x41.8126 y113.931
G1 x41.8926 y113.931
G1 x41.9726 y113.931
G1 x42.0526 y113.931
G1 x42.1326 y113.931
G1 x42.2126 y113.931
G1 x42.2926 y113.931
G1 x42.3726 y113.931
G1 x42.4526 y113.931
G1 x42.5326 y113.931
G1 x42.6126 y113.931
G1 x42.6926 y113.931
G1 x42.7726 y113.931
G1 x42.8526 y113.931
G1 x42.9326 y113.931
G1 x43.0126 y113.931
G1 x43.0926 y113.931
G1 x43.1726 y113.931
G1 x43.2526 y113.931
G1 x43.3326 y113.931
G1 x43.4126 y113.931
G1 x43.4926 y113.931
G1 x43.5726 y113.931
G1 x43.6526 y113.931
G1 x43.7326 y113.931
G1 x43.8126 y113.931
G1 x43.8926 y113.931
G1 x43.9726 y113.931
G1 x44.0526 y113.931
G1 x44.1326 y113.931
G1 x44.2126 y113.931
G1 x44.2926 y113.931
G1 x44.3726 y113.931
G1 x44.4526 y113.931
G1 x44.5326 y113.931
G1 x44.6126 y113.931
G1 x44.6926 y113.931
G1 x44.7726 y113.931
G1 x44.8526 y113.931
G1 x44.9326 y113.931
G1 x45.0126 y113.931
G1 x45.0926 y113.931
G1 x45.1726 y113.931
G1 x45.2526 y113.931
G1 x45.3326 y113.931
G1 x45.4126 y113.931
G1 x45.4926 y113.931
G1 x45.5726 y113.931
G1 x45.6526 y113.931
G1 x45.7326 y113.931
G1 x45.8126 y113.931
G1 x45.8926 y113.931
G1 x45.9726 y113.931
G1 x46.0526 y113.931
G1 x46.1326 y113.931
G1 x46.2126 y113.931
G1 x46.2926 y113.931
G1 x46.3726 y113.931
G1 x46.4526 y113.931
G1 x46.5326 y113.931
G1 x46.6126 y113.931
G1 x46.6926 y113.931
G1 x46.7726 y113.931
G1 x46.8526 y113.931
G1 x46.9326 y113.931
G1 x47.0126 y113.931
G1 x47.0926 y113.931
G1 x47.1726 y113.931
G1 x47.2526 y113.931
G1 x47.3326 y113.931
G1 x47.4126 y113.931
G1 x47.4926 y113.931
G1 x47.5726 y113.931
G1 x47.6526 y113.931
G1 x47.7326 y113.931
G1 x47.8126 y113.931
G1 x47.8926 y113.931
G1 x47.9726 y113.931
G1 x48.0526 y113.931
G1 x48.1326 y113.931
G1 x48.2126 y113.931
G1 x48.2926 y113.931
G1 x48.3726 y113.931
G1 x48.4526 y113.931
G1 x48.5326 y113.931
G1 x48.6126 y113.931
G1 x48.6926 y113.931
G1 x48.7726 y113.931
G1 x48.8526 y113.931
G1 x48.9326 y113.931
G1 x49.0126 y113.931
G1 x49.0926 y113.931
G1 x49.1726 y113.931
G1 x49.2526 y113.931
G1 x49.3326 y113.931
G1 x49.4126 y113.931
G1 x49.4926 y113.931
G1 x49.5726 y113.931
G1 x49.6526 y113.931
G1 x49.7326 y113.931
G1 x49.8126 y113.931
G1 x49.8926 y113.931
G1 x49.9726 y113.931
G1 x50.0526 y113.931
G1 x50.1326 y113.931
G1 x50.2126 y113.931
G1 x50.2926 y113.931
G1 x50.3726 y113.931
G1 x50.4526 y113.931
G1 x50.5326 y113.931
G1 x50.6126 y113.931
G1 x50.6926 y113.931
G1 x50.7726 y113.931
G1 x50.8526 y113.931
G1 x50.9326 y113.931
G1 x51.0126 y113.931
G1 x51.0926 y113.931
G1 x51.1726 y113.931
G1 x51.2526 y113.931
G1 x51.3326 y113.931
G1 x51.4126 y113.931
G1 x51.4926 y113.931
G1 x51.5726 y113.931
G1 x51.6526 y113.931
G1 x51.7326 y113.931
G1 x51.8126 y113.931
G1 x51.8926 y113.931
G1 x51.9726 y113.931
G1 x52.0526 y113.931
G1 x52.1326 y113.931
G1 x52.2126 y113.931
G1 x52.2926 y113.931
G1 x52.3726 y113.931
G1 x52.4526 y113.931
G1 x52.5326 y113.931
G1 x52.6126 y113.931
G1 x52.6926 y113.931
G1 x52.7726 y113.931
G1 x52.8526 y113.931
G1 x52.9326 y113.931
G1 x53.0126 y113.931
G1 x53.0926 y113.931
G1 x53.1726 y113.931
G1 x53.2526 y113.931
G1 x53.3326 y113.931
G1 x53.4126 y113.931
G1 x53.4926 y113.931
G1 x53.5726 y113.931
G1 x53.6526 y113.921
G1 x53.7126 y113.861
G1 x53.7726 y113.801
G1 x53.8326 y113.741
G1 x53.8926 y113.681
G1 x53.9526 y113.621
G1 x54.0126 y113.561
G1 x54.0726 y113.501
G1 x54.1326 y113.441
G1 x54.1926 y113.381
G1 x54.2526 y113.321
G1 x54.3126 y113.261
G1 x54.3726 y113.201
G1 x54.4326 y113.141
G1 x54.4926 y113.081
G1 x54.5526 y113.021
G1 x54.6126 y112.961
G1 x54.6726 y112.901
G1 x54.7326 y112.841
G1 x54.7926 y112.781
G1 x54.8526 y112.721
G1 x54.9126 y112.661
G1 x54.9726 y112.601
G1 x55.0326 y112.541
G1 x55.0926 y112.481
G1 x55.1526 y112.421
G1 x55.2126 y112.361
G1 x55.2726 y112.301
G1 x55.3326 y112.241
G1 x55.3926 y112.181
G1 x55.4526 y112.121
G1 x55.5126 y112.061
G1 x55.5726 y112.001
G1 x55.6326 y111.941
G1 x55.6926 y111.881
G1 x55.7526 y111.821
G1 x55.8126 y111.761
G1 x55.8726 y111.701
G1 x55.9326 y111.641
G1 x55.9926 y111.581
G1 x56.0526 y111.521
G1 x56.1126 y111.461
G1 x56.1726 y111.401
G1 x56.2326 y111.341
G1 x56.2926 y111.281
G1 x56.3526 y111.221
G1 x56.4126 y111.161
G1 x56.4726 y111.101
G1 x56.5326 y111.041
G1 x56.5926 y110.981
G1 x56.6526 y110.921
G1 x56.7126 y110.861
G1 x56.7726 y110.801
G1 x56.8326 y110.741
G1 x56.8926 y110.681
G1 x56.9526 y110.621
G1 x56.9726 y110.541
G1 x56.9826 y110.461
G1 x56.9826 y110.381
G1 x56.9926 y110.301
G1 x57.0026 y110.221
G1 x57.0226 y110.141
G1 x57.0526 y110.061
G1 x57.0726 y109.981
G1 x57.1026 y109.911
G1 x57.1426 y109.841
G1 x57.1726 y109.771
G1 x57.2126 y109.701
G1 x57.2626 y109.631
G1 x57.3126 y109.561
G1 x57.3626 y109.501
G1 x57.4226 y109.441
G1 x57.4826 y109.381
G1 x57.5426 y109.331
G1 x57.6026 y109.281
G1 x57.6726 y109.231
G1 x57.7426 y109.191
G1 x57.8126 y109.151
G1 x57.8826 y109.111
G1 x57.9526 y109.081
G1 x58.0226 y109.051
G1 x58.1026 y109.031
G1 x58.1826 y109.011
G1 x58.2626 y108.991
G1 x58.3426 y108.981
G1 x58.4226 y108.971
G1 x58.5026 y108.971
G1 x58.5826 y108.971
G1 x58.6626 y108.971
G1 x58.7426 y108.981
G1 x58.8226 y108.991
G1 x58.9026 y109.011
G1 x58.9826 y109.031
G1 x59.0626 y109.051
G1 x59.1326 y109.081
G1 x59.2026 y109.111
G1 x59.2726 y109.141
G1 x59.3426 y109.181
G1 x59.4126 y109.231
G1 x59.4826 y109.271
G1 x59.5426 y109.321
G1 x59.6026 y109.371
G1 x59.6626 y109.431
G1 x59.7326 y109.471
G1 x59.8126 y109.471
G1 x59.8926 y109.471
G1 x59.9726 y109.471
G1 x60.0526 y109.471
G1 x60.1326 y109.471
G1 x60.2126 y109.471
G1 x60.2926 y109.471
G1 x60.3726 y109.471
G1 x60.4526 y109.471
G1 x60.5326 y109.471
G1 x60.6126 y109.471
G1 x60.6926 y109.471
G1 x60.7726 y109.471
G1 x60.8526 y109.471
G1 x60.9326 y109.471
G1 x61.0126 y109.471
G1 x61.0926 y109.471
G1 x61.1726 y109.471
G1 x61.2526 y109.471
G1 x61.3326 y109.471
G1 x61.4126 y109.471
G1 x61.4926 y109.471
G1 x61.5726 y109.471
G1 x61.6526 y109.471
G1 x61.7326 y109.471
G1 x61.8126 y109.471
G1 x61.8926 y109.471
G1 x61.9726 y109.471
G1 x62.0526 y109.471
G1 x62.1326 y109.471
G1 x62.2126 y109.471
G1 x62.2926 y109.471
G1 x62.3726 y109.471
G1 x62.4526 y109.471
G1 x62.5326 y109.471
G1 x62.6126 y109.471
G1 x62.6926 y109.471
G1 x62.7726 y109.471
G1 x62.8526 y109.471
G1 x62.9326 y109.471
G1 x63.0126 y109.471
G1 x63.0926 y109.471
G1 x63.1726 y109.471
G1 x63.2526 y109.471
G1 x63.3326 y109.471
G1 x63.4126 y109.471
G1 x63.4926 y109.471
G1 x63.5726 y109.471
G1 x63.6526 y109.471
G1 x63.7326 y109.471
G1 x63.8126 y109.471
G1 x63.8926 y109.471
G1 x63.9726 y109.471
G1 x64.0526 y109.471
G1 x64.1326 y109.471
G1 x64.2126 y109.471
G1 x64.2926 y109.471
G1 x64.3726 y109.471
G1 x64.4526 y109.471
G1 x64.5326 y109.471
G1 x64.6126 y109.471
G1 x64.6926 y109.471
G1 x64.7726 y109.471
G1 x64.8526 y109.471
G1 x64.9326 y109.471
G1 x65.0126 y109.471
G1 x65.0926 y109.471
G1 x65.1726 y109.471
G1 x65.2526 y109.471
G1 x65.3326 y109.471
G1 x65.4126 y109.471
G1 x65.4926 y109.471
G1 x65.5726 y109.471
G1 x65.6526 y109.471
G1 x65.7326 y109.471
G1 x65.8126 y109.471
G1 x65.8926 y109.471
G1 x65.9726 y109.471
G1 x66.0526 y109.471
G1 x66.1326 y109.471
G1 x66.2126 y109.471
G1 x66.2926 y109.471
G1 x66.3726 y109.471
G1 x66.4526 y109.471
G1 x66.5326 y109.471
G1 x66.6126 y109.471
G1 x66.6926 y109.471
G1 x66.7726 y109.471
G1 x66.8526 y109.471
G1 x66.9326 y109.471
G1 x67.0126 y109.471
G1 x67.0926 y109.471
G1 x67.1726 y109.471
G1 x67.2526 y109.471
G1 x67.3326 y109.471
G1 x67.4126 y109.471
G1 x67.4926 y109.471
G1 x67.5726 y109.471
G1 x67.6526 y109.471
G1 x67.7326 y109.471
G1 x67.8126 y109.471
G1 x67.8926 y109.471
G1 x67.9726 y109.471
G1 x68.0526 y109.471
G1 x68.1126 y109.421
G1 x68.1726 y109.361
G1 x68.2326 y109.311
G1 x68.2926 y109.261
G1 x68.3626 y109.221
G1 x68.4326 y109.171
G1 x68.5026 y109.141
G1 x68.5726 y109.101
G1 x68.6426 y109.071
G1 x68.7226 y109.041
G1 x68.8026 y109.021
G1 x68.8826 y109.001
G1 x68.9626 y108.991
G1 x69.0426 y108.981
G1 x69.1226 y108.971
G1 x69.2026 y108.971
G1 x69.2826 y108.971
G1 x69.3626 y108.971
G1 x69.4426 y108.981
G1 x69.5226 y109.001
G1 x69.6026 y109.011
G1 x69.6826 y109.041
G1 x69.7626 y109.061
G1 x69.8326 y109.091
G1 x69.9026 y109.121
G1 x69.9726 y109.161
G1 x70.0426 y109.201
G1 x70.1126 y109.251
G1 x70.1826 y109.301
G1 x70.2426 y109.351
G1 x70.3026 y109.401
G1 x70.3626 y109.461
G1 x70.4426 y109.471
G1 x70.5226 y109.471
G1 x70.6026 y109.471
G1 x70.6826 y109.471
G1 x70.7626 y109.471
G1 x70.8426 y109.471
G1 x70.9226 y109.471
G1 x71.0026 y109.471
G1 x71.0826 y109.471
G1 x71.1626 y109.471
G1 x71.2426 y109.471
G1 x71.3226 y109.471
G1 x71.4026 y109.471
G1 x71.4826 y109.471
G1 x71.5626 y109.471
G1 x71.6426 y109.471
G1 x71.7226 y109.471
G1 x71.8026 y109.471
G1 x71.8826 y109.471
G1 x71.9626 y109.471
G1 x72.0426 y109.471
G1 x72.1226 y109.471
G1 x72.2026 y109.471
G1 x72.2826 y109.471
G1 x72.3626 y109.471
G1 x72.4426 y109.471
G1 x72.5226 y109.471
G1 x72.6026 y109.471
G1 x72.6826 y109.471
G1 x72.7626 y109.471
G1 x72.8426 y109.471
G1 x72.9226 y109.471
G1 x73.0026 y109.471
G1 x73.0826 y109.471
G1 x73.1626 y109.471
G1 x73.2426 y109.471
G1 x73.3226 y109.471
G1 x73.4026 y109.471
G1 x73.4826 y109.471
G1 x73.5626 y109.471
G1 x73.6426 y109.471
G1 x73.7226 y109.471
G1 x73.8026 y109.471
G1 x73.8826 y109.471
G1 x73.9626 y109.471
G1 x74.0426 y109.471
G1 x74.1226 y109.471
G1 x74.2026 y109.471
G1 x74.2826 y109.471
G1 x74.3626 y109.471
G1 x74.4426 y109.471
G1 x74.5226 y109.471
G1 x74.6026 y109.471
G1 x74.6826 y109.471
G1 x74.7626 y109.471
G1 x74.8426 y109.471
G1 x74.9226 y109.471
G1 x75.0026 y109.471
G1 x75.0826 y109.471
G1 x75.1626 y109.471
G1 x75.2426 y109.471
G1 x75.3226 y109.471
G1 x75.4026 y109.471
G1 x75.4826 y109.471
G1 x75.5626 y109.471
G1 x75.6426 y109.471
G1 x75.7226 y109.471
G1 x75.8026 y109.471
G1 x75.8826 y109.471
G1 x75.9626 y109.471
G1 x76.0426 y109.471
G1 x76.1226 y109.471
G1 x76.2026 y109.471
G1 x76.2826 y109.471
G1 x76.3626 y109.471
G1 x76.4426 y109.471
G1 x76.5226 y109.471
G1 x76.6026 y109.471
G1 x76.6826 y109.471
G1 x76.7626 y109.471
G1 x76.8426 y109.471
G1 x76.9226 y109.471
G1 x77.0026 y109.471
G1 x77.0826 y109.471
G1 x77.1626 y109.471
G1 x77.2426 y109.471
G1 x77.3226 y109.471
G1 x77.4026 y109.471
G1 x77.4826 y109.471
G1 x77.5626 y109.471
G1 x77.6426 y109.471
G1 x77.7226 y109.471
G1 x77.8026 y109.471
G1 x77.8826 y109.471
G1 x77.9626 y109.471
G1 x78.0426 y109.471
G1 x78.1226 y109.471
G1 x78.2026 y109.471
G1 x78.2826 y109.471
G1 x78.3626 y109.471
G1 x78.4426 y109.471
G1 x78.5226 y109.471
G1 x78.6026 y109.471
G1 x78.6826 y109.471
G1 x78.7626 y109.471
G1 x78.8426 y109.471
G1 x78.9226 y109.471
G1 x79.0026 y109.451
G1 x79.0626 y109.391
G1 x79.1226 y109.341
G1 x79.1826 y109.291
G1 x79.2426 y109.241
G1 x79.3126 y109.201
G1 x79.3826 y109.161
G1 x79.4526 y109.121
G1 x79.5226 y109.091
G1 x79.5926 y109.061
G1 x79.6726 y109.031
G1 x79.7526 y109.011
G1 x79.8326 y109.001
G1 x79.9126 y108.981
G1 x79.9926 y108.971
G1 x80.0726 y108.971
G1 x80.1526 y108.971
G1 x80.2326 y108.971
G1 x80.3126 y108.981
G1 x80.3926 y108.991
G1 x80.4726 y109.001
G1 x80.5526 y109.021
G1 x80.6326 y109.051
G1 x80.7126 y109.071
G1 x80.7826 y109.101
G1 x80.8526 y109.141
G1 x80.9226 y109.181
G1 x80.9926 y109.221
G1 x81.0626 y109.271
G1 x81.1326 y109.321
G1 x81.1926 y109.371
G1 x81.2526 y109.431
G1 x81.3226 y109.471
G1 x81.4026 y109.471
G1 x81.4826 y109.471
G1 x81.5626 y109.471
G1 x81.6426 y109.471
G1 x81.7226 y109.471
G1 x81.8026 y109.471
G1 x81.8826 y109.471
G1 x81.9626 y109.471
G1 x82.0426 y109.471
G1 x82.1226 y109.471
G1 x82.2026 y109.471
G1 x82.2826 y109.471
G1 x82.3626 y109.471
G1 x82.4426 y109.471
G1 x82.5226 y109.471
G1 x82.6026 y109.471
G1 x82.6826 y109.471
G1 x82.7626 y109.471
G1 x82.8426 y109.471
G1 x82.9226 y109.471
G1 x83.0026 y109.471
G1 x83.0826 y109.471
G1 x83.1626 y109.471
G1 x83.2426 y109.471
G1 x83.3226 y109.471
G1 x83.4026 y109.471
G1 x83.4826 y109.471
G1 x83.5626 y109.471
G1 x83.6426 y109.471
G1 x83.7226 y109.471
G1 x83.8026 y109.481
G1 x83.8826 y109.501
G1 x83.9626 y109.521
G1 x84.0326 y109.551
G1 x84.1026 y109.581
G1 x84.1726 y109.621
G1 x84.2426 y109.671
G1 x84.3026 y109.721
G1 x84.3626 y109.771
G1 x84.4226 y109.831
G1 x84.4826 y109.891
G1 x84.5426 y109.951
G1 x84.6026 y110.011
G1 x84.6626 y110.071
G1 x84.7226 y110.131
G1 x84.7826 y110.191
G1 x84.8426 y110.251
G1 x84.9026 y110.311
G1 x84.9626 y110.371
G1 x85.0226 y110.431
G1 x85.0826 y110.491
G1 x85.1426 y110.551
G1 x85.2026 y110.611
G1 x85.2626 y110.671
G1 x85.3226 y110.731
G1 x85.3826 y110.791
G1 x85.4426 y110.851
G1 x85.5026 y110.911
G1 x85.5626 y110.971
G1 x85.6226 y111.031
G1 x85.6826 y111.091
G1 x85.7426 y111.151
G1 x85.8026 y111.211
G1 x85.8626 y111.271
G1 x85.9226 y111.331
G1 x85.9826 y111.391
G1 x86.0426 y111.451
G1 x86.1026 y111.511
G1 x86.1626 y111.571
G1 x86.2226 y111.631
G1 x86.2826 y111.691
G1 x86.3426 y111.751
G1 x86.4026 y111.811
G1 x86.4626 y111.871
G1 x86.5226 y111.931
G1 x86.5826 y111.991
G1 x86.6426 y112.051
G1 x86.7026 y112.111
G1 x86.7626 y112.171
G1 x86.8226 y112.231
G1 x86.8826 y112.291
G1 x86.9426 y112.351
G1 x87.0026 y112.411
G1 x87.0626 y112.471
G1 x87.1226 y112.531
G1 x87.1826 y112.591
G1 x87.2426 y112.651
G1 x87.3026 y112.711
G1 x87.3626 y112.771
G1 x87.4226 y112.831
G1 x87.4826 y112.891
G1 x87.5426 y112.951
G1 x87.6026 y113.011
G1 x87.6626 y113.071
G1 x87.7226 y113.131
G1 x87.7826 y113.191
G1 x87.8426 y113.251
G1 x87.9026 y113.311
G1 x87.9626 y113.371
G1 x88.0226 y113.431
G1 x88.0826 y113.491
G1 x88.1426 y113.551
G1 x88.2026 y113.611
G1 x88.2626 y113.671
G1 x88.3226 y113.731
G1 x88.3826 y113.791
G1 x88.4426 y113.851
G1 x88.5026 y113.911
G1 x88.5626 y113.971
G1 x88.6226 y114.031
G1 x88.6826 y114.091
G1 x88.7426 y114.151
G1 x88.8026 y114.211
G1 x88.8626 y114.271
G1 x88.9226 y114.331
G1 x88.9926 y114.371
G1 x89.0726 y114.371
G1 x89.1526 y114.371
G1 x89.2326 y114.371
G1 x89.3126 y114.371
G1 x89.3926 y114.371
G1 x89.4726 y114.371
G1 x89.5526 y114.371
G1 x89.6326 y114.371
G1 x89.7126 y114.371
G1 x89.7926 y114.371
G1 x89.7726 y114.291
G1 x89.7126 y114.231
G1 x89.6526 y114.171
G1 x89.5926 y114.111
G1 x89.5326 y114.051
G1 x89.4726 y113.991
G1 x89.4126 y113.931
G1 x89.3526 y113.871
G1 x89.2926 y113.811
G1 x89.2326 y113.751
G1 x89.1726 y113.691
G1 x89.1126 y113.631
G1 x89.0526 y113.571
G1 x88.9926 y113.511
G1 x88.9326 y113.451
G1 x88.8726 y113.391
G1 x88.8126 y113.331
G1 x88.7526 y113.271
G1 x88.6926 y113.211
G1 x88.6326 y113.151
G1 x88.5726 y113.091
G1 x88.5126 y113.031
G1 x88.4526 y112.971
G1 x88.3926 y112.911
G1 x88.3326 y112.851
G1 x88.2726 y112.791
G1 x88.2126 y112.731
G1 x88.1526 y112.671
G1 x88.0926 y112.611
G1 x88.0326 y112.551
G1 x87.9726 y112.491
G1 x87.9126 y112.431
G1 x87.8526 y112.371
G1 x87.7926 y112.311
G1 x87.7326 y112.251
G1 x87.6726 y112.191
G1 x87.6126 y112.131
G1 x87.5526 y112.071
G1 x87.4926 y112.011
G1 x87.4326 y111.951
G1 x87.3726 y111.891
G1 x87.3126 y111.831
G1 x87.2526 y111.771
G1 x87.1926 y111.711
G1 x87.1326 y111.651
G1 x87.0726 y111.591
G1 x87.0126 y111.531
G1 x86.9526 y111.471
G1 x86.8926 y111.411
G1 x86.8326 y111.351
G1 x86.7726 y111.291
G1 x86.7126 y111.231
G1 x86.6526 y111.171
G1 x86.5926 y111.111
G1 x86.5326 y111.051
G1 x86.4726 y110.991
G1 x86.4126 y110.931
G1 x86.3526 y110.871
G1 x86.2926 y110.811
G1 x86.2326 y110.751
G1 x86.1726 y110.691
G1 x86.1126 y110.631
G1 x86.0526 y110.571
G1 x85.9926 y110.511
G1 x85.9326 y110.451
G1 x85.8726 y110.391
G1 x85.8126 y110.331
G1 x85.7526 y110.271
G1 x85.6926 y110.211
G1 x85.6326 y110.151
G1 x85.5726 y110.091
G1 x85.5126 y110.031
G1 x85.4526 y109.971
G1 x85.3926 y109.911
G1 x85.3326 y109.851
G1 x85.2726 y109.791
G1 x85.2126 y109.731
G1 x85.1526 y109.671
G1 x85.0926 y109.611
G1 x85.0326 y109.551
G1 x84.9726 y109.491
G1 x84.9126 y109.431
G1 x84.8526 y109.371
G1 x84.7926 y109.311
G1 x84.7326 y109.251
G1 x84.6726 y109.191
G1 x84.6126 y109.131
G1 x84.5526 y109.071
G1 x84.4926 y109.011
G1 x84.4326 y108.951
G1 x84.3726 y108.891
G1 x84.3126 y108.831
G1 x84.2526 y108.771
G1 x84.1926 y108.711
G1 x84.1326 y108.651
G1 x84.0726 y108.591
G1 x84.0126 y108.531
G1 x83.9526 y108.471
G1 x83.8926 y108.411
G1 x83.8326 y108.351
G1 x83.7726 y108.291
G1 x83.7126 y108.231
G1 x83.6526 y108.171
G1 x83.5926 y108.111
G1 x83.5326 y108.051
G1 x83.4726 y107.991
G1 x83.4126 y107.931
G1 x83.3526 y107.871
G1 x83.2926 y107.811
G1 x83.2326 y107.751
G1 x83.1726 y107.691
G1 x83.1126 y107.631
G1 x83.0526 y107.571
G1 x82.9726 y107.571
G1 x82.8926 y107.571
G1 x82.8126 y107.571
G1 x82.7326 y107.571
G1 x82.6526 y107.571
G1 x82.5726 y107.571
G1 x82.4926 y107.571
G1 x82.4126 y107.571
G1 x82.3326 y107.571
G1 x82.2526 y107.571
G1 x82.1726 y107.571
G1 x82.0926 y107.571
G1 x82.0126 y107.571
G1 x81.9326 y107.571
G1 x81.8526 y107.571
G1 x81.7726 y107.571
G1 x81.6926 y107.571
G1 x81.6126 y107.571
G1 x81.5326 y107.571
G1 x81.4526 y107.571
G1 x81.3726 y107.571
G1 x81.2926 y107.571
G1 x81.2126 y107.571
G1 x81.1326 y107.571
G1 x81.0526 y107.571
G1 x80.9726 y107.571
G1 x80.8926 y107.571
G1 x80.8126 y107.571
G1 x80.7326 y107.571
G1 x80.6526 y107.571
G1 x80.5726 y107.571
G1 x80.4926 y107.571
G1 x80.4126 y107.571
G1 x80.3326 y107.571
G1 x80.2526 y107.571
G1 x80.1726 y107.571
G1 x80.0926 y107.571
G1 x80.0126 y107.571
G1 x79.9326 y107.571
G1 x79.8526 y107.571
G1 x79.7726 y107.571
G1 x79.6926 y107.571
G1 x79.6126 y107.571
G1 x79.5326 y107.571
G1 x79.4526 y107.571
G1 x79.3726 y107.571
G1 x79.2926 y107.571
G1 x79.2126 y107.571
G1 x79.1326 y107.571
G1 x79.0526 y107.571
G1 x78.9726 y107.571
G1 x78.8926 y107.571
G1 x78.8126 y107.571
G1 x78.7326 y107.571
G1 x78.6526 y107.571
G1 x78.5726 y107.571
G1 x78.4926 y107.571
G1 x78.4126 y107.571
G1 x78.3326 y107.571
G1 x78.2526 y107.571
G1 x78.1726 y107.571
G1 x78.0926 y107.571
G1 x78.0126 y107.571
G1 x77.9326 y107.571
G1 x77.8526 y107.571
G1 x77.7726 y107.571
G1 x77.6926 y107.571
G1 x77.6126 y107.571
G1 x77.5326 y107.571
G1 x77.4526 y107.571
G1 x77.3726 y107.571
G1 x77.2926 y107.571
G1 x77.2126 y107.571
G1 x77.1326 y107.571
G1 x77.0526 y107.571
G1 x76.9726 y107.571
G1 x76.8926 y107.571
G1 x76.8126 y107.571
G1 x76.7326 y107.571
G1 x76.6526 y107.571
G1 x76.5726 y107.571
G1 x76.4926 y107.571
G1 x76.4126 y107.571
G1 x76.3326 y107.571
G1 x76.2526 y107.571
G1 x76.1726 y107.571
G1 x76.0926 y107.571
G1 x76.0126 y107.571
G1 x75.9326 y107.571
G1 x75.8526 y107.571
G1 x75.7726 y107.571
G1 x75.6926 y107.571
G1 x75.6126 y107.571
G1 x75.5326 y107.571
G1 x75.4526 y107.571
G1 x75.3726 y107.571
G1 x75.2926 y107.571
G1 x75.2126 y107.571
G1 x75.1326 y107.571
G1 x75.0526 y107.571
G1 x74.9726 y107.571
G1 x74.8926 y107.571
G1 x74.8126 y107.571
G1 x74.7326 y107.571
G1 x74.6526 y107.571
G1 x74.5726 y107.571
G1 x74.4926 y107.571
G1 x74.4126 y107.571
G1 x74.3326 y107.571
G1 x74.2526 y107.571
G1 x74.1726 y107.571
G1 x74.0926 y107.571
G1 x74.0126 y107.571
G1 x73.9326 y107.571
G1 x73.8526 y107.571
G1 x73.7726 y107.571
G1 x73.6926 y107.571
G1 x73.6126 y107.571
G1 x73.5326 y107.571
G1 x73.4526 y107.571
G1 x73.3726 y107.571
G1 x73.2926 y107.571
G1 x73.2126 y107.571
G1 x73.1326 y107.571
G1 x73.0526 y107.571
G1 x72.9726 y107.571
G1 x72.8926 y107.571
G1 x72.8126 y107.571
G1 x72.7326 y107.571
G1 x72.6526 y107.571
G1 x72.5726 y107.571
G1 x72.4926 y107.571
G1 x72.4126 y107.571
G1 x72.3326 y107.571
G1 x72.2526 y107.571
G1 x72.1726 y107.571
G1 x72.0926 y107.571
G1 x72.0126 y107.571
G1 x71.9326 y107.571
G1 x71.8526 y107.571
G1 x71.7726 y107.571
G1 x71.6926 y107.571
G1 x71.6126 y107.571
G1 x71.5326 y107.571
G1 x71.4526 y107.571
G1 x71.3726 y107.571
G1 x71.2926 y107.571
G1 x71.2126 y107.571
G1 x71.1326 y107.571
G1 x71.0526 y107.571
G1 x70.9726 y107.571
G1 x70.8926 y107.571
G1 x70.8126 y107.571
G1 x70.7326 y107.571
G1 x70.6526 y107.571
G1 x70.5726 y107.571
G1 x70.4926 y107.571
G1 x70.4126 y107.571
G1 x70.3326 y107.571
G1 x70.2526 y107.571
G1 x70.1726 y107.571
G1 x70.0926 y107.571
G1 x70.0126 y107.571
G1 x69.9326 y107.571
G1 x69.8526 y107.571
G1 x69.7726 y107.571
G1 x69.6926 y107.571
G1 x69.6126 y107.571
G1 x69.5326 y107.571
G1 x69.4526 y107.571
G1 x69.3726 y107.571
G1 x69.2926 y107.571
G1 x69.2126 y107.571
G1 x69.1326 y107.571
G1 x69.0526 y107.571
G1 x68.9726 y107.571
G1 x68.8926 y107.571
G1 x68.8126 y107.571
G1 x68.7326 y107.571
G1 x68.6526 y107.571
G1 x68.5726 y107.571
G1 x68.4926 y107.571
G1 x68.4126 y107.571
G1 x68.3326 y107.571
G1 x68.2526 y107.571
G1 x68.1726 y107.571
G1 x68.0926 y107.571
G1 x68.0126 y107.571
G1 x67.9326 y107.571
G1 x67.8526 y107.571
G1 x67.7726 y107.571
G1 x67.6926 y107.571
G1 x67.6126 y107.571
G1 x67.5326 y107.571
G1 x67.4526 y107.571
G1 x67.3726 y107.571
G1 x67.2926 y107.571
G1 x67.2126 y107.571
G1 x67.1326 y107.571
G1 x67.0526 y107.571
G1 x66.9726 y107.571
G1 x66.8926 y107.571
G1 x66.8126 y107.571
G1 x66.7326 y107.571
G1 x66.6526 y107.571
G1 x66.5726 y107.571
G1 x66.4926 y107.571
G1 x66.4126 y107.571
G1 x66.3326 y107.571
G1 x66.2526 y107.571
G1 x66.1726 y107.571
G1 x66.0926 y107.571
G1 x66.0126 y107.571
G1 x65.9326 y107.571
G1 x65.8526 y107.571
G1 x65.7726 y107.571
G1 x65.6926 y107.571
G1 x65.6126 y107.571
G1 x65.5326 y107.571
G1 x65.4526 y107.571
G1 x65.3726 y107.571
G1 x65.2926 y107.571
G1 x65.2126 y107.571
G1 x65.1326 y107.571
G1 x65.0526 y107.571
G1 x64.9726 y107.571
G1 x64.8926 y107.571
G1 x64.8126 y107.571
G1 x64.7326 y107.571
G1 x64.6526 y107.571
G1 x64.5726 y107.571
G1 x64.4926 y107.571
G1 x64.4126 y107.571
G1 x64.3326 y107.571
G1 x64.2526 y107.571
G1 x64.1726 y107.571
G1 x64.0926 y107.571
G1 x64.0126 y107.571
G1 x63.9326 y107.571
G1 x63.8526 y107.571
G1 x63.7726 y107.571
G1 x63.6926 y107.571
G1 x63.6126 y107.571
G1 x63.5326 y107.571
G1 x63.4526 y107.571
G1 x63.3726 y107.571
G1 x63.2926 y107.571
G1 x63.2126 y107.571
G1 x63.1326 y107.571
G1 x63.0526 y107.571
G1 x62.9726 y107.571
G1 x62.8926 y107.571
G1 x62.8126 y107.571
G1 x62.7326 y107.571
G1 x62.6526 y107.571
G1 x62.5726 y107.571
G1 x62.4926 y107.571
G1 x62.4126 y107.571
G1 x62.3326 y107.571
G1 x62.2526 y107.571
G1 x62.1726 y107.571
G1 x62.0926 y107.571
G1 x62.0126 y107.571
G1 x61.9326 y107.571
G1 x61.8526 y107.571
G1 x61.7726 y107.571
G1 x61.6926 y107.571
G1 x61.6126 y107.571
G1 x61.5326 y107.571
G1 x61.4526 y107.571
G1 x61.3726 y107.571
G1 x61.2926 y107.571
G1 x61.2126 y107.571
G1 x61.1326 y107.571
G1 x61.0526 y107.571
G1 x60.9726 y107.571
G1 x60.8926 y107.571
G1 x60.8126 y107.571
G1 x60.7326 y107.571
G1 x60.6526 y107.571
G1 x60.5726 y107.571
G1 x60.4926 y107.571
G1 x60.4126 y107.571
G1 x60.3326 y107.571
G1 x60.2526 y107.571
G1 x60.1726 y107.571
G1 x60.0926 y107.571
G1 x60.0126 y107.571
G1 x59.9326 y107.571
G1 x59.8526 y107.571
G1 x59.7726 y107.571
G1 x59.6926 y107.571
G1 x59.6126 y107.571
G1 x59.5326 y107.571
G1 x59.4526 y107.571
G1 x59.3726 y107.571
G1 x59.2926 y107.571
G1 x59.2126 y107.571
G1 x59.1326 y107.571
G1 x59.0526 y107.571
G1 x58.9726 y107.571
G1 x58.8926 y107.571
G1 x58.8126 y107.571
G1 x58.7326 y107.571
G1 x58.6526 y107.571
G1 x58.5726 y107.571
G1 x58.4926 y107.571
G1 x58.4126 y107.571
G1 x58.3326 y107.571
G1 x58.2526 y107.571
G1 x58.1726 y107.571
G1 x58.0926 y107.571
G1 x58.0126 y107.571
G1 x57.9326 y107.571
G1 x57.8526 y107.571
G1 x57.7726 y107.571
G1 x57.7126 y107.621
G1 x57.6526 y107.681
G1 x57.5926 y107.741
G1 x57.5326 y107.801
G1 x57.4726 y107.861
G1 x57.4126 y107.921
G1 x57.3526 y107.981
G1 x57.2926 y108.041
G1 x57.2326 y108.101
G1 x57.1726 y108.161
G1 x57.1126 y108.221
G1 x57.0526 y108.281
G1 x56.9926 y108.341
G1 x56.9326 y108.401
G1 x56.8726 y108.461
G1 x56.8126 y108.521
G1 x56.7526 y108.581
G1 x56.6926 y108.641
G1 x56.6326 y108.701
G1 x56.5726 y108.761
G1 x56.5126 y108.821
G1 x56.4526 y108.881
G1 x56.3926 y108.941
G1 x56.3326 y109.001
G1 x56.2726 y109.061
G1 x56.2126 y109.121
G1 x56.1526 y109.181
G1 x56.0926 y109.241
G1 x56.0326 y109.301
G1 x55.9726 y109.361
G1 x55.9126 y109.421
G1 x55.8526 y109.481
G1 x55.7826 y109.531
G1 x55.7126 y109.561
G1 x55.6326 y109.591
G1 x55.5526 y109.601
G1 x55.4726 y109.601
G1 x55.3926 y109.591
G1 x55.3126 y109.571
G1 x55.2426 y109.541
G1 x55.1726 y109.501
G1 x55.1126 y109.451
G1 x55.0526 y109.391
G1 x55.0026 y109.321
G1 x54.9726 y109.251
G1 x54.9426 y109.181
G1 x54.9326 y109.101
G1 x54.9326 y109.021
G1 x54.9326 y108.941
G1 x54.9526 y108.861
G1 x54.9826 y108.791
G1 x55.0126 y108.721
G1 x55.0626 y108.661
G1 x55.1226 y108.601
G1 x55.1826 y108.541
G1 x55.2426 y108.481
G1 x55.3026 y108.421
G1 x55.3626 y108.361
G1 x55.4226 y108.301
G1 x55.4826 y108.241
G1 x55.5426 y108.181
G1 x55.6026 y108.121
G1 x55.6626 y108.061
G1 x55.7226 y108.001
G1 x55.7826 y107.941
G1 x55.8426 y107.881
G1 x55.9026 y107.821
G1 x55.9626 y107.761
G1 x56.0226 y107.701
G1 x56.0826 y107.641
G1 x56.1426 y107.581
G1 x56.2026 y107.521
G1 x56.2626 y107.461
G1 x56.3226 y107.401
G1 x56.3826 y107.341
G1 x56.4426 y107.281
G1 x56.5026 y107.221
G1 x56.5626 y107.161
G1 x56.6226 y107.101
G1 x56.6826 y107.041
G1 x56.7426 y106.981
G1 x56.8026 y106.921
G1 x56.8626 y106.861
G1 x56.9226 y106.801
G1 x56.9826 y106.741
G1 x57.0426 y106.681
G1 x57.1026 y106.621
G1 x57.1626 y106.561
G1 x57.2226 y106.511
G1 x57.2926 y106.481
G1 x57.3626 y106.451
G1 x57.4426 y106.431
G1 x57.5226 y106.431
G1 x57.6026 y106.431
G1 x57.6826 y106.431
G1 x57.7626 y106.431
G1 x57.8426 y106.431
G1 x57.9226 y106.431
G1 x58.0026 y106.431
G1 x58.0826 y106.431
G1 x58.1626 y106.431
G1 x58.2426 y106.431
G1 x58.3226 y106.431
G1 x58.4026 y106.431
G1 x58.4826 y106.431
G1 x58.5626 y106.431
G1 x58.6426 y106.431
G1 x58.7226 y106.431
G1 x58.8026 y106.431
G1 x58.8826 y106.431
G1 x58.9626 y106.431
G1 x59.0426 y106.431
G1 x59.1226 y106.431
G1 x59.2026 y106.431
G1 x59.2826 y106.431
G1 x59.3626 y106.431
G1 x59.4426 y106.431
G1 x59.5226 y106.431
G1 x59.6026 y106.431
G1 x59.6826 y106.431
G1 x59.7626 y106.431
G1 x59.8426 y106.431
G1 x59.9226 y106.431
G1 x60.0026 y106.431
G1 x60.0826 y106.431
G1 x60.1626 y106.431
G1 x60.2426 y106.431
G1 x60.3226 y106.431
G1 x60.4026 y106.431
G1 x60.4826 y106.431
G1 x60.5626 y106.431
G1 x60.6426 y106.431
G1 x60.7226 y106.431
G1 x60.8026 y106.431
G1 x60.8826 y106.431
G1 x60.9626 y106.431
G1 x61.0426 y106.431
G1 x61.1226 y106.431
G1 x61.2026 y106.431
G1 x61.2826 y106.431
G1 x61.3626 y106.431
G1 x61.4426 y106.431
G1 x61.5226 y106.431
G1 x61.6026 y106.431
G1 x61.6826 y106.431
G1 x61.7626 y106.431
G1 x61.8426 y106.431
G1 x61.9226 y106.431
G1 x62.0026 y106.431
G1 x62.0826 y106.431
G1 x62.1626 y106.431
G1 x62.2426 y106.431
G1 x62.3226 y106.431
G1 x62.4026 y106.431
G1 x62.4826 y106.431
G1 x62.5626 y106.431
G1 x62.6426 y106.431
G1 x62.7226 y106.431
G1 x62.8026 y106.431
G1 x62.8826 y106.431
G1 x62.9626 y106.431
G1 x63.0426 y106.431
G1 x63.1226 y106.431
G1 x63.2026 y106.431
G1 x63.2826 y106.431
G1 x63.3626 y106.431
G1 x63.4426 y106.431
G1 x63.5226 y106.431
G1 x63.6026 y106.431
G1 x63.6826 y106.431
G1 x63.7626 y106.431
G1 x63.8426 y106.431
G1 x63.9226 y106.431
G1 x64.0026 y106.431
G1 x64.0826 y106.431
G1 x64.1626 y106.431
G1 x64.2426 y106.431
G1 x64.3226 y106.431
G1 x64.4026 y106.431
G1 x64.4826 y106.431
G1 x64.5626 y106.431
G1 x64.6426 y106.431
G1 x64.7226 y106.431
G1 x64.8026 y106.431
G1 x64.8826 y106.431
G1 x64.9626 y106.431
G1 x65.0426 y106.431
G1 x65.1226 y106.431
G1 x65.2026 y106.431
G1 x65.2826 y106.431
G1 x65.3626 y106.431
G1 x65.4426 y106.431
G1 x65.5226 y106.431
G1 x65.6026 y106.431
G1 x65.6826 y106.431
G1 x65.7626 y106.431
G1 x65.8426 y106.431
G1 x65.9226 y106.431
G1 x66.0026 y106.431
G1 x66.0826 y106.431
G1 x66.1626 y106.431
G1 x66.2426 y106.431
G1 x66.3226 y106.431
G1 x66.4026 y106.431
G1 x66.4826 y106.431
G1 x66.5626 y106.431
G1 x66.6426 y106.431
G1 x66.7226 y106.431
G1 x66.8026 y106.431
G1 x66.8826 y106.431
G1 x66.9626 y106.431
G1 x67.0426 y106.431
G1 x67.1226 y106.431
G1 x67.2026 y106.431
G1 x67.2826 y106.431
G1 x67.3626 y106.431
G1 x67.4426 y106.431
G1 x67.5226 y106.431
G1 x67.6026 y106.431
G1 x67.6826 y106.431
G1 x67.7626 y106.431
G1 x67.8426 y106.431
G1 x67.9226 y106.431
G1 x68.0026 y106.431
G1 x68.0826 y106.431
G1 x68.1626 y106.431
G1 x68.2426 y106.431
G1 x68.3226 y106.431
G1 x68.4026 y106.431
G1 x68.4826 y106.431
G1 x68.5626 y106.431
G1 x68.6426 y106.431
G1 x68.7226 y106.431
G1 x68.8026 y106.431
G1 x68.8826 y106.431
G1 x68.9626 y106.431
G1 x69.0426 y106.431
G1 x69.1226 y106.431
G1 x69.2026 y106.431
G1 x69.2826 y106.431
G1 x69.3626 y106.431
G1 x69.4426 y106.431
G1 x69.5226 y106.431
G1 x69.6026 y106.431
G1 x69.6826 y106.431
G1 x69.7626 y106.431
G1 x69.8426 y106.431
G1 x69.9226 y106.431
G1 x70.0026 y106.431
G1 x70.0826 y106.431
G1 x70.1626 y106.431
G1 x70.2426 y106.431
G1 x70.3226 y106.431
G1 x70.4026 y106.431
G1 x70.4826 y106.431
G1 x70.5626 y106.431
G1 x70.6426 y106.431
G1 x70.7226 y106.431
G1 x70.8026 y106.431
G1 x70.8826 y106.431
G1 x70.9626 y106.431
G1 x71.0426 y106.431
G1 x71.1226 y106.431
G1 x71.2026 y106.431
G1 x71.2826 y106.431
G1 x71.3626 y106.431
G1 x71.4426 y106.431
G1 x71.5226 y106.431
G1 x71.6026 y106.431
G1 x71.6826 y106.431
G1 x71.7626 y106.431
G1 x71.8426 y106.431
G1 x71.9226 y106.431
G1 x72.0026 y106.431
G1 x72.0826 y106.431
G1 x72.1626 y106.431
G1 x72.2426 y106.431
G1 x72.3226 y106.431
G1 x72.4026 y106.431
G1 x72.4826 y106.431
G1 x72.5626 y106.431
G1 x72.6426 y106.431
G1 x72.7226 y106.431
G1 x72.8026 y106.431
G1 x72.8826 y106.431
G1 x72.9626 y106.431
G1 x73.0426 y106.431
G1 x73.1226 y106.431
G1 x73.2026 y106.431
G1 x73.2826 y106.431
G1 x73.3626 y106.431
G1 x73.4426 y106.431
G1 x73.5226 y106.431
G1 x73.6026 y106.431
G1 x73.6826 y106.431
G1 x73.7626 y106.431
G1 x73.8426 y106.431
G1 x73.9226 y106.431
G1 x74.0026 y106.431
G1 x74.0826 y106.431
G1 x74.1626 y106.431
G1 x74.2426 y106.431
G1 x74.3226 y106.431
G1 x74.4026 y106.431
G1 x74.4826 y106.431
G1 x74.5626 y106.431
G1 x74.6426 y106.431
G1 x74.7226 y106.431
G1 x74.8026 y106.431
G1 x74.8826 y106.431
G1 x74.9626 y106.431
G1 x75.0426 y106.431
G1 x75.1226 y106.431
G1 x75.2026 y106.431
G1 x75.2826 y106.431
G1 x75.3626 y106.431
G1 x75.4426 y106.431
G1 x75.5226 y106.431
G1 x75.6026 y106.431
G1 x75.6826 y106.431
G1 x75.7626 y106.431
G1 x75.8426 y106.431
G1 x75.9226 y106.431
G1 x76.0026 y106.431
G1 x76.0826 y106.431
G1 x76.1626 y106.431
G1 x76.2426 y106.431
G1 x76.3226 y106.431
G1 x76.4026 y106.431
G1 x76.4826 y106.431
G1 x76.5626 y106.431
G1 x76.6426 y106.431
G1 x76.7226 y106.431
G1 x76.8026 y106.431
G1 x76.8826 y106.431
G1 x76.9626 y106.431
G1 x77.0426 y106.431
G1 x77.1226 y106.431
G1 x77.2026 y106.431
G1 x77.2826 y106.431
G1 x77.3626 y106.431
G1 x77.4426 y106.431
G1 x77.5226 y106.431
G1 x77.6026 y106.431
G1 x77.6826 y106.431
G1 x77.7626 y106.431
G1 x77.8426 y106.431
G1 x77.9226 y106.431
G1 x78.0026 y106.431
G1 x78.0826 y106.431
G1 x78.1626 y106.431
G1 x78.2426 y106.431
G1 x78.3226 y106.431
G1 x78.4026 y106.431
G1 x78.4826 y106.431
G1 x78.5626 y106.431
G1 x78.6426 y106.431
G1 x78.7226 y106.431
G1 x78.8026 y106.431
G1 x78.8826 y106.431
G1 x78.9626 y106.431
G1 x79.0426 y106.431
G1 x79.1226 y106.431
G1 x79.2026 y106.431
G1 x79.2826 y106.431
G1 x79.3626 y106.431
G1 x79.4426 y106.431
G1 x79.5226 y106.431
G1 x79.6026 y106.431
G1 x79.6826 y106.431
G1 x79.7626 y106.431
G1 x79.8426 y106.431
G1 x79.9226 y106.431
G1 x80.0026 y106.431
G1 x80.0826 y106.431
G1 x80.1626 y106.431
G1 x80.2426 y106.431
G1 x80.3226 y106.431
G1 x80.4026 y106.431
G1 x80.4826 y106.431
G1 x80.5626 y106.431
G1 x80.6426 y106.431
G1 x80.7226 y106.431
G1 x80.8026 y106.431
G1 x80.8826 y106.431
G1 x80.9626 y106.431
G1 x81.0426 y106.431
G1 x81.1226 y106.431
G1 x81.2026 y106.431
G1 x81.2826 y106.431
G1 x81.3626 y106.431
G1 x81.4426 y106.431
G1 x81.5226 y106.431
G1 x81.6026 y106.431
G1 x81.6826 y106.431
G1 x81.7626 y106.431
G1 x81.8426 y106.431
G1 x81.9226 y106.431
G1 x82.0026 y106.431
G1 x82.0826 y106.431
G1 x82.1626 y106.431
G1 x82.2426 y106.431
G1 x82.3226 y106.431
G1 x82.4026 y106.431
G1 x82.4826 y106.431
G1 x82.5626 y106.431
G1 x82.6426 y106.431
G1 x82.7226 y106.431
G1 x82.8026 y106.431
G1 x82.8826 y106.431
G1 x82.9626 y106.431
G1 x83.0426 y106.431
G1 x83.1226 y106.431
G1 x83.2026 y106.431
G1 x83.2826 y106.431
G1 x83.3626 y106.431
G1 x83.4426 y106.441
G1 x83.5126 y106.471
G1 x83.5826 y106.501
G1 x83.6526 y106.551
G1 x83.7126 y106.611
G1 x83.7726 y106.671
G1 x83.8326 y106.731
G1 x83.8926 y106.791
G1 x83.9526 y106.851
G1 x84.0126 y106.911
G1 x84.0726 y106.971
G1 x84.1326 y107.031
G1 x84.1926 y107.091
G1 x84.2526 y107.151
G1 x84.3126 y107.211
G1 x84.3726 y107.271
G1 x84.4326 y107.331
G1 x84.4926 y107.391
G1 x84.5526 y107.451
G1 x84.6126 y107.511
G1 x84.6726 y107.571
G1 x84.7326 y107.631
G1 x84.7926 y107.691
G1 x84.8526 y107.751
G1 x84.9126 y107.811
G1 x84.9726 y107.871
G1 x85.0326 y107.931
G1 x85.0926 y107.991
G1 x85.1526 y108.051
G1 x85.2126 y108.111
G1 x85.2726 y108.171
G1 x85.3326 y108.231
G1 x85.3926 y108.291
G1 x85.4526 y108.351
G1 x85.5126 y108.411
G1 x85.5726 y108.471
G1 x85.6326 y108.531
G1 x85.6926 y108.591
G1 x85.7526 y108.651
G1 x85.8126 y108.711
G1 x85.8726 y108.771
G1 x85.9326 y108.831
G1 x85.9926 y108.891
G1 x86.0526 y108.951
G1 x86.1126 y109.011
G1 x86.1726 y109.071
G1 x86.2326 y109.131
G1 x86.2926 y109.191
G1 x86.3526 y109.251
G1 x86.4126 y109.311
G1 x86.4726 y109.371
G1 x86.5326 y109.431
G1 x86.5926 y109.491
G1 x86.6526 y109.551
G1 x86.7126 y109.611
G1 x86.7726 y109.671
G1 x86.8326 y109.731
G1 x86.8926 y109.791
G1 x86.9526 y109.851
G1 x87.0126 y109.911
G1 x87.0726 y109.971
G1 x87.1326 y110.031
G1 x87.1926 y110.091
G1 x87.2526 y110.151
G1 x87.3126 y110.211
G1 x87.3726 y110.271
G1 x87.4326 y110.331
G1 x87.4926 y110.391
G1 x87.5526 y110.451
G1 x87.6126 y110.511
G1 x87.6726 y110.571
G1 x87.7326 y110.631
G1 x87.7926 y110.691
G1 x87.8526 y110.751
G1 x87.9126 y110.811
G1 x87.9726 y110.871
G1 x88.0326 y110.931
G1 x88.0926 y110.991
G1 x88.1526 y111.051
G1 x88.2126 y111.111
G1 x88.2726 y111.171
G1 x88.3326 y111.231
G1 x88.3926 y111.291
G1 x88.4526 y111.351
G1 x88.5126 y111.411
G1 x88.5726 y111.471
G1 x88.6326 y111.531
G1 x88.6926 y111.591
G1 x88.7526 y111.651
G1 x88.8126 y111.711
G1 x88.8726 y111.771
G1 x88.9326 y111.831
G1 x88.9926 y111.891
G1 x89.0526 y111.951
G1 x89.1126 y112.011
G1 x89.1726 y112.071
G1 x89.2326 y112.131
G1 x89.2926 y112.191
G1 x89.3526 y112.251
G1 x89.4126 y112.311
G1 x89.4726 y112.371
G1 x89.5326 y112.431
G1 x89.5926 y112.491
G1 x89.6526 y112.551
G1 x89.7126 y112.611
G1 x89.7726 y112.671
G1 x89.8326 y112.731
G1 x89.8926 y112.791
G1 x89.9526 y112.851
G1 x90.0126 y112.911
G1 x90.0726 y112.971
G1 x90.1326 y113.031
G1 x90.1926 y113.091
G1 x90.2526 y113.151
G1 x90.3126 y113.211
G1 x90.3726 y113.271
G1 x90.4326 y113.331
G1 x90.5126 y113.341
G1 x90.5726 y113.281
G1 x90.6326 y113.221
G1 x90.6926 y113.161
G1 x90.7526 y113.101
G1 x90.8126 y113.041
G1 x90.8726 y112.981
G1 x90.9326 y112.921
G1 x90.9926 y112.861
G1 x91.0526 y112.801
G1 x91.1126 y112.741
G1 x91.1726 y112.681
G1 x91.2326 y112.621
G1 x91.2926 y112.561
G1 x91.3526 y112.501
G1 x91.4126 y112.441
G1 x91.4726 y112.381
G1 x91.5326 y112.321
G1 x91.5926 y112.261
G1 x91.6526 y112.201
G1 x91.7126 y112.141
G1 x91.7826 y112.091
G1 x91.8526 y112.061
G1 x91.9226 y112.031
G1 x92.0026 y112.021
G1 x92.0826 y112.011
G1 x92.1626 y112.011
G1 x92.2426 y112.011
G1 x92.3226 y112.011
G1 x92.4026 y112.011
G1 x92.4826 y112.011
G1 x92.5626 y112.011
G1 x92.6426 y112.011
G1 x92.7226 y112.011
G1 x92.8026 y112.011
G1 x92.8826 y112.011
G1 x92.9626 y112.011
G1 x93.0426 y112.011
G1 x93.1226 y112.011
G1 x93.2026 y112.011
G1 x93.2826 y112.011
G1 x93.3626 y112.011
G1 x93.4326 y111.961
G1 x93.4926 y111.911
G1 x93.5626 y111.861
G1 x93.6326 y111.831
G1 x93.7026 y111.801
G1 x93.7826 y111.771
G1 x93.8626 y111.761
G1 x93.9426 y111.751
G1 x94.0226 y111.751
G1 x94.1026 y111.761
G1 x94.1826 y111.781
G1 x94.2626 y111.801
G1 x94.3326 y111.831
G1 x94.4026 y111.871
G1 x94.4726 y111.911
G1 x94.5326 y111.961
G1 x94.5926 y112.021
G1 x94.6426 y112.081
G1 x94.6926 y112.151
G1 x94.7326 y112.221
G1 x94.7626 y112.291
G1 x94.7826 y112.371
G1 x94.8026 y112.451
G1 x94.8126 y112.531
G1 x94.8126 y112.611
G1 x94.8026 y112.691
G1 x94.7926 y112.771
G1 x94.7726 y112.851
G1 x94.7426 y112.921
G1 x94.7126 y112.991
G1 x94.6626 y113.061
G1 x94.6126 y113.131
G1 x94.5526 y113.191
G1 x94.4926 y113.241
G1 x94.4326 y113.291
G1 x94.3626 y113.331
G1 x94.2926 y113.361
G1 x94.2126 y113.391
G1 x94.1326 y113.401
G1 x94.0526 y113.411
G1 x93.9726 y113.421
G1 x93.8926 y113.411
G1 x93.8126 y113.401
G1 x93.7326 y113.381
G1 x93.6526 y113.351
G1 x93.5826 y113.321
G1 x93.5126 y113.281
G1 x93.4526 y113.231
G1 x93.3926 y113.181
G1 x93.3126 y113.161
G1 x93.2326 y113.161
G1 x93.1526 y113.161
G1 x93.0726 y113.161
G1 x92.9926 y113.161
G1 x92.9126 y113.161
G1 x92.8326 y113.161
G1 x92.7526 y113.161
G1 x92.6726 y113.161
G1 x92.5926 y113.161
G1 x92.5126 y113.161
G1 x92.4326 y113.161
G1 x92.3526 y113.161
G1 x92.2826 y113.191
G1 x92.2226 y113.251
G1 x92.1626 y113.311
G1 x92.1026 y113.371
G1 x92.0426 y113.431
G1 x91.9826 y113.491
G1 x91.9226 y113.551
G1 x91.8626 y113.611
G1 x91.8026 y113.671
G1 x91.7426 y113.731
G1 x91.6826 y113.791
G1 x91.6226 y113.851
G1 x91.5626 y113.911
G1 x91.5026 y113.971
G1 x91.4426 y114.031
G1 x91.4226 y114.111
G1 x91.4226 y114.191
G1 x91.4226 y114.271
G1 x91.4226 y114.351
G1 x91.4226 y114.431
G1 x91.4926 y114.471
G1 x91.5726 y114.471
G1 x91.6526 y114.491
G1 x91.6726 y114.571
G1 x91.6726 y114.651
G1 x91.6726 y114.731
G1 x91.7126 y114.801
G1 x91.7626 y114.871
G1 x91.8026 y114.941
G1 x91.8326 y115.011
G1 x91.8626 y115.081
G1 x91.8826 y115.161
G1 x91.9026 y115.241
G1 x91.9126 y115.321
G1 x91.9226 y115.401
G1 x91.9226 y115.481
G1 x91.9226 y115.561
G1 x91.9026 y115.641
G1 x91.8926 y115.721
G1 x91.8626 y115.791
G1 x91.8326 y115.871
G1 x91.8026 y115.941
G1 x91.7626 y116.011
G1 x91.7126 y116.081
G1 x91.6726 y116.151
G1 x91.6726 y116.231
G1 x91.6726 y116.311
G1 x91.6526 y116.391
G1 x91.5726 y116.411
G1 x91.4926 y116.411
G1 x91.4126 y116.411
G1 x91.3326 y116.411
G1 x91.2526 y116.441
G1 x91.1726 y116.471
G1 x91.0926 y116.491
G1 x91.0126 y116.501
G1 x90.9326 y116.511
G1 x90.8526 y116.511
G1 x90.7726 y116.511
G1 x90.6926 y116.511
G1 x90.6126 y116.511
G1 x90.5326 y116.511
G1 x90.4526 y116.511
G1 x90.3726 y116.511
G1 x90.2926 y116.511
G1 x90.2126 y116.511
G1 x90.1326 y116.511
G1 x90.0726 y116.571
G1 x90.0126 y116.631
G1 x89.9526 y116.691
G1 x89.8926 y116.751
G1 x89.8326 y116.811
G1 x89.7726 y116.871
G1 x89.7126 y116.931
G1 x89.6526 y116.991
G1 x89.5926 y117.051
G1 x89.5326 y117.111
G1 x89.4726 y117.171
G1 x89.4126 y117.231
G1 x89.3526 y117.291
G1 x89.2926 y117.351
G1 x89.2326 y117.411
G1 x89.1726 y117.471
G1 x89.1126 y117.531
G1 x89.0926 y117.611
G1 x89.0926 y117.691
G1 x89.0926 y117.771
G1 x89.0926 y117.851
G1 x89.0926 y117.931
G1 x89.0926 y118.011
G1 x89.0926 y118.091
G1 x89.0926 y118.171
G1 x89.0926 y118.251
G1 x89.0926 y118.331
G1 x89.0926 y118.411
G1 x89.0926 y118.491
G1 x89.0926 y118.571
G1 x89.0926 y118.651
G1 x89.0926 y118.731
G1 x89.0926 y118.811
G1 x89.0926 y118.891
G1 x89.0926 y118.971
G1 x89.0926 y119.051
G1 x89.0926 y119.131
G1 x89.0926 y119.211
G1 x89.0926 y119.291
G1 x89.0926 y119.371
G1 x89.0926 y119.451
G1 x89.0926 y119.531
G1 x89.0926 y119.611
G1 x89.0926 y119.691
G1 x89.0926 y119.771
G1 x89.0926 y119.851
G1 x89.0926 y119.931
G1 x89.0926 y120.011
G1 x89.0926 y120.091
G1 x89.0926 y120.171
G1 x89.0926 y120.251
G1 x89.0926 y120.331
G1 x89.0926 y120.411
G1 x89.0926 y120.491
G1 x89.0926 y120.571
G1 x89.0926 y120.651
G1 x89.0926 y120.731
G1 x89.0926 y120.811
G1 x89.0926 y120.891
G1 x89.0626 y120.971
G1 x89.0226 y121.041
G1 x88.9726 y121.101
G1 x88.9126 y121.161
G1 x88.8526 y121.221
G1 x88.7926 y121.281
G1 x88.7326 y121.341
G1 x88.6726 y121.401
G1 x88.6126 y121.461
G1 x88.5526 y121.521
G1 x88.4926 y121.581
G1 x88.4326 y121.641
G1 x88.3726 y121.701
G1 x88.3126 y121.751
G1 x88.2426 y121.781
G1 x88.1626 y121.791
G1 x88.0826 y121.791
G1 x88.0026 y121.791
G1 x87.9226 y121.791
G1 x87.8426 y121.791
G1 x87.7626 y121.791
G1 x87.6826 y121.811
G1 x87.6226 y121.871
G1 x87.5626 y121.931
G1 x87.5026 y121.991
G1 x87.4426 y122.051
G1 x87.3826 y122.111
G1 x87.3226 y122.171
G1 x87.3126 y122.251
G1 x87.3126 y122.331
G1 x87.3126 y122.411
G1 x87.3126 y122.491
G1 x87.3626 y122.551
G1 x87.4426 y122.551
G1 x87.5226 y122.551
G1 x87.6026 y122.551
G1 x87.6826 y122.551
G1 x87.7626 y122.551
G1 x87.8426 y122.551
G1 x87.9226 y122.551
G1 x88.0026 y122.551
G1 x88.0726 y122.581
G1 x88.0826 y122.661
G1 x88.0826 y122.741
G1 x88.0826 y122.821
G1 x88.0826 y122.901
G1 x88.0826 y122.981
G1 x88.0826 y123.061
G1 x88.0826 y123.141
G1 x88.0826 y123.221
G1 x88.0826 y123.301
G1 x88.0826 y123.381
G1 x88.0826 y123.461
G1 x88.0826 y123.541
G1 x88.0826 y123.621
G1 x88.0826 y123.701
G1 x88.0826 y123.781
G1 x88.0826 y123.861
G1 x88.0826 y123.941
G1 x88.0826 y124.021
G1 x88.0826 y124.101
G1 x88.0726 y124.181
G1 x88.0026 y124.211
G1 x87.9226 y124.211
G1 x87.8426 y124.211
G1 x87.7626 y124.211
G1 x87.6826 y124.211
G1 x87.6026 y124.211
G1 x87.5226 y124.211
G1 x87.4426 y124.211
G1 x87.3626 y124.211
G1 x87.3026 y124.261
G1 x87.2426 y124.321
G1 x87.1826 y124.381
G1 x87.1226 y124.441
G1 x87.0626 y124.501
G1 x87.0026 y124.561
G1 x86.9426 y124.611
G1 x86.8726 y124.651
G1 x86.8026 y124.681
G1 x86.7226 y124.701
G1 x86.6426 y124.711
G1 x86.5626 y124.711
G1 x86.4826 y124.701
G1 x86.4026 y124.671
G1 x86.3326 y124.641
G1 x86.2626 y124.591
G1 x86.2026 y124.541
G1 x86.1526 y124.481
G1 x86.1126 y124.411
G1 x86.0726 y124.341
G1 x86.0526 y124.261
G1 x85.9926 y124.211
G1 x85.9226 y124.181
G1 x85.9126 y124.101
G1 x85.9126 y124.021
G1 x85.9126 y123.941
G1 x85.9126 y123.861
G1 x85.9126 y123.781
G1 x85.9126 y123.701
G1 x85.9126 y123.621
G1 x85.9126 y123.541
G1 x85.9126 y123.461
G1 x85.9126 y123.381
G1 x85.9126 y123.301
G1 x85.9126 y123.221
G1 x85.9126 y123.141
G1 x85.8726 y123.071
G1 x85.8126 y123.011
G1 x85.7526 y122.951
G1 x85.6926 y122.891
G1 x85.6326 y122.831
G1 x85.5726 y122.771
G1 x85.5126 y122.711
G1 x85.4526 y122.651
G1 x85.3926 y122.591
G1 x85.3326 y122.541
G1 x85.2526 y122.541
G1 x85.1726 y122.541
G1 x85.0926 y122.541
G1 x85.0126 y122.541
G1 x84.9326 y122.541
G1 x84.8526 y122.541
G1 x84.7726 y122.541
G1 x84.6926 y122.541
G1 x84.6126 y122.541
G1 x84.5326 y122.541
G1 x84.4526 y122.541
G1 x84.3726 y122.541
G1 x84.2926 y122.541
G1 x84.2126 y122.541
G1 x84.1326 y122.541
G1 x84.0526 y122.551
G1 x83.9726 y122.551
G1 x83.8926 y122.551
G1 x83.8126 y122.541
G1 x83.7326 y122.511
G1 x83.6626 y122.481
G1 x83.5926 y122.431
G1 x83.5326 y122.381
G1 x83.4826 y122.321
G1 x83.4026 y122.311
G1 x83.3226 y122.291
G1 x83.3026 y122.211
G1 x83.3026 y122.131
G1 x83.3026 y122.051
G1 x83.3026 y121.971
G1 x83.3026 y121.891
G1 x83.3026 y121.811
G1 x83.3026 y121.731
G1 x83.3526 y121.661
G1 x83.4326 y121.661
G1 x83.5026 y121.621
G1 x83.5626 y121.561
G1 x83.6226 y121.511
G1 x83.6926 y121.461
G1 x83.7626 y121.431
G1 x83.8426 y121.411
G1 x83.9226 y121.401
G1 x84.0026 y121.401
G1 x84.0826 y121.401
G1 x84.1626 y121.401
G1 x84.2426 y121.401
G1 x84.3226 y121.401
G1 x84.4026 y121.401
G1 x84.4826 y121.401
G1 x84.5626 y121.401
G1 x84.6426 y121.401
G1 x84.7226 y121.401
G1 x84.8026 y121.401
G1 x84.8826 y121.401
G1 x84.9626 y121.401
G1 x85.0426 y121.401
G1 x85.1226 y121.401
G1 x85.2026 y121.401
G1 x85.2826 y121.401
G1 x85.3626 y121.401
G1 x85.4426 y121.401
G1 x85.5226 y121.401
G1 x85.6026 y121.401
G1 x85.6826 y121.401
G1 x85.7626 y121.421
G1 x85.8326 y121.451
G1 x85.9026 y121.481
G1 x85.9626 y121.531
G1 x86.0226 y121.581
G1 x86.0726 y121.651
G1 x86.1326 y121.711
G1 x86.1926 y121.771
G1 x86.2526 y121.831
G1 x86.3126 y121.891
G1 x86.3726 y121.951
G1 x86.4326 y122.011
G1 x86.4926 y122.071
G1 x86.5526 y122.131
G1 x86.6126 y122.191
G1 x86.6726 y122.141
G1 x86.6726 y122.061
G1 x86.6826 y121.981
G1 x86.7126 y121.901
G1 x86.7526 y121.831
G1 x86.8126 y121.771
G1 x86.8726 y121.711
G1 x86.9326 y121.651
G1 x86.9926 y121.591
G1 x87.0526 y121.531
G1 x87.1126 y121.471
G1 x87.1726 y121.411
G1 x87.2326 y121.351
G1 x87.2926 y121.291
G1 x87.3526 y121.231
G1 x87.4226 y121.191
G1 x87.4926 y121.161
G1 x87.5726 y121.151
G1 x87.6526 y121.151
G1 x87.7326 y121.151
G1 x87.8126 y121.151
G1 x87.8926 y121.151
G1 x87.9726 y121.151
G1 x88.0426 y121.111
G1 x88.1026 y121.051
G1 x88.1626 y120.991
G1 x88.2226 y120.931
G1 x88.2826 y120.871
G1 x88.3426 y120.811
G1 x88.4026 y120.751
G1 x88.4526 y120.691
G1 x88.4526 y120.611
G1 x88.4526 y120.531
G1 x88.4526 y120.451
G1 x88.4526 y120.371
G1 x88.4526 y120.291
G1 x88.4526 y120.211
G1 x88.4526 y120.131
G1 x88.4526 y120.051
G1 x88.4526 y119.971
G1 x88.4526 y119.891
G1 x88.4526 y119.811
G1 x88.4526 y119.731
G1 x88.4526 y119.651
G1 x88.4526 y119.571
G1 x88.4526 y119.491
G1 x88.4526 y119.411
G1 x88.4526 y119.331
G1 x88.4526 y119.251
G1 x88.4526 y119.171
G1 x88.4526 y119.091
G1 x88.4526 y119.011
G1 x88.4526 y118.931
G1 x88.4026 y118.871
G1 x88.3226 y118.871
G1 x88.2426 y118.871
G1 x88.1626 y118.871
G1 x88.0826 y118.871
G1 x88.0026 y118.871
G1 x87.9226 y118.871
G1 x87.8426 y118.871
G1 x87.7626 y118.871
G1 x87.6826 y118.871
G1 x87.6026 y118.871
G1 x87.5226 y118.871
G1 x87.4426 y118.871
G1 x87.3626 y118.871
G1 x87.2826 y118.871
G1 x87.2026 y118.871
G1 x87.1226 y118.871
G1 x87.0426 y118.871
G1 x86.9626 y118.871
G1 x86.8826 y118.871
G1 x86.8026 y118.871
G1 x86.7226 y118.871
G1 x86.6426 y118.871
G1 x86.5626 y118.871
G1 x86.4826 y118.871
G1 x86.4026 y118.871
G1 x86.3226 y118.871
G1 x86.2426 y118.871
G1 x86.1626 y118.871
G1 x86.1026 y118.921
G1 x86.0426 y118.981
G1 x85.9826 y119.041
G1 x85.9226 y119.101
G1 x85.8626 y119.161
G1 x85.8026 y119.221
G1 x85.7426 y119.281
G1 x85.6826 y119.341
G1 x85.6226 y119.401
G1 x85.5626 y119.461
G1 x85.5026 y119.521
G1 x85.4426 y119.581
G1 x85.3826 y119.641
G1 x85.3226 y119.701
G1 x85.2626 y119.761
G1 x85.2026 y119.821
G1 x85.1426 y119.881
G1 x85.0726 y119.931
G1 x85.0026 y119.971
G1 x84.9226 y120.001
G1 x84.8426 y120.011
G1 x84.7626 y120.011
G1 x84.6826 y120.011
G1 x84.6026 y120.011
G1 x84.5226 y120.011
G1 x84.4426 y120.011
G1 x84.3626 y120.011
G1 x84.2826 y120.011
G1 x84.2026 y120.011
G1 x84.1226 y120.011
G1 x84.0426 y120.011
G1 x83.9626 y120.011
G1 x83.8826 y120.011
G1 x83.8026 y120.001
G1 x83.7326 y119.971
G1 x83.6626 y119.941
G1 x83.5926 y119.891
G1 x83.5326 y119.841
G1 x83.4826 y119.781
G1 x83.4026 y119.771
G1 x83.3226 y119.751
G1 x83.3026 y119.671
G1 x83.3026 y119.591
G1 x83.3026 y119.511
G1 x83.3026 y119.431
G1 x83.3026 y119.351
G1 x83.3026 y119.271
G1 x83.3026 y119.191
G1 x83.3526 y119.121
G1 x83.4326 y119.121
G1 x83.5026 y119.081
G1 x83.5626 y119.021
G1 x83.6226 y118.971
G1 x83.6926 y118.931
G1 x83.7626 y118.901
G1 x83.8426 y118.881
G1 x83.9226 y118.871
G1 x84.0026 y118.871
G1 x84.0826 y118.871
G1 x84.1626 y118.871
G1 x84.2426 y118.871
G1 x84.3226 y118.871
G1 x84.4026 y118.871
G1 x84.4826 y118.871
G1 x84.5626 y118.841
G1 x84.6226 y118.781
G1 x84.6826 y118.721
G1 x84.7426 y118.661
G1 x84.8026 y118.601
G1 x84.8626 y118.541
G1 x84.9226 y118.481
G1 x84.9826 y118.421
G1 x85.0426 y118.361
G1 x85.1026 y118.301
G1 x85.1626 y118.241
G1 x85.2226 y118.181
G1 x85.2826 y118.121
G1 x85.3526 y118.071
G1 x85.4226 y118.031
G1 x85.5026 y118.001
G1 x85.5826 y117.991
G1 x85.6626 y117.981
G1 x85.7426 y117.991
G1 x85.8226 y118.001
G1 x85.8926 y118.031
G1 x85.9626 y118.071
G1 x86.0326 y118.121
G1 x86.0926 y118.181
G1 x86.1526 y118.231
G1 x86.2326 y118.231
G1 x86.3126 y118.231
G1 x86.3926 y118.231
G1 x86.4726 y118.231
G1 x86.5526 y118.231
G1 x86.6326 y118.231
G1 x86.7126 y118.231
G1 x86.7926 y118.231
G1 x86.8726 y118.231
G1 x86.9526 y118.231
G1 x87.0326 y118.231
G1 x87.1126 y118.231
G1 x87.1926 y118.231
G1 x87.2726 y118.231
G1 x87.3526 y118.231
G1 x87.4326 y118.231
G1 x87.5126 y118.231
G1 x87.5926 y118.231
G1 x87.6726 y118.231
G1 x87.7526 y118.231
G1 x87.8326 y118.231
G1 x87.9126 y118.231
G1 x87.9926 y118.231
G1 x88.0726 y118.231
G1 x88.1526 y118.231
G1 x88.2326 y118.231
G1 x88.3126 y118.231
G1 x88.3926 y118.231
G1 x88.4526 y118.181
G1 x88.4526 y118.101
G1 x88.4526 y118.021
G1 x88.4526 y117.941
G1 x88.4526 y117.861
G1 x88.4526 y117.781
G1 x88.4526 y117.701
G1 x88.4526 y117.621
G1 x88.4526 y117.541
G1 x88.4526 y117.461
G1 x88.4526 y117.381
G1 x88.4726 y117.301
G1 x88.5026 y117.231
G1 x88.5626 y117.171
G1 x88.6226 y117.111
G1 x88.6826 y117.051
G1 x88.7426 y116.991
G1 x88.8026 y116.931
G1 x88.8626 y116.871
G1 x88.9226 y116.811
G1 x88.9826 y116.751
G1 x89.0426 y116.691
G1 x89.1026 y116.631
G1 x89.1626 y116.571
G1 x89.1126 y116.511
G1 x89.0326 y116.511
G1 x88.9526 y116.511
G1 x88.8726 y116.511
G1 x88.7926 y116.511
G1 x88.7126 y116.511
G1 x88.6326 y116.511
G1 x88.5526 y116.511
G1 x88.4726 y116.511
G1 x88.3926 y116.511
G1 x88.3126 y116.491
G1 x88.2326 y116.481
G1 x88.1626 y116.451
G1 x88.0826 y116.421
G1 x88.0126 y116.391
G1 x87.9426 y116.351
G1 x87.8826 y116.301
G1 x87.8126 y116.251
G1 x87.7526 y116.191
G1 x87.6926 y116.131
G1 x87.6326 y116.071
G1 x87.5726 y116.011
G1 x87.5126 y115.951
G1 x87.4526 y115.891
G1 x87.3926 y115.831
G1 x87.3326 y115.771
G1 x87.2726 y115.711
G1 x87.2126 y115.651
G1 x87.1526 y115.591
G1 x87.0926 y115.531
G1 x87.0326 y115.471
G1 x86.9726 y115.411
G1 x86.9126 y115.351
G1 x86.8526 y115.291
G1 x86.7926 y115.231
G1 x86.7326 y115.171
G1 x86.6726 y115.111
G1 x86.6126 y115.051
G1 x86.5526 y114.991
G1 x86.4926 y114.931
G1 x86.4326 y114.871
G1 x86.3726 y114.811
G1 x86.3126 y114.751
G1 x86.2526 y114.691
G1 x86.1926 y114.631
G1 x86.1326 y114.571
G1 x86.0726 y114.511
G1 x86.0126 y114.451
G1 x85.9526 y114.391
G1 x85.8926 y114.331
G1 x85.8326 y114.271
G1 x85.7726 y114.211
G1 x85.7126 y114.151
G1 x85.6526 y114.091
G1 x85.5926 y114.031
G1 x85.5326 y113.971
G1 x85.4726 y113.911
G1 x85.4126 y113.851
G1 x85.3526 y113.791
G1 x85.2926 y113.731
G1 x85.2326 y113.671
G1 x85.1726 y113.611
G1 x85.1126 y113.551
G1 x85.0526 y113.491
G1 x84.9926 y113.431
G1 x84.9326 y113.371
G1 x84.8726 y113.311
G1 x84.8126 y113.251
G1 x84.7526 y113.191
G1 x84.6926 y113.131
G1 x84.6326 y113.071
G1 x84.5726 y113.011
G1 x84.5126 y112.951
G1 x84.4526 y112.891
G1 x84.3926 y112.831
G1 x84.3326 y112.771
G1 x84.2726 y112.711
G1 x84.2126 y112.651
G1 x84.1526 y112.591
G1 x84.0926 y112.531
G1 x84.0326 y112.471
G1 x83.9726 y112.411
G1 x83.9126 y112.351
G1 x83.8526 y112.291
G1 x83.7926 y112.231
G1 x83.7326 y112.171
G1 x83.6726 y112.111
G1 x83.6126 y112.051
G1 x83.5526 y111.991
G1 x83.4926 y111.931
G1 x83.4326 y111.871
G1 x83.3726 y111.811
G1 x83.3126 y111.751
G1 x83.2526 y111.691
G1 x83.1926 y111.631
G1 x83.1126 y111.611
G1 x83.0326 y111.611
G1 x82.9526 y111.611
G1 x82.8726 y111.611
G1 x82.7926 y111.611
G1 x82.7126 y111.611
G1 x82.6326 y111.611
G1 x82.5526 y111.611
G1 x82.4726 y111.611
G1 x82.3926 y111.611
G1 x82.3126 y111.611
G1 x82.2326 y111.611
G1 x82.1526 y111.611
G1 x82.0726 y111.611
G1 x81.9926 y111.611
G1 x81.9126 y111.611
G1 x81.8326 y111.611
G1 x81.7526 y111.611
G1 x81.6726 y111.611
G1 x81.5926 y111.611
G1 x81.5126 y111.611
G1 x81.4326 y111.611
G1 x81.3526 y111.611
G1 x81.2726 y111.621
G1 x81.2126 y111.681
G1 x81.1526 y111.741
G1 x81.0926 y111.791
G1 x81.0226 y111.841
G1 x80.9526 y111.881
G1 x80.8826 y111.921
G1 x80.8126 y111.961
G1 x80.7426 y111.991
G1 x80.6726 y112.021
G1 x80.5926 y112.041
G1 x80.5126 y112.061
G1 x80.4326 y112.081
G1 x80.3526 y112.091
G1 x80.2726 y112.101
G1 x80.1926 y112.111
G1 x80.1126 y112.111
G1 x80.0326 y112.101
G1 x79.9526 y112.101
G1 x79.8726 y112.091
G1 x79.7926 y112.071
G1 x79.7126 y112.051
G1 x79.6326 y112.031
G1 x79.5626 y112.001
G1 x79.4926 y111.971
G1 x79.4226 y111.941
G1 x79.3526 y111.901
G1 x79.2826 y111.861
G1 x79.2126 y111.811
G1 x79.1526 y111.761
G1 x79.0926 y111.711
G1 x79.0326 y111.661
G1 x78.9726 y111.611
G1 x78.8926 y111.611
G1 x78.8126 y111.611
G1 x78.7326 y111.611
G1 x78.6526 y111.611
G1 x78.5726 y111.611
G1 x78.4926 y111.611
G1 x78.4126 y111.611
G1 x78.3326 y111.611
G1 x78.2526 y111.611
G1 x78.1726 y111.611
G1 x78.0926 y111.611
G1 x78.0126 y111.611
G1 x77.9326 y111.611
G1 x77.8526 y111.611
G1 x77.7726 y111.611
G1 x77.6926 y111.611
G1 x77.6126 y111.611
G1 x77.5326 y111.611
G1 x77.4526 y111.611
G1 x77.3726 y111.611
G1 x77.2926 y111.611
G1 x77.2126 y111.611
G1 x77.1326 y111.611
G1 x77.0526 y111.611
G1 x76.9726 y111.611
G1 x76.8926 y111.611
G1 x76.8126 y111.611
G1 x76.7326 y111.611
G1 x76.6526 y111.611
G1 x76.5726 y111.611
G1 x76.4926 y111.611
G1 x76.4126 y111.611
G1 x76.3326 y111.611
G1 x76.2526 y111.611
G1 x76.1726 y111.611
G1 x76.0926 y111.611
G1 x76.0126 y111.611
G1 x75.9326 y111.611
G1 x75.8526 y111.611
G1 x75.7726 y111.611
G1 x75.6926 y111.611
G1 x75.6126 y111.611
G1 x75.5326 y111.611
G1 x75.4526 y111.611
G1 x75.3726 y111.611
G1 x75.2926 y111.611
G1 x75.2126 y111.611
G1 x75.1326 y111.611
G1 x75.0526 y111.611
G1 x74.9726 y111.611
G1 x74.8926 y111.611
G1 x74.8126 y111.611
G1 x74.7326 y111.611
G1 x74.6526 y111.611
G1 x74.5726 y111.611
G1 x74.4926 y111.611
G1 x74.4126 y111.611
G1 x74.3326 y111.611
G1 x74.2526 y111.611
G1 x74.1726 y111.611
G1 x74.0926 y111.611
G1 x74.0126 y111.611
G1 x73.9326 y111.611
G1 x73.8526 y111.611
G1 x73.7726 y111.611
G1 x73.6926 y111.611
G1 x73.6126 y111.611
G1 x73.5326 y111.611
G1 x73.4526 y111.611
G1 x73.3726 y111.611
G1 x73.2926 y111.611
G1 x73.2126 y111.611
G1 x73.1326 y111.611
G1 x73.0526 y111.611
G1 x72.9726 y111.611
G1 x72.8926 y111.611
G1 x72.8126 y111.611
G1 x72.7326 y111.611
G1 x72.6526 y111.611
G1 x72.5726 y111.611
G1 x72.4926 y111.611
G1 x72.4126 y111.611
G1 x72.3326 y111.611
G1 x72.2526 y111.611
G1 x72.1726 y111.611
G1 x72.0926 y111.611
G1 x72.0126 y111.611
G1 x71.9326 y111.611
G1 x71.8526 y111.611
G1 x71.7726 y111.611
G1 x71.6926 y111.611
G1 x71.6126 y111.611
G1 x71.5326 y111.611
G1 x71.4526 y111.611
G1 x71.3726 y111.611
G1 x71.2926 y111.611
G1 x71.2126 y111.611
G1 x71.1326 y111.611
G1 x71.0526 y111.611
G1 x70.9726 y111.611
G1 x70.8926 y111.611
G1 x70.8126 y111.611
G1 x70.7326 y111.611
G1 x70.6526 y111.611
G1 x70.5726 y111.611
G1 x70.4926 y111.611
G1 x70.4126 y111.611
G1 x70.3326 y111.641
G1 x70.2726 y111.701
G1 x70.2126 y111.751
G1 x70.1526 y111.801
G1 x70.0826 y111.851
G1 x70.0126 y111.891
G1 x69.9426 y111.931
G1 x69.8726 y111.971
G1 x69.8026 y112.001
G1 x69.7226 y112.031
G1 x69.6426 y112.051
G1 x69.5626 y112.071
G1 x69.4826 y112.091
G1 x69.4026 y112.101
G1 x69.3226 y112.101
G1 x69.2426 y112.111
G1 x69.1626 y112.111
G1 x69.0826 y112.101
G1 x69.0026 y112.091
G1 x68.9226 y112.081
G1 x68.8426 y112.071
G1 x68.7626 y112.041
G1 x68.6826 y112.021
G1 x68.6126 y111.991
G1 x68.5426 y111.961
G1 x68.4726 y111.921
G1 x68.4026 y111.881
G1 x68.3326 y111.841
G1 x68.2626 y111.791
G1 x68.2026 y111.741
G1 x68.1426 y111.691
G1 x68.0826 y111.631
G1 x68.0026 y111.611
G1 x67.9226 y111.611
G1 x67.8426 y111.611
G1 x67.7626 y111.611
G1 x67.6826 y111.611
G1 x67.6026 y111.611
G1 x67.5226 y111.611
G1 x67.4426 y111.611
G1 x67.3626 y111.611
G1 x67.2826 y111.611
G1 x67.2026 y111.611
G1 x67.1226 y111.611
G1 x67.0426 y111.611
G1 x66.9626 y111.611
G1 x66.8826 y111.611
G1 x66.8026 y111.611
G1 x66.7226 y111.611
G1 x66.6426 y111.611
G1 x66.5626 y111.611
G1 x66.4826 y111.611
G1 x66.4026 y111.611
G1 x66.3226 y111.611
G1 x66.2426 y111.611
G1 x66.1626 y111.611
G1 x66.0826 y111.611
G1 x66.0026 y111.611
G1 x65.9226 y111.611
G1 x65.8426 y111.611
G1 x65.7626 y111.611
G1 x65.6826 y111.611
G1 x65.6026 y111.611
G1 x65.5226 y111.611
G1 x65.4426 y111.611
G1 x65.3626 y111.611
G1 x65.2826 y111.611
G1 x65.2026 y111.611
G1 x65.1226 y111.611
G1 x65.0426 y111.611
G1 x64.9626 y111.611
G1 x64.8826 y111.611
G1 x64.8026 y111.611
G1 x64.7226 y111.611
G1 x64.6426 y111.611
G1 x64.5626 y111.611
G1 x64.4826 y111.611
G1 x64.4026 y111.611
G1 x64.3226 y111.611
G1 x64.2426 y111.611
G1 x64.1626 y111.611
G1 x64.0826 y111.611
G1 x64.0026 y111.611
G1 x63.9226 y111.611
G1 x63.8426 y111.611
G1 x63.7626 y111.611
G1 x63.6826 y111.611
G1 x63.6026 y111.611
G1 x63.5226 y111.611
G1 x63.4426 y111.611
G1 x63.3626 y111.611
G1 x63.2826 y111.611
G1 x63.2026 y111.611
G1 x63.1226 y111.611
G1 x63.0426 y111.611
G1 x62.9626 y111.611
G1 x62.8826 y111.611
G1 x62.8026 y111.611
G1 x62.7226 y111.611
G1 x62.6426 y111.611
G1 x62.5626 y111.611
G1 x62.4826 y111.611
G1 x62.4026 y111.611
G1 x62.3226 y111.611
G1 x62.2426 y111.611
G1 x62.1626 y111.611
G1 x62.0826 y111.611
G1 x62.0026 y111.611
G1 x61.9226 y111.611
G1 x61.8426 y111.611
G1 x61.7626 y111.611
G1 x61.6826 y111.611
G1 x61.6026 y111.611
G1 x61.5226 y111.611
G1 x61.4426 y111.611
G1 x61.3626 y111.611
G1 x61.2826 y111.611
G1 x61.2026 y111.611
G1 x61.1226 y111.611
G1 x61.0426 y111.611
G1 x60.9626 y111.611
G1 x60.8826 y111.611
G1 x60.8026 y111.611
G1 x60.7226 y111.611
G1 x60.6426 y111.611
G1 x60.5626 y111.611
G1 x60.4826 y111.611
G1 x60.4026 y111.611
G1 x60.3226 y111.611
G1 x60.2426 y111.611
G1 x60.1626 y111.611
G1 x60.0826 y111.611
G1 x60.0026 y111.611
G1 x59.9226 y111.611
G1 x59.8426 y111.611
G1 x59.7626 y111.611
G1 x59.6826 y111.621
G1 x59.6226 y111.681
G1 x59.5626 y111.741
G1 x59.5026 y111.791
G1 x59.4326 y111.841
G1 x59.3626 y111.881
G1 x59.2926 y111.921
G1 x59.2226 y111.961
G1 x59.1526 y111.991
G1 x59.0826 y112.021
G1 x59.0026 y112.041
G1 x58.9226 y112.061
G1 x58.8426 y112.081
G1 x58.7626 y112.091
G1 x58.6826 y112.101
G1 x58.6026 y112.111
G1 x58.5226 y112.111
G1 x58.4526 y112.151
G1 x58.3926 y112.211
G1 x58.3326 y112.271
G1 x58.2726 y112.331
G1 x58.2126 y112.391
G1 x58.1526 y112.451
G1 x58.0926 y112.511
G1 x58.0326 y112.571
G1 x57.9726 y112.631
G1 x57.9126 y112.691
G1 x57.8526 y112.751
G1 x57.7926 y112.811
G1 x57.7326 y112.871
G1 x57.6726 y112.931
G1 x57.6126 y112.991
G1 x57.5526 y113.051
G1 x57.4926 y113.111
G1 x57.4326 y113.171
G1 x57.3726 y113.231
G1 x57.3126 y113.291
G1 x57.2526 y113.351
G1 x57.1926 y113.411
G1 x57.1326 y113.471
G1 x57.0726 y113.531
G1 x57.0126 y113.591
G1 x56.9526 y113.651
G1 x56.8926 y113.711
G1 x56.8326 y113.771
G1 x56.7726 y113.831
G1 x56.7126 y113.891
G1 x56.6526 y113.951
G1 x56.5926 y114.011
G1 x56.5326 y114.071
G1 x56.4726 y114.131
G1 x56.4126 y114.191
G1 x56.3526 y114.251
G1 x56.2926 y114.311
G1 x56.2326 y114.371
G1 x56.1726 y114.431
G1 x56.1126 y114.491
G1 x56.0526 y114.551
G1 x55.9926 y114.611
G1 x55.9326 y114.671
G1 x55.8726 y114.731
G1 x55.8126 y114.791
G1 x55.7526 y114.851
G1 x55.6926 y114.911
G1 x55.6326 y114.971
G1 x55.5726 y115.031
G1 x55.5126 y115.091
G1 x55.4526 y115.151
G1 x55.3926 y115.211
G1 x55.3326 y115.271
G1 x55.2726 y115.331
G1 x55.2126 y115.391
G1 x55.1526 y115.451
G1 x55.0926 y115.511
G1 x55.0326 y115.571
G1 x54.9726 y115.631
G1 x54.9126 y115.691
G1 x54.8526 y115.751
G1 x54.7926 y115.801
G1 x54.7326 y115.851
G1 x54.6726 y115.901
G1 x54.6026 y115.941
G1 x54.5326 y115.971
G1 x54.4626 y116.001
G1 x54.3926 y116.031
G1 x54.3126 y116.051
G1 x54.2326 y116.061
G1 x54.1526 y116.071
G1 x54.0726 y116.071
G1 x53.9926 y116.071
G1 x53.9126 y116.071
G1 x53.8326 y116.071
G1 x53.7526 y116.071
G1 x53.6726 y116.071
G1 x53.5926 y116.071
G1 x53.5126 y116.071
G1 x53.4326 y116.071
G1 x53.3526 y116.071
G1 x53.2726 y116.071
G1 x53.1926 y116.071
G1 x53.1126 y116.071
G1 x53.0326 y116.071
G1 x52.9526 y116.071
G1 x52.8726 y116.071
G1 x52.7926 y116.071
G1 x52.7126 y116.071
G1 x52.6326 y116.071
G1 x52.5526 y116.071
G1 x52.4726 y116.071
G1 x52.3926 y116.071
G1 x52.3126 y116.071
G1 x52.2326 y116.071
G1 x52.1526 y116.071
G1 x52.0726 y116.071
G1 x51.9926 y116.071
G1 x51.9126 y116.071
G1 x51.8326 y116.071
G1 x51.7526 y116.071
G1 x51.6726 y116.071
G1 x51.5926 y116.071
G1 x51.5126 y116.071
G1 x51.4326 y116.071
G1 x51.3526 y116.071
G1 x51.2726 y116.071
G1 x51.1926 y116.071
G1 x51.1126 y116.071
G1 x51.0326 y116.071
G1 x50.9526 y116.071
G1 x50.8726 y116.071
G1 x50.7926 y116.071
G1 x50.7126 y116.071
G1 x50.6326 y116.071
G1 x50.5526 y116.071
G1 x50.4726 y116.071
G1 x50.3926 y116.071
G1 x50.3126 y116.071
G1 x50.2326 y116.071
G1 x50.1526 y116.071
G1 x50.0726 y116.071
G1 x49.9926 y116.071
G1 x49.9126 y116.071
G1 x49.8326 y116.071
G1 x49.7526 y116.071
G1 x49.6726 y116.071
G1 x49.5926 y116.071
G1 x49.5126 y116.071
G1 x49.4326 y116.071
G1 x49.3526 y116.071
G1 x49.2726 y116.071
G1 x49.1926 y116.071
G1 x49.1126 y116.071
G1 x49.0326 y116.071
G1 x48.9526 y116.071
G1 x48.8726 y116.071
G1 x48.7926 y116.071
G1 x48.7126 y116.071
G1 x48.6326 y116.071
G1 x48.5526 y116.071
G1 x48.4726 y116.071
G1 x48.3926 y116.071
G1 x48.3126 y116.071
G1 x48.2326 y116.071
G1 x48.1526 y116.071
G1 x48.0726 y116.071
G1 x47.9926 y116.071
G1 x47.9126 y116.071
G1 x47.8326 y116.071
G1 x47.7526 y116.071
G1 x47.6726 y116.071
G1 x47.5926 y116.071
G1 x47.5126 y116.071
G1 x47.4326 y116.071
G1 x47.3526 y116.071
G1 x47.2726 y116.071
G1 x47.1926 y116.071
G1 x47.1126 y116.071
G1 x47.0326 y116.071
G1 x46.9526 y116.071
G1 x46.8726 y116.071
G1 x46.7926 y116.071
G1 x46.7126 y116.071
G1 x46.6326 y116.071
G1 x46.5526 y116.071
G1 x46.4726 y116.071
G1 x46.3926 y116.071
G1 x46.3126 y116.071
G1 x46.2326 y116.071
G1 x46.1526 y116.071
G1 x46.0726 y116.071
G1 x45.9926 y116.071
G1 x45.9126 y116.071
G1 x45.8326 y116.071
G1 x45.7526 y116.071
G1 x45.6726 y116.071
G1 x45.5926 y116.071
G1 x45.5126 y116.071
G1 x45.4326 y116.071
G1 x45.3526 y116.071
G1 x45.2726 y116.071
G1 x45.1926 y116.071
G1 x45.1126 y116.071
G1 x45.0326 y116.071
G1 x44.9526 y116.071
G1 x44.8726 y116.071
G1 x44.7926 y116.071
G1 x44.7126 y116.071
G1 x44.6326 y116.071
G1 x44.5526 y116.071
G1 x44.4726 y116.071
G1 x44.3926 y116.071
G1 x44.3126 y116.071
G1 x44.2326 y116.071
G1 x44.1526 y116.071
G1 x44.0726 y116.071
G1 x43.9926 y116.071
G1 x43.9126 y116.071
G1 x43.8326 y116.071
G1 x43.7526 y116.071
G1 x43.6726 y116.071
G1 x43.5926 y116.071
G1 x43.5126 y116.071
G1 x43.4326 y116.071
G1 x43.3526 y116.071
G1 x43.2726 y116.071
G1 x43.1926 y116.071
G1 x43.1126 y116.071
G1 x43.0326 y116.071
G1 x42.9526 y116.071
G1 x42.8726 y116.071
G1 x42.7926 y116.071
G1 x42.7126 y116.071
G1 x42.6326 y116.071
G1 x42.5526 y116.071
G1 x42.4726 y116.071
G1 x42.3926 y116.071
G1 x42.3126 y116.071
G1 x42.2326 y116.071
G1 x42.1526 y116.071
G1 x42.0726 y116.071
G1 x41.9926 y116.071
G1 x41.9126 y116.071
G1 x41.8326 y116.071
G1 x41.7526 y116.071
G1 x41.6726 y116.071
G1 x41.5926 y116.071
G1 x41.5126 y116.071
G1 x41.4326 y116.071
G1 x41.3526 y116.071
G1 x41.2726 y116.071
G1 x41.1926 y116.071
G1 x41.1126 y116.071
G1 x41.0326 y116.071
G1 x40.9526 y116.061
G1 x40.8726 y116.051
G1 x40.7926 y116.031
G1 x40.7626 y116.101
G1 x40.7626 y116.181
G1 x40.7626 y116.261
G1 x40.7626 y116.341
G1 x40.7626 y116.421
G1 x40.7626 y116.501
G1 x40.7626 y116.581
G1 x40.7626 y116.661
G1 x40.7626 y116.741
G1 x40.7626 y116.821
G1 x40.7626 y116.901
G1 x40.7626 y116.981
G1 x40.7626 y117.061
G1 x40.7626 y117.141
G1 x40.7626 y117.221
G1 x40.7626 y117.301
G1 x40.7626 y117.381
G1 x40.7626 y117.461
G1 x40.7626 y117.541
G1 x40.7626 y117.621
G1 x40.7626 y117.701
G1 x40.7626 y117.781
G1 x40.7626 y117.861
G1 x40.7626 y117.941
G1 x40.7926 y118.021
G1 x40.8526 y118.081
G1 x40.9126 y118.141
G1 x40.9726 y118.201
G1 x41.0326 y118.261
G1 x41.0926 y118.321
G1 x41.1526 y118.381
G1 x41.2126 y118.441
G1 x41.2726 y118.501
G1 x41.3326 y118.561
G1 x41.3926 y118.621
G1 x41.4526 y118.681
G1 x41.5126 y118.741
G1 x41.5726 y118.801
G1 x41.6326 y118.861
G1 x41.6926 y118.921
G1 x41.7526 y118.981
G1 x41.8126 y119.041
G1 x41.8726 y119.101
G1 x41.9326 y119.161
G1 x41.9926 y119.221
G1 x42.0526 y119.281
G1 x42.1126 y119.341
G1 x42.1726 y119.401
G1 x42.2326 y119.461
G1 x42.2926 y119.521
G1 x42.3526 y119.581
G1 x42.4126 y119.641
G1 x42.4726 y119.701
G1 x42.5326 y119.761
G1 x42.5926 y119.821
G1 x42.6526 y119.881
G1 x42.7126 y119.941
G1 x42.7726 y120.001
G1 x42.8326 y120.061
G1 x42.8926 y120.121
G1 x42.9526 y120.181
G1 x43.0126 y120.241
G1 x43.0726 y120.301
G1 x43.1326 y120.361
G1 x43.1926 y120.421
G1 x43.2526 y120.481
G1 x43.3126 y120.541
G1 x43.3726 y120.601
G1 x43.4326 y120.661
G1 x43.4926 y120.721
G1 x43.5526 y120.781
G1 x43.6126 y120.841
G1 x43.6726 y120.901
G1 x43.7326 y120.961
G1 x43.7926 y121.021
G1 x43.8526 y121.081
G1 x43.9126 y121.141
G1 x43.9726 y121.201
G1 x44.0326 y121.261
G1 x44.0926 y121.321
G1 x44.1526 y121.381
G1 x44.2126 y121.441
G1 x44.2726 y121.501
G1 x44.3326 y121.561
G1 x44.3926 y121.621
G1 x44.4526 y121.681
G1 x44.5126 y121.741
G1 x44.5726 y121.801
G1 x44.6326 y121.861
G1 x44.6926 y121.921
G1 x44.7526 y121.981
G1 x44.8126 y122.041
G1 x44.8726 y122.101
G1 x44.9326 y122.161
G1 x44.9926 y122.221
G1 x45.0526 y122.281
G1 x45.1126 y122.341
G1 x45.1726 y122.401
G1 x45.2326 y122.461
G1 x45.2926 y122.521
G1 x45.3526 y122.581
G1 x45.4126 y122.641
G1 x45.4726 y122.701
G1 x45.5326 y122.761
G1 x45.5926 y122.821
G1 x45.6526 y122.881
G1 x45.7126 y122.941
G1 x45.7726 y123.001
G1 x45.8326 y123.061
G1 x45.8926 y123.121
G1 x45.9526 y123.181
G1 x46.0126 y123.241
G1 x46.0726 y123.301
G1 x46.1326 y123.361
G1 x46.1926 y123.421
G1 x46.2526 y123.481
G1 x46.3126 y123.541
G1 x46.3726 y123.601
G1 x46.4326 y123.661
G1 x46.4926 y123.721
G1 x46.5526 y123.781
G1 x46.6126 y123.841
G1 x46.6726 y123.901
G1 x46.7326 y123.961
G1 x46.7926 y124.021
G1 x46.8526 y124.081
G1 x46.9126 y124.141
G1 x46.9726 y124.201
G1 x47.0326 y124.261
G1 x47.0926 y124.321
G1 x47.1526 y124.381
G1 x47.2126 y124.441
G1 x47.2726 y124.501
G1 x47.3326 y124.561
G1 x47.3926 y124.621
G1 x47.4526 y124.681
G1 x47.5126 y124.741
G1 x47.5726 y124.801
G1 x47.6326 y124.861
G1 x47.6926 y124.921
G1 x47.7526 y124.981
G1 x47.8126 y125.041
G1 x47.8726 y125.101
G1 x47.9326 y125.161
G1 x47.9926 y125.221
G1 x48.0526 y125.281
G1 x48.1126 y125.341
G1 x48.1726 y125.401
G1 x48.2326 y125.461
G1 x48.2926 y125.521
G1 x48.3526 y125.581
G1 x48.4126 y125.641
G1 x48.4726 y125.701
G1 x48.5326 y125.761
G1 x48.5926 y125.821
G1 x48.6526 y125.881
G1 x48.7126 y125.941
G1 x48.7726 y126.001
G1 x48.8326 y126.061
G1 x48.8926 y126.121
G1 x48.9526 y126.181
G1 x49.0126 y126.241
G1 x49.0726 y126.301
G1 x49.1326 y126.361
G1 x49.1926 y126.421
G1 x49.2526 y126.481
G1 x49.3126 y126.541
G1 x49.3726 y126.601
G1 x49.4326 y126.661
G1 x49.4926 y126.721
G1 x49.5526 y126.781
G1 x49.6126 y126.841
G1 x49.6726 y126.901
G1 x49.7326 y126.961
G1 x49.7926 y127.021
G1 x49.8526 y127.081
G1 x49.9126 y127.141
G1 x49.9726 y127.201
G1 x50.0326 y127.261
G1 x50.0926 y127.321
G1 x50.1526 y127.381
G1 x50.2126 y127.441
G1 x50.2726 y127.501
G1 x50.3326 y127.561
G1 x50.3926 y127.621
G1 x50.4526 y127.681
G1 x50.5126 y127.741
G1 x50.5726 y127.801
G1 x50.6326 y127.861
G1 x50.6926 y127.921
G1 x50.7526 y127.981
G1 x50.8126 y128.041
G1 x50.8726 y128.101
G1 x50.9326 y128.161
G1 x50.9926 y128.221
G1 x51.0526 y128.281
G1 x51.1126 y128.341
G1 x51.1726 y128.401
G1 x51.2326 y128.461
G1 x51.2926 y128.521
G1 x51.3526 y128.581
G1 x51.4126 y128.641
G1 x51.4726 y128.701
G1 x51.5326 y128.761
G1 x51.5926 y128.821
G1 x51.6526 y128.881
G1 x51.7126 y128.941
G1 x51.7726 y129.001
G1 x51.8326 y129.061
G1 x51.8926 y129.121
G1 x51.9526 y129.181
G1 x52.0126 y129.241
G1 x52.0726 y129.301
G1 x52.1326 y129.361
G1 x52.1926 y129.421
G1 x52.2526 y129.481
G1 x52.3126 y129.541
G1 x52.3726 y129.601
G1 x52.4326 y129.661
G1 x52.4926 y129.721
G1 x52.5526 y129.781
G1 x52.6126 y129.841
G1 x52.6726 y129.901
G1 x52.7326 y129.961
G1 x52.7926 y130.021
G1 x52.8526 y130.081
G1 x52.9126 y130.141
G1 x52.9726 y130.201
G1 x53.0326 y130.261
G1 x53.0926 y130.321
G1 x53.1526 y130.381
G1 x53.2126 y130.441
G1 x53.2726 y130.501
G1 x53.3326 y130.561
G1 x53.3926 y130.621
G1 x53.4526 y130.681
G1 x53.5126 y130.741
G1 x53.5726 y130.801
G1 x53.6326 y130.861
G1 x53.6926 y130.921
G1 x53.7526 y130.981
G1 x53.8126 y131.041
G1 x53.8726 y131.101
G1 x53.9326 y131.161
G1 x53.9926 y131.221
G1 x54.0426 y131.281
G1 x54.0926 y131.351
G1 x54.1226 y131.421
G1 x54.1526 y131.491
G1 x54.1626 y131.571
G1 x54.1626 y131.651
G1 x54.1626 y131.731
G1 x54.1426 y131.811
G1 x54.1126 y131.881
G1 x54.0726 y131.951
G1 x54.0226 y132.011
G1 x53.9626 y132.071
G1 x53.9026 y132.121
G1 x53.8326 y132.151
G1 x53.7626 y132.181
G1 x53.6826 y132.201
G1 x53.6026 y132.211
G1 x53.5226 y132.201
G1 x53.4426 y132.191
G1 x53.3726 y132.161
G1 x53.3026 y132.131
G1 x53.2326 y132.081
G1 x53.1726 y132.021
G1 x53.1126 y131.961
G1 x53.0526 y131.901
G1 x52.9926 y131.841
G1 x52.9326 y131.781
G1 x52.8726 y131.721
G1 x52.8126 y131.661
G1 x52.7526 y131.601
G1 x52.6926 y131.541
G1 x52.6326 y131.481
G1 x52.5726 y131.421
G1 x52.5126 y131.361
G1 x52.4526 y131.301
G1 x52.3926 y131.241
G1 x52.3326 y131.181
G1 x52.2726 y131.121
G1 x52.2126 y131.061
G1 x52.1526 y131.001
G1 x52.0926 y130.941
G1 x52.0326 y130.881
G1 x51.9726 y130.821
G1 x51.9126 y130.761
G1 x51.8526 y130.701
G1 x51.7926 y130.641
G1 x51.7326 y130.581
G1 x51.6726 y130.521
G1 x51.6126 y130.461
G1 x51.5526 y130.401
G1 x51.4926 y130.341
G1 x51.4326 y130.281
G1 x51.3726 y130.221
G1 x51.3126 y130.161
G1 x51.2526 y130.101
G1 x51.1926 y130.041
G1 x51.1326 y129.981
G1 x51.0726 y129.921
G1 x51.0126 y129.861
G1 x50.9526 y129.801
G1 x50.8926 y129.741
G1 x50.8326 y129.681
G1 x50.7726 y129.621
G1 x50.7126 y129.561
G1 x50.6526 y129.501
G1 x50.5926 y129.441
G1 x50.5326 y129.381
G1 x50.4726 y129.321
G1 x50.4126 y129.261
G1 x50.3526 y129.201
G1 x50.2926 y129.141
G1 x50.2326 y129.081
G1 x50.1726 y129.021
G1 x50.1126 y128.961
G1 x50.0526 y128.901
G1 x49.9926 y128.841
G1 x49.9326 y128.781
G1 x49.8726 y128.721
G1 x49.8126 y128.661
G1 x49.7526 y128.601
G1 x49.6926 y128.541
G1 x49.6326 y128.481
G1 x49.5726 y128.421
G1 x49.5126 y128.361
G1 x49.4526 y128.301
G1 x49.3926 y128.241
G1 x49.3326 y128.181
G1 x49.2726 y128.121
G1 x49.2126 y128.061
G1 x49.1526 y128.001
G1 x49.0926 y127.941
G1 x49.0326 y127.881
G1 x48.9726 y127.821
G1 x48.9126 y127.761
G1 x48.8526 y127.701
G1 x48.7926 y127.641
G1 x48.7326 y127.581
G1 x48.6726 y127.521
G1 x48.6126 y127.461
G1 x48.5526 y127.401
G1 x48.4926 y127.341
G1 x48.4326 y127.281
G1 x48.3726 y127.221
G1 x48.3126 y127.161
G1 x48.2526 y127.101
G1 x48.1926 y127.041
G1 x48.1326 y126.981
G1 x48.0726 y126.921
G1 x48.0126 y126.861
G1 x47.9526 y126.801
G1 x47.8926 y126.741
G1 x47.8326 y126.681
G1 x47.7726 y126.621
G1 x47.7126 y126.561
G1 x47.6526 y126.501
G1 x47.5926 y126.441
G1 x47.5326 y126.381
G1 x47.4726 y126.321
G1 x47.4126 y126.261
G1 x47.3526 y126.201
G1 x47.2926 y126.141
G1 x47.2326 y126.081
G1 x47.1726 y126.021
G1 x47.1126 y125.961
G1 x47.0526 y125.901
G1 x46.9926 y125.841
G1 x46.9326 y125.781
G1 x46.8726 y125.721
G1 x46.8126 y125.661
G1 x46.7526 y125.601
G1 x46.6926 y125.541
G1 x46.6326 y125.481
G1 x46.5726 y125.421
G1 x46.5126 y125.361
G1 x46.4526 y125.301
G1 x46.3926 y125.241
G1 x46.3326 y125.181
G1 x46.2726 y125.121
G1 x46.2126 y125.061
G1 x46.1526 y125.001
G1 x46.0926 y124.941
G1 x46.0326 y124.881
G1 x45.9726 y124.821
G1 x45.9126 y124.761
G1 x45.8526 y124.701
G1 x45.7926 y124.641
G1 x45.7326 y124.581
G1 x45.6726 y124.521
G1 x45.6126 y124.461
G1 x45.5526 y124.401
G1 x45.4926 y124.341
G1 x45.4326 y124.281
G1 x45.3726 y124.221
G1 x45.3126 y124.161
G1 x45.2526 y124.101
G1 x45.1926 y124.041
G1 x45.1326 y123.981
G1 x45.0726 y123.921
G1 x45.0126 y123.861
G1 x44.9526 y123.801
G1 x44.8926 y123.741
G1 x44.8326 y123.681
G1 x44.7726 y123.621
G1 x44.7126 y123.561
G1 x44.6526 y123.501
G1 x44.5926 y123.441
G1 x44.5326 y123.381
G1 x44.4726 y123.321
G1 x44.4126 y123.261
G1 x44.3526 y123.201
G1 x44.2926 y123.141
G1 x44.2326 y123.081
G1 x44.1726 y123.021
G1 x44.1126 y122.961
G1 x44.0526 y122.901
G1 x43.9926 y122.841
G1 x43.9326 y122.781
G1 x43.8726 y122.721
G1 x43.8126 y122.661
G1 x43.7526 y122.601
G1 x43.6926 y122.541
G1 x43.6326 y122.481
G1 x43.5726 y122.421
G1 x43.5126 y122.361
G1 x43.4526 y122.301
G1 x43.3926 y122.241
G1 x43.3326 y122.181
G1 x43.2726 y122.121
G1 x43.2126 y122.061
G1 x43.1526 y122.001
G1 x43.0926 y121.941
G1 x43.0326 y121.881
G1 x42.9726 y121.821
G1 x42.9126 y121.761
G1 x42.8526 y121.701
G1 x42.7926 y121.641
G1 x42.7326 y121.581
G1 x42.6726 y121.521
G1 x42.6126 y121.461
G1 x42.5526 y121.401
G1 x42.4926 y121.341
G1 x42.4326 y121.281
G1 x42.3726 y121.221
G1 x42.3126 y121.161
G1 x42.2526 y121.101
G1 x42.1926 y121.041
G1 x42.1326 y120.981
G1 x42.0726 y120.921
G1 x42.0126 y120.861
G1 x41.9526 y120.801
G1 x41.8926 y120.741
G1 x41.8326 y120.681
G1 x41.7726 y120.621
G1 x41.7126 y120.561
G1 x41.6526 y120.501
G1 x41.5926 y120.441
G1 x41.5326 y120.381
G1 x41.4726 y120.321
G1 x41.4126 y120.261
G1 x41.3526 y120.201
G1 x41.2926 y120.141
G1 x41.2326 y120.081
G1 x41.1726 y120.021
G1 x41.1126 y119.961
G1 x41.0526 y119.901
G1 x40.9926 y119.841
G1 x40.9326 y119.781
G1 x40.8726 y119.721
G1 x40.8126 y119.661
G1 x40.7526 y119.601
G1 x40.6926 y119.541
G1 x40.6326 y119.481
G1 x40.5726 y119.421
G1 x40.5126 y119.361
G1 x40.4526 y119.301
G1 x40.3926 y119.241
G1 x40.3326 y119.181
G1 x40.2726 y119.121
G1 x40.2126 y119.061
G1 x40.1526 y119.001
G1 x40.0926 y118.941
G1 x40.0326 y118.881
G1 x39.9726 y118.821
G1 x39.9126 y118.761
G1 x39.8526 y118.701
G1 x39.7926 y118.641
G1 x39.7326 y118.581
G1 x39.6926 y118.511
G1 x39.6626 y118.441
G1 x39.6326 y118.361
G1 x39.6226 y118.281
G1 x39.6226 y118.201
G1 x39.6226 y118.121
G1 x39.6226 y118.041
G1 x39.6226 y117.961
G1 x39.6226 y117.881
G1 x39.6226 y117.801
G1 x39.6226 y117.721
G1 x39.6226 y117.641
G1 x39.6226 y117.561
G1 x39.6226 y117.481
G1 x39.6226 y117.401
G1 x39.6226 y117.321
G1 x39.6226 y117.241
G1 x39.6226 y117.161
G1 x39.6226 y117.081
G1 x39.6226 y117.001
G1 x39.6226 y116.921
G1 x39.6226 y116.841
G1 x39.6226 y116.761
G1 x39.6226 y116.681
G1 x39.6226 y116.601
G1 x39.6226 y116.521
G1 x39.6226 y116.441
G1 x39.6226 y116.361
G1 x39.6226 y116.281
G1 x39.6226 y116.201
G1 x39.6226 y116.121
G1 x39.6226 y116.041
G1 x39.6226 y115.961
G1 x39.6226 y115.881
G1 x39.6226 y115.801
G1 x39.6226 y115.721
G1 x39.6226 y115.641
G1 x39.6226 y115.561
G1 x39.5726 y115.501
G1 x39.5126 y115.441
G1 x39.4526 y115.381
G1 x39.4026 y115.321
G1 x39.3626 y115.251
G1 x39.3326 y115.181
G0 z0.5


G0 x71.68 y124.422
G0 z0.000
F300
G1 z-0.2
F600
G1 x71.68 y124.341
G1 x71.68 y124.261
G1 x71.68 y124.181
G1 x71.68 y124.102
G1 x71.68 y124.022
G1 x71.68 y123.942
G1 x71.68 y123.862
G1 x71.68 y123.782
G1 x71.68 y123.702
G1 x71.68 y123.621
G1 x71.68 y123.541
G1 x71.68 y123.462
G1 x71.68 y123.382
G1 x71.68 y123.302
G1 x71.68 y123.222
G1 x71.68 y123.142
G1 x71.68 y123.062
G1 x71.68 y122.981
G1 x71.68 y122.901
G1 x71.7 y122.822
G1 x71.78 y122.802
G1 x71.86 y122.802
G1 x71.94 y122.802
G1 x72.02 y122.802
G1 x72.1 y122.802
G1 x72.18 y122.802
G1 x72.26 y122.802
G1 x72.34 y122.802
G1 x72.42 y122.802
G1 x72.5 y122.802
G1 x72.58 y122.802
G1 x72.66 y122.802
G1 x72.74 y122.802
G1 x72.82 y122.802
G1 x72.9 y122.802
G1 x72.98 y122.802
G1 x73.06 y122.802
G1 x73.14 y122.802
G1 x73.22 y122.802
G1 x73.3 y122.802
G1 x73.38 y122.802
G1 x73.46 y122.802
G1 x73.54 y122.802
G1 x73.62 y122.802
G1 x73.7 y122.802
G1 x73.78 y122.802
G1 x73.85 y122.832
G1 x73.86 y122.912
G1 x73.86 y122.992
G1 x73.89 y123.062
G1 x73.97 y123.062
G1 x74.05 y123.062
G1 x74.13 y123.062
G1 x74.21 y123.062
G1 x74.29 y123.062
G1 x74.37 y123.062
G1 x74.45 y123.062
G1 x74.48 y122.992
G1 x74.48 y122.912
G1 x74.49 y122.832
G1 x74.56 y122.802
G1 x74.64 y122.802
G1 x74.72 y122.802
G1 x74.8 y122.802
G1 x74.88 y122.802
G1 x74.96 y122.802
G1 x75.04 y122.802
G1 x75.12 y122.802
G1 x75.2 y122.802
G1 x75.28 y122.802
G1 x75.36 y122.802
G1 x75.44 y122.802
G1 x75.52 y122.802
G1 x75.6 y122.802
G1 x75.68 y122.802
G1 x75.76 y122.802
G1 x75.84 y122.802
G1 x75.92 y122.802
G1 x76 y122.802
G1 x76.08 y122.802
G1 x76.16 y122.802
G1 x76.24 y122.802
G1 x76.32 y122.802
G1 x76.4 y122.802
G1 x76.48 y122.802
G1 x76.56 y122.802
G1 x76.64 y122.832
G1 x76.65 y122.912
G1 x76.65 y122.992
G1 x76.68 y123.062
G1 x76.76 y123.062
G1 x76.84 y123.062
G1 x76.92 y123.062
G1 x77 y123.062
G1 x77.08 y123.062
G1 x77.16 y123.062
G1 x77.24 y123.052
G1 x77.3 y122.992
G1 x77.36 y122.931
G1 x77.42 y122.871
G1 x77.48 y122.822
G1 x77.54 y122.772
G1 x77.61 y122.731
G1 x77.68 y122.702
G1 x77.76 y122.692
G1 x77.84 y122.681
G1 x77.92 y122.681
G1 x78 y122.681
G1 x78.08 y122.681
G1 x78.16 y122.681
G1 x78.24 y122.681
G1 x78.32 y122.681
G1 x78.4 y122.681
G1 x78.48 y122.681
G1 x78.56 y122.681
G1 x78.64 y122.681
G1 x78.72 y122.692
G1 x78.8 y122.712
G1 x78.87 y122.742
G1 x78.94 y122.782
G1 x79 y122.832
G1 x79.06 y122.892
G1 x79.13 y122.931
G1 x79.21 y122.942
G1 x79.25 y123.011
G1 x79.25 y123.091
G1 x79.25 y123.172
G1 x79.25 y123.252
G1 x79.25 y123.332
G1 x79.25 y123.412
G1 x79.25 y123.492
G1 x79.22 y123.572
G1 x79.14 y123.582
G1 x79.06 y123.612
G1 x79 y123.672
G1 x78.94 y123.722
G1 x78.87 y123.761
G1 x78.8 y123.791
G1 x78.72 y123.812
G1 x78.64 y123.822
G1 x78.56 y123.822
G1 x78.48 y123.822
G1 x78.4 y123.822
G1 x78.32 y123.822
G1 x78.24 y123.822
G1 x78.16 y123.822
G1 x78.08 y123.832
G1 x78.02 y123.892
G1 x77.96 y123.952
G1 x77.9 y124.011
G1 x77.84 y124.072
G1 x77.77 y124.121
G1 x77.7 y124.162
G1 x77.62 y124.192
G1 x77.54 y124.202
G1 x77.46 y124.202
G1 x77.38 y124.202
G1 x77.3 y124.202
G1 x77.22 y124.202
G1 x77.14 y124.202
G1 x77.06 y124.202
G1 x76.98 y124.202
G1 x76.9 y124.202
G1 x76.82 y124.202
G1 x76.74 y124.202
G1 x76.66 y124.202
G1 x76.65 y124.282
G1 x76.65 y124.362
G1 x76.64 y124.442
G1 x76.57 y124.472
G1 x76.49 y124.472
G1 x76.41 y124.472
G1 x76.33 y124.472
G1 x76.25 y124.472
G1 x76.17 y124.472
G1 x76.09 y124.472
G1 x76.01 y124.472
G1 x75.93 y124.472
G1 x75.85 y124.472
G1 x75.77 y124.472
G1 x75.69 y124.472
G1 x75.61 y124.472
G1 x75.53 y124.472
G1 x75.45 y124.472
G1 x75.37 y124.472
G1 x75.29 y124.472
G1 x75.21 y124.472
G1 x75.13 y124.472
G1 x75.05 y124.472
G1 x74.97 y124.472
G1 x74.89 y124.472
G1 x74.81 y124.472
G1 x74.73 y124.472
G1 x74.65 y124.472
G1 x74.57 y124.472
G1 x74.49 y124.442
G1 x74.48 y124.362
G1 x74.48 y124.282
G1 x74.47 y124.202
G1 x74.39 y124.202
G1 x74.31 y124.202
G1 x74.23 y124.202
G1 x74.15 y124.202
G1 x74.07 y124.202
G1 x73.99 y124.202
G1 x73.91 y124.202
G1 x73.86 y124.261
G1 x73.86 y124.341
G1 x73.86 y124.422
G1 x73.8 y124.472
G1 x73.72 y124.472
G1 x73.64 y124.472
G1 x73.56 y124.472
G1 x73.48 y124.472
G1 x73.4 y124.472
G1 x73.32 y124.472
G1 x73.24 y124.472
G1 x73.16 y124.472
G1 x73.08 y124.472
G1 x73 y124.472
G1 x72.92 y124.472
G1 x72.84 y124.472
G1 x72.76 y124.472
G1 x72.68 y124.472
G1 x72.6 y124.472
G1 x72.52 y124.472
G1 x72.44 y124.472
G1 x72.36 y124.472
G1 x72.28 y124.472
G1 x72.2 y124.472
G1 x72.12 y124.472
G1 x72.04 y124.472
G1 x71.96 y124.472
G1 x71.88 y124.472
G1 x71.8 y124.472
G1 x71.72 y124.462
G0 z0.5


G0 x74.474 y127.722
G0 z0.000
F300
G1 z-0.2
F600
G1 x74.474 y127.642
G1 x74.474 y127.562
G1 x74.474 y127.482
G1 x74.474 y127.402
G1 x74.474 y127.322
G1 x74.474 y127.242
G1 x74.474 y127.162
G1 x74.474 y127.082
G1 x74.474 y127.002
G1 x74.474 y126.922
G1 x74.474 y126.842
G1 x74.474 y126.762
G1 x74.474 y126.682
G1 x74.474 y126.602
G1 x74.474 y126.522
G1 x74.474 y126.442
G1 x74.474 y126.362
G1 x74.474 y126.282
G1 x74.474 y126.202
G1 x74.494 y126.122
G1 x74.574 y126.102
G1 x74.654 y126.102
G1 x74.734 y126.102
G1 x74.814 y126.102
G1 x74.894 y126.102
G1 x74.974 y126.102
G1 x75.054 y126.102
G1 x75.134 y126.102
G1 x75.214 y126.102
G1 x75.294 y126.102
G1 x75.374 y126.102
G1 x75.454 y126.102
G1 x75.534 y126.102
G1 x75.614 y126.102
G1 x75.694 y126.102
G1 x75.774 y126.102
G1 x75.854 y126.102
G1 x75.934 y126.102
G1 x76.014 y126.102
G1 x76.094 y126.102
G1 x76.174 y126.102
G1 x76.254 y126.102
G1 x76.334 y126.102
G1 x76.414 y126.102
G1 x76.494 y126.102
G1 x76.574 y126.102
G1 x76.644 y126.132
G1 x76.654 y126.212
G1 x76.654 y126.292
G1 x76.684 y126.362
G1 x76.764 y126.362
G1 x76.844 y126.362
G1 x76.924 y126.362
G1 x77.004 y126.362
G1 x77.084 y126.362
G1 x77.164 y126.362
G1 x77.244 y126.362
G1 x77.324 y126.362
G1 x77.404 y126.362
G1 x77.484 y126.362
G1 x77.564 y126.362
G1 x77.644 y126.362
G1 x77.724 y126.362
G1 x77.804 y126.362
G1 x77.884 y126.362
G1 x77.964 y126.362
G1 x78.044 y126.352
G1 x78.044 y126.272
G1 x78.044 y126.192
G1 x78.044 y126.112
G1 x78.044 y126.032
G1 x78.044 y125.952
G1 x78.044 y125.872
G1 x78.044 y125.792
G1 x78.044 y125.712
G1 x78.044 y125.632
G1 x78.044 y125.552
G1 x78.044 y125.472
G1 x78.044 y125.392
G1 x78.044 y125.312
G1 x78.044 y125.232
G1 x78.044 y125.152
G1 x78.044 y125.072
G1 x78.044 y124.992
G1 x78.044 y124.912
G1 x78.014 y124.842
G1 x77.974 y124.772
G1 x77.974 y124.692
G1 x77.974 y124.612
G1 x77.974 y124.532
G1 x77.974 y124.452
G1 x77.974 y124.372
G1 x77.974 y124.292
G1 x78.004 y124.212
G1 x78.084 y124.202
G1 x78.164 y124.172
G1 x78.214 y124.112
G1 x78.274 y124.062
G1 x78.344 y124.022
G1 x78.414 y123.982
G1 x78.494 y123.962
G1 x78.574 y123.952
G1 x78.654 y123.952
G1 x78.734 y123.962
G1 x78.814 y123.992
G1 x78.884 y124.022
G1 x78.954 y124.062
G1 x79.014 y124.112
G1 x79.064 y124.172
G1 x79.134 y124.202
G1 x79.214 y124.212
G1 x79.254 y124.282
G1 x79.254 y124.362
G1 x79.254 y124.442
G1 x79.254 y124.522
G1 x79.254 y124.602
G1 x79.254 y124.682
G1 x79.254 y124.762
G1 x79.224 y124.842
G1 x79.184 y124.912
G1 x79.184 y124.992
G1 x79.184 y125.072
G1 x79.184 y125.152
G1 x79.184 y125.232
G1 x79.184 y125.312
G1 x79.184 y125.392
G1 x79.184 y125.472
G1 x79.184 y125.552
G1 x79.184 y125.632
G1 x79.184 y125.712
G1 x79.184 y125.792
G1 x79.184 y125.872
G1 x79.184 y125.952
G1 x79.184 y126.032
G1 x79.184 y126.112
G1 x79.184 y126.192
G1 x79.184 y126.272
G1 x79.184 y126.352
G1 x79.254 y126.382
G1 x79.334 y126.402
G1 x79.404 y126.442
G1 x79.474 y126.482
G1 x79.554 y126.482
G1 x79.634 y126.482
G1 x79.714 y126.482
G1 x79.794 y126.482
G1 x79.874 y126.482
G1 x79.954 y126.482
G1 x80.034 y126.482
G1 x80.114 y126.482
G1 x80.194 y126.482
G1 x80.274 y126.482
G1 x80.354 y126.482
G1 x80.434 y126.482
G1 x80.514 y126.482
G1 x80.584 y126.532
G1 x80.584 y126.612
G1 x80.584 y126.692
G1 x80.584 y126.772
G1 x80.584 y126.852
G1 x80.584 y126.932
G1 x80.584 y127.012
G1 x80.584 y127.092
G1 x80.584 y127.172
G1 x80.584 y127.252
G1 x80.584 y127.332
G1 x80.584 y127.412
G1 x80.584 y127.492
G1 x80.584 y127.572
G1 x80.584 y127.652
G1 x80.584 y127.732
G1 x80.584 y127.812
G1 x80.584 y127.892
G1 x80.584 y127.972
G1 x80.584 y128.052
G1 x80.584 y128.132
G1 x80.584 y128.212
G1 x80.584 y128.292
G1 x80.584 y128.372
G1 x80.584 y128.452
G1 x80.584 y128.532
G1 x80.584 y128.612
G1 x80.524 y128.662
G1 x80.444 y128.662
G1 x80.364 y128.662
G1 x80.284 y128.662
G1 x80.204 y128.662
G1 x80.124 y128.662
G1 x80.044 y128.662
G1 x79.964 y128.662
G1 x79.884 y128.662
G1 x79.804 y128.662
G1 x79.724 y128.662
G1 x79.644 y128.662
G1 x79.564 y128.662
G1 x79.484 y128.662
G1 x79.404 y128.662
G1 x79.324 y128.662
G1 x79.244 y128.662
G1 x79.164 y128.662
G1 x79.084 y128.662
G1 x79.004 y128.662
G1 x78.934 y128.632
G1 x78.924 y128.552
G1 x78.924 y128.472
G1 x78.924 y128.392
G1 x78.924 y128.312
G1 x78.924 y128.232
G1 x78.924 y128.152
G1 x78.924 y128.072
G1 x78.924 y127.992
G1 x78.924 y127.912
G1 x78.924 y127.832
G1 x78.924 y127.752
G1 x78.924 y127.672
G1 x78.924 y127.592
G1 x78.894 y127.522
G1 x78.814 y127.502
G1 x78.734 y127.502
G1 x78.654 y127.502
G1 x78.574 y127.502
G1 x78.494 y127.502
G1 x78.414 y127.502
G1 x78.334 y127.502
G1 x78.254 y127.502
G1 x78.174 y127.502
G1 x78.094 y127.502
G1 x78.014 y127.502
G1 x77.934 y127.502
G1 x77.854 y127.502
G1 x77.774 y127.502
G1 x77.694 y127.502
G1 x77.614 y127.502
G1 x77.534 y127.502
G1 x77.454 y127.502
G1 x77.374 y127.502
G1 x77.294 y127.502
G1 x77.214 y127.502
G1 x77.134 y127.502
G1 x77.054 y127.502
G1 x76.974 y127.502
G1 x76.894 y127.502
G1 x76.814 y127.502
G1 x76.734 y127.502
G1 x76.654 y127.512
G1 x76.654 y127.592
G1 x76.654 y127.672
G1 x76.634 y127.752
G1 x76.554 y127.772
G1 x76.474 y127.772
G1 x76.394 y127.772
G1 x76.314 y127.772
G1 x76.234 y127.772
G1 x76.154 y127.772
G1 x76.074 y127.772
G1 x75.994 y127.772
G1 x75.914 y127.772
G1 x75.834 y127.772
G1 x75.754 y127.772
G1 x75.674 y127.772
G1 x75.594 y127.772
G1 x75.514 y127.772
G1 x75.434 y127.772
G1 x75.354 y127.772
G1 x75.274 y127.772
G1 x75.194 y127.772
G1 x75.114 y127.772
G1 x75.034 y127.772
G1 x74.954 y127.772
G1 x74.874 y127.772
G1 x74.794 y127.772
G1 x74.714 y127.772
G1 x74.634 y127.772
G1 x74.554 y127.772
G1 x74.484 y127.742
G0 z0.5


G0 x66.4806 y122.384
G0 z0.000
F300
G1 z-0.2
F600
G1 x66.4806 y122.304
G1 x66.4806 y122.224
G1 x66.4806 y122.144
G1 x66.4806 y122.064
G1 x66.4806 y121.984
G1 x66.4806 y121.904
G1 x66.4806 y121.824
G1 x66.4806 y121.744
G1 x66.4806 y121.664
G1 x66.4806 y121.584
G1 x66.4806 y121.504
G1 x66.4806 y121.424
G1 x66.4806 y121.344
G1 x66.4806 y121.264
G1 x66.4806 y121.184
G1 x66.4806 y121.104
G1 x66.4906 y121.024
G1 x66.5006 y120.944
G1 x66.5306 y120.874
G1 x66.5606 y120.804
G1 x66.6106 y120.734
G1 x66.6706 y120.674
G1 x66.7306 y120.624
G1 x66.8006 y120.584
G1 x66.8706 y120.554
G1 x66.9506 y120.534
G1 x67.0306 y120.524
G1 x67.1106 y120.524
G1 x67.1906 y120.534
G1 x67.2606 y120.564
G1 x67.3406 y120.544
G1 x67.4206 y120.544
G1 x67.5006 y120.544
G1 x67.5806 y120.544
G1 x67.6606 y120.544
G1 x67.7406 y120.544
G1 x67.8206 y120.544
G1 x67.9006 y120.534
G1 x67.9806 y120.524
G1 x68.0606 y120.524
G1 x68.1406 y120.524
G1 x68.2206 y120.524
G1 x68.3006 y120.524
G1 x68.3806 y120.524
G1 x68.4606 y120.524
G1 x68.5406 y120.524
G1 x68.6206 y120.524
G1 x68.7006 y120.524
G1 x68.7806 y120.524
G1 x68.8606 y120.524
G1 x68.9406 y120.524
G1 x69.0206 y120.524
G1 x69.1006 y120.524
G1 x69.1806 y120.524
G1 x69.2606 y120.544
G1 x69.3406 y120.544
G1 x69.4106 y120.504
G1 x69.4506 y120.434
G1 x69.5106 y120.374
G1 x69.5706 y120.314
G1 x69.6306 y120.254
G1 x69.6906 y120.194
G1 x69.7506 y120.134
G1 x69.8106 y120.074
G1 x69.8706 y120.014
G1 x69.9306 y119.954
G1 x69.9906 y119.894
G1 x70.0406 y119.834
G1 x70.0406 y119.754
G1 x70.0406 y119.674
G1 x70.0406 y119.594
G1 x70.0406 y119.514
G1 x70.0406 y119.434
G1 x70.0406 y119.354
G1 x70.0406 y119.274
G1 x70.0406 y119.194
G1 x70.0406 y119.114
G1 x70.0406 y119.034
G1 x70.0406 y118.954
G1 x70.0406 y118.874
G1 x70.0406 y118.794
G1 x70.0406 y118.714
G1 x70.0406 y118.634
G1 x70.0406 y118.554
G1 x70.0406 y118.474
G1 x70.0406 y118.394
G1 x70.0406 y118.314
G1 x70.0406 y118.234
G1 x70.0406 y118.154
G1 x70.0406 y118.074
G1 x70.0406 y117.994
G1 x70.0406 y117.914
G1 x70.0406 y117.834
G1 x70.0406 y117.754
G1 x70.0406 y117.674
G1 x70.0406 y117.594
G1 x70.0406 y117.514
G1 x70.0406 y117.434
G1 x70.0406 y117.354
G1 x70.0406 y117.274
G1 x70.0406 y117.194
G1 x70.0406 y117.114
G1 x70.0406 y117.034
G1 x70.0406 y116.954
G1 x70.0406 y116.874
G1 x70.0506 y116.794
G1 x70.0706 y116.714
G1 x70.1006 y116.644
G1 x70.1406 y116.574
G1 x70.1906 y116.514
G1 x70.2506 y116.454
G1 x70.3106 y116.394
G1 x70.3706 y116.334
G1 x70.4306 y116.274
G1 x70.4906 y116.214
G1 x70.5506 y116.154
G1 x70.6106 y116.094
G1 x70.6706 y116.034
G1 x70.7306 y115.974
G1 x70.7906 y115.914
G1 x70.8506 y115.854
G1 x70.9106 y115.794
G1 x70.9706 y115.734
G1 x71.0306 y115.674
G1 x71.0906 y115.614
G1 x71.1506 y115.554
G1 x71.2106 y115.494
G1 x71.2706 y115.434
G1 x71.3306 y115.374
G1 x71.3906 y115.314
G1 x71.4306 y115.244
G1 x71.4306 y115.164
G1 x71.4306 y115.084
G1 x71.4306 y115.004
G1 x71.4306 y114.924
G1 x71.4306 y114.844
G1 x71.4306 y114.764
G1 x71.4306 y114.684
G1 x71.4306 y114.604
G1 x71.4306 y114.524
G1 x71.4306 y114.444
G1 x71.4306 y114.364
G1 x71.4306 y114.284
G1 x71.4406 y114.204
G1 x71.5106 y114.164
G1 x71.5906 y114.164
G1 x71.6706 y114.164
G1 x71.7506 y114.164
G1 x71.8306 y114.164
G1 x71.9106 y114.164
G1 x71.9906 y114.164
G1 x72.0706 y114.164
G1 x72.1506 y114.164
G1 x72.2306 y114.164
G1 x72.3106 y114.164
G1 x72.3906 y114.164
G1 x72.4706 y114.164
G1 x72.5506 y114.164
G1 x72.6306 y114.164
G1 x72.7106 y114.164
G1 x72.7906 y114.164
G1 x72.8706 y114.164
G1 x72.9506 y114.164
G1 x73.0306 y114.164
G1 x73.1106 y114.164
G1 x73.1906 y114.164
G1 x73.2706 y114.164
G1 x73.3506 y114.164
G1 x73.4306 y114.164
G1 x73.5106 y114.164
G1 x73.5906 y114.194
G1 x73.6006 y114.274
G1 x73.6006 y114.354
G1 x73.6006 y114.434
G1 x73.6006 y114.514
G1 x73.6006 y114.594
G1 x73.6006 y114.674
G1 x73.6006 y114.754
G1 x73.6006 y114.834
G1 x73.6006 y114.914
G1 x73.6006 y114.994
G1 x73.6006 y115.074
G1 x73.6006 y115.154
G1 x73.6006 y115.234
G1 x73.6006 y115.314
G1 x73.6006 y115.394
G1 x73.6006 y115.474
G1 x73.6006 y115.554
G1 x73.6006 y115.634
G1 x73.6006 y115.714
G1 x73.5906 y115.794
G1 x73.5206 y115.834
G1 x73.4406 y115.834
G1 x73.3606 y115.834
G1 x73.2806 y115.834
G1 x73.2006 y115.834
G1 x73.1206 y115.834
G1 x73.0406 y115.834
G1 x72.9606 y115.834
G1 x72.8806 y115.834
G1 x72.8006 y115.834
G1 x72.7206 y115.834
G1 x72.6406 y115.834
G1 x72.5606 y115.834
G1 x72.4806 y115.844
G1 x72.4206 y115.904
G1 x72.3606 y115.964
G1 x72.3006 y116.024
G1 x72.2406 y116.084
G1 x72.1806 y116.144
G1 x72.1206 y116.204
G1 x72.0606 y116.264
G1 x72.0006 y116.324
G1 x71.9406 y116.384
G1 x71.8806 y116.444
G1 x71.8206 y116.504
G1 x71.7606 y116.564
G1 x71.7006 y116.624
G1 x71.6406 y116.684
G1 x71.5806 y116.744
G1 x71.5206 y116.804
G1 x71.4606 y116.864
G1 x71.4006 y116.924
G1 x71.3406 y116.984
G1 x71.2806 y117.044
G1 x71.2206 y117.104
G1 x71.1806 y117.174
G1 x71.1806 y117.254
G1 x71.1806 y117.334
G1 x71.1806 y117.414
G1 x71.1806 y117.494
G1 x71.1806 y117.574
G1 x71.1806 y117.654
G1 x71.1806 y117.734
G1 x71.1806 y117.814
G1 x71.1806 y117.894
G1 x71.1806 y117.974
G1 x71.1806 y118.054
G1 x71.1806 y118.134
G1 x71.1806 y118.214
G1 x71.1806 y118.294
G1 x71.1806 y118.374
G1 x71.1806 y118.454
G1 x71.1806 y118.534
G1 x71.1806 y118.614
G1 x71.1806 y118.694
G1 x71.1806 y118.774
G1 x71.1806 y118.854
G1 x71.1806 y118.934
G1 x71.1806 y119.014
G1 x71.1806 y119.094
G1 x71.1806 y119.174
G1 x71.1806 y119.254
G1 x71.1806 y119.334
G1 x71.1806 y119.414
G1 x71.1806 y119.494
G1 x71.1806 y119.574
G1 x71.1806 y119.654
G1 x71.1806 y119.734
G1 x71.1806 y119.814
G1 x71.1806 y119.894
G1 x71.1806 y119.974
G1 x71.1806 y120.054
G1 x71.1806 y120.134
G1 x71.1706 y120.214
G1 x71.1406 y120.294
G1 x71.1106 y120.364
G1 x71.0606 y120.434
G1 x71.0106 y120.494
G1 x70.9506 y120.554
G1 x70.8906 y120.614
G1 x70.8306 y120.674
G1 x70.7706 y120.734
G1 x70.7106 y120.794
G1 x70.6506 y120.854
G1 x70.5906 y120.914
G1 x70.5306 y120.974
G1 x70.4706 y121.034
G1 x70.4106 y121.094
G1 x70.3506 y121.154
G1 x70.2906 y121.204
G1 x70.2306 y121.254
G1 x70.1606 y121.294
G1 x70.0906 y121.324
G1 x70.0106 y121.344
G1 x69.9306 y121.354
G1 x69.8506 y121.354
G1 x69.7706 y121.344
G1 x69.6906 y121.314
G1 x69.6206 y121.284
G1 x69.5506 y121.234
G1 x69.4906 y121.184
G1 x69.4406 y121.124
G1 x69.4006 y121.054
G1 x69.3206 y121.034
G1 x69.2406 y121.034
G1 x69.1606 y121.044
G1 x69.0806 y121.044
G1 x69.0006 y121.044
G1 x68.9206 y121.044
G1 x68.8406 y121.044
G1 x68.7606 y121.044
G1 x68.6806 y121.044
G1 x68.6006 y121.044
G1 x68.5206 y121.044
G1 x68.4406 y121.044
G1 x68.3606 y121.044
G1 x68.2806 y121.044
G1 x68.2006 y121.044
G1 x68.1206 y121.044
G1 x68.0406 y121.044
G1 x67.9606 y121.044
G1 x67.8806 y121.034
G1 x67.8006 y121.034
G1 x67.7206 y121.034
G1 x67.6406 y121.034
G1 x67.6306 y121.114
G1 x67.6306 y121.194
G1 x67.6306 y121.274
G1 x67.6306 y121.354
G1 x67.6306 y121.434
G1 x67.6306 y121.514
G1 x67.6306 y121.594
G1 x67.6306 y121.674
G1 x67.6306 y121.754
G1 x67.6306 y121.834
G1 x67.6306 y121.914
G1 x67.6306 y121.994
G1 x67.6306 y122.074
G1 x67.6506 y122.154
G1 x67.7106 y122.214
G1 x67.7706 y122.274
G1 x67.8306 y122.334
G1 x67.8906 y122.394
G1 x67.9506 y122.454
G1 x68.0106 y122.514
G1 x68.0706 y122.574
G1 x68.1306 y122.634
G1 x68.2006 y122.674
G1 x68.2806 y122.674
G1 x68.3606 y122.674
G1 x68.4406 y122.674
G1 x68.5206 y122.674
G1 x68.6006 y122.674
G1 x68.6806 y122.674
G1 x68.7606 y122.674
G1 x68.8406 y122.674
G1 x68.9006 y122.724
G1 x68.9006 y122.804
G1 x68.9006 y122.884
G1 x68.9006 y122.964
G1 x68.9006 y123.044
G1 x68.9006 y123.124
G1 x68.9006 y123.204
G1 x68.9006 y123.284
G1 x68.9006 y123.364
G1 x68.9006 y123.444
G1 x68.9006 y123.524
G1 x68.9006 y123.604
G1 x68.9006 y123.684
G1 x68.9006 y123.764
G1 x68.9006 y123.844
G1 x68.9006 y123.924
G1 x68.9006 y124.004
G1 x68.9006 y124.084
G1 x68.9006 y124.164
G1 x68.9006 y124.244
G1 x68.9006 y124.324
G1 x68.9006 y124.404
G1 x68.9006 y124.484
G1 x68.9006 y124.564
G1 x68.9006 y124.644
G1 x68.9006 y124.724
G1 x68.8906 y124.804
G1 x68.8206 y124.844
G1 x68.7406 y124.844
G1 x68.6606 y124.844
G1 x68.6406 y124.924
G1 x68.6406 y125.004
G1 x68.6406 y125.084
G1 x68.6406 y125.164
G1 x68.6406 y125.244
G1 x68.6406 y125.324
G1 x68.6406 y125.404
G1 x68.6706 y125.474
G1 x68.7506 y125.474
G1 x68.8306 y125.474
G1 x68.9006 y125.524
G1 x68.9006 y125.604
G1 x68.9006 y125.684
G1 x68.9006 y125.764
G1 x68.9006 y125.844
G1 x68.9006 y125.924
G1 x68.9006 y126.004
G1 x68.9006 y126.084
G1 x68.9006 y126.164
G1 x68.9006 y126.244
G1 x68.9006 y126.324
G1 x68.9706 y126.364
G1 x69.0506 y126.364
G1 x69.1306 y126.364
G1 x69.2106 y126.364
G1 x69.2906 y126.364
G1 x69.3706 y126.364
G1 x69.4506 y126.364
G1 x69.5306 y126.364
G1 x69.6106 y126.364
G1 x69.6906 y126.364
G1 x69.7706 y126.364
G1 x69.8506 y126.364
G1 x69.9306 y126.364
G1 x70.0106 y126.364
G1 x70.0906 y126.364
G1 x70.1706 y126.364
G1 x70.2506 y126.364
G1 x70.3306 y126.364
G1 x70.4106 y126.364
G1 x70.4906 y126.364
G1 x70.5706 y126.364
G1 x70.6506 y126.364
G1 x70.7306 y126.364
G1 x70.8106 y126.364
G1 x70.8906 y126.364
G1 x70.9706 y126.364
G1 x71.0506 y126.364
G1 x71.1306 y126.364
G1 x71.2106 y126.364
G1 x71.2906 y126.364
G1 x71.3706 y126.364
G1 x71.4506 y126.364
G1 x71.5306 y126.364
G1 x71.6106 y126.364
G1 x71.6806 y126.334
G1 x71.6806 y126.254
G1 x71.6806 y126.174
G1 x71.7306 y126.104
G1 x71.8106 y126.104
G1 x71.8906 y126.104
G1 x71.9706 y126.104
G1 x72.0506 y126.104
G1 x72.1306 y126.104
G1 x72.2106 y126.104
G1 x72.2906 y126.104
G1 x72.3706 y126.104
G1 x72.4506 y126.104
G1 x72.5306 y126.104
G1 x72.6106 y126.104
G1 x72.6906 y126.104
G1 x72.7706 y126.104
G1 x72.8506 y126.104
G1 x72.9306 y126.104
G1 x73.0106 y126.104
G1 x73.0906 y126.104
G1 x73.1706 y126.104
G1 x73.2506 y126.104
G1 x73.3306 y126.104
G1 x73.4106 y126.104
G1 x73.4906 y126.104
G1 x73.5706 y126.104
G1 x73.6506 y126.104
G1 x73.7306 y126.104
G1 x73.8106 y126.104
G1 x73.8606 y126.164
G1 x73.8606 y126.244
G1 x73.8606 y126.324
G1 x73.8606 y126.404
G1 x73.8606 y126.484
G1 x73.8606 y126.564
G1 x73.8606 y126.644
G1 x73.8606 y126.724
G1 x73.8606 y126.804
G1 x73.8606 y126.884
G1 x73.8606 y126.964
G1 x73.8606 y127.044
G1 x73.8606 y127.124
G1 x73.8606 y127.204
G1 x73.8606 y127.284
G1 x73.8606 y127.364
G1 x73.8606 y127.444
G1 x73.8606 y127.524
G1 x73.8606 y127.604
G1 x73.8606 y127.684
G1 x73.8306 y127.764
G1 x73.7506 y127.774
G1 x73.6706 y127.774
G1 x73.5906 y127.774
G1 x73.5106 y127.774
G1 x73.4306 y127.774
G1 x73.3506 y127.774
G1 x73.2706 y127.774
G1 x73.1906 y127.774
G1 x73.1106 y127.774
G1 x73.0306 y127.774
G1 x72.9506 y127.774
G1 x72.8706 y127.774
G1 x72.7906 y127.774
G1 x72.7106 y127.774
G1 x72.6306 y127.774
G1 x72.5506 y127.774
G1 x72.4706 y127.774
G1 x72.3906 y127.774
G1 x72.3106 y127.774
G1 x72.2306 y127.774
G1 x72.1506 y127.774
G1 x72.0706 y127.774
G1 x71.9906 y127.774
G1 x71.9106 y127.774
G1 x71.8306 y127.774
G1 x71.7506 y127.774
G1 x71.6806 y127.724
G1 x71.6806 y127.644
G1 x71.6806 y127.564
G1 x71.6306 y127.504
G1 x71.5506 y127.504
G1 x71.4706 y127.504
G1 x71.3906 y127.504
G1 x71.3106 y127.504
G1 x71.2306 y127.504
G1 x71.1506 y127.504
G1 x71.0706 y127.504
G1 x70.9906 y127.504
G1 x70.9106 y127.504
G1 x70.8306 y127.504
G1 x70.7506 y127.504
G1 x70.6706 y127.504
G1 x70.5906 y127.504
G1 x70.5106 y127.504
G1 x70.4306 y127.504
G1 x70.3506 y127.504
G1 x70.2706 y127.504
G1 x70.1906 y127.504
G1 x70.1106 y127.504
G1 x70.0306 y127.504
G1 x69.9506 y127.504
G1 x69.8706 y127.504
G1 x69.7906 y127.504
G1 x69.7106 y127.504
G1 x69.6306 y127.504
G1 x69.5506 y127.504
G1 x69.4706 y127.504
G1 x69.3906 y127.504
G1 x69.3106 y127.504
G1 x69.2306 y127.504
G1 x69.1506 y127.504
G1 x69.0706 y127.504
G1 x68.9906 y127.504
G1 x68.9106 y127.504
G1 x68.9006 y127.584
G1 x68.8506 y127.644
G1 x68.7706 y127.644
G1 x68.6906 y127.644
G1 x68.6106 y127.644
G1 x68.5306 y127.644
G1 x68.4506 y127.644
G1 x68.3706 y127.644
G1 x68.2906 y127.644
G1 x68.2106 y127.644
G1 x68.1306 y127.644
G1 x68.0506 y127.644
G1 x67.9706 y127.644
G1 x67.8906 y127.644
G1 x67.8106 y127.644
G1 x67.7306 y127.644
G1 x67.6506 y127.644
G1 x67.5706 y127.644
G1 x67.4906 y127.644
G1 x67.4106 y127.644
G1 x67.3306 y127.644
G1 x67.2506 y127.614
G1 x67.2406 y127.534
G1 x67.2406 y127.454
G1 x67.2406 y127.374
G1 x67.2406 y127.294
G1 x67.2406 y127.214
G1 x67.2406 y127.134
G1 x67.2406 y127.054
G1 x67.2406 y126.974
G1 x67.2406 y126.894
G1 x67.2406 y126.814
G1 x67.2406 y126.734
G1 x67.2406 y126.654
G1 x67.2406 y126.574
G1 x67.2406 y126.494
G1 x67.2406 y126.414
G1 x67.2406 y126.334
G1 x67.2406 y126.254
G1 x67.2406 y126.174
G1 x67.2406 y126.094
G1 x67.2406 y126.014
G1 x67.2406 y125.934
G1 x67.2406 y125.854
G1 x67.2406 y125.774
G1 x67.2406 y125.694
G1 x67.2406 y125.614
G1 x67.2406 y125.534
G1 x67.2906 y125.474
G1 x67.3706 y125.474
G1 x67.4506 y125.474
G1 x67.5006 y125.414
G1 x67.5006 y125.334
G1 x67.5006 y125.254
G1 x67.5006 y125.174
G1 x67.5006 y125.094
G1 x67.5006 y125.014
G1 x67.5006 y124.934
G1 x67.5006 y124.854
G1 x67.4206 y124.844
G1 x67.3406 y124.844
G1 x67.2606 y124.824
G1 x67.2406 y124.744
G1 x67.2406 y124.664
G1 x67.2406 y124.584
G1 x67.2406 y124.504
G1 x67.2406 y124.424
G1 x67.2406 y124.344
G1 x67.2406 y124.264
G1 x67.2406 y124.184
G1 x67.2406 y124.104
