(G-Code for Milling a PCB)
(Generated with CopperField)
(Date: 01.10.2017    Time: 06:17:32)

(All units in Millimeters)

(Cutter Diameter: 0.25 mm)
(Cutter z-Depth: -0.1 mm)
(Cutter z-Clearance: 1 mm)
(Mill Feedrate: 5 mm/s)
(Plunge Feedrate: 2 mm/s)



G0 x20.0939 y5.2578
G0 z0.0000
F120.0000
G1 z-0.1000
F300.0000
G1 x19.8755 y5.1613 z-0.1000
G1 x19.8044 y5.0648 z-0.1000
G1 x19.7307 y4.8717 z-0.1000
G1 x19.7307 y4.5822 z-0.1000
G1 x19.8044 y4.3866 z-0.1000
G1 x19.8755 y4.2901 z-0.1000
G1 x20.0228 y4.1935 z-0.1000
G1 x20.6019 y4.1935 z-0.1000
G1 x20.6019 y6.2255 z-0.1000
G1 x20.0939 y6.2255 z-0.1000
G1 x19.9492 y6.1290 z-0.1000
G1 x19.8755 y6.0325 z-0.1000
G1 x19.8044 y5.8395 z-0.1000
G1 x19.8044 y5.6464 z-0.1000
G1 x19.8755 y5.4508 z-0.1000
G1 x19.9492 y5.3543 z-0.1000
G1 x20.0939 y5.2578 z-0.1000
G1 x20.6019 y5.2578 z-0.1000
G0 z1.0000


G0 x26.5526 y25.4914
G0 z0.0000
F120.0000
G1 z-0.1000
F300.0000
G1 x26.5526 y25.3614 z-0.1000
G1 x26.5726 y25.2314 z-0.1000
G1 x26.6226 y25.1114 z-0.1000
G1 x26.7026 y25.0014 z-0.1000
G1 x26.7926 y24.9114 z-0.1000
G1 x26.9026 y24.8514 z-0.1000
G1 x27.0226 y24.8014 z-0.1000
G1 x27.1526 y24.7814 z-0.1000
G1 x27.2826 y24.7814 z-0.1000
G1 x27.4126 y24.7814 z-0.1000
G1 x27.5426 y24.7814 z-0.1000
G1 x27.6726 y24.7814 z-0.1000
G1 x27.8026 y24.7814 z-0.1000
G1 x27.9326 y24.7814 z-0.1000
G1 x28.0626 y24.7814 z-0.1000
G1 x28.1926 y24.7814 z-0.1000
G1 x28.3226 y24.7814 z-0.1000
G1 x28.4526 y24.7814 z-0.1000
G1 x28.5826 y24.7814 z-0.1000
G1 x28.7126 y24.7814 z-0.1000
G1 x28.8426 y24.7814 z-0.1000
G1 x28.9726 y24.7814 z-0.1000
G1 x29.1026 y24.7814 z-0.1000
G1 x29.2326 y24.7814 z-0.1000
G1 x29.3626 y24.7814 z-0.1000
G1 x29.4926 y24.7814 z-0.1000
G1 x29.6226 y24.7814 z-0.1000
G1 x29.7526 y24.7814 z-0.1000
G1 x29.8826 y24.7814 z-0.1000
G1 x30.0126 y24.7814 z-0.1000
G1 x30.1426 y24.7814 z-0.1000
G1 x30.2726 y24.7814 z-0.1000
G1 x30.4026 y24.7814 z-0.1000
G1 x30.5326 y24.7814 z-0.1000
G1 x30.6626 y24.7814 z-0.1000
G1 x30.7926 y24.7814 z-0.1000
G1 x30.9226 y24.7814 z-0.1000
G1 x31.0526 y24.7814 z-0.1000
G1 x31.1826 y24.7814 z-0.1000
G1 x31.3126 y24.7814 z-0.1000
G1 x31.4326 y24.7314 z-0.1000
G1 x31.5326 y24.6514 z-0.1000
G1 x31.6526 y24.5914 z-0.1000
G1 x31.7726 y24.5514 z-0.1000
G1 x31.9026 y24.5314 z-0.1000
G1 x32.0326 y24.5214 z-0.1000
G1 x32.1626 y24.5314 z-0.1000
G1 x32.2926 y24.5714 z-0.1000
G1 x32.4126 y24.6214 z-0.1000
G1 x32.5226 y24.6914 z-0.1000
G1 x32.6226 y24.7814 z-0.1000
G1 x32.6526 y24.6514 z-0.1000
G1 x32.6526 y24.5214 z-0.1000
G1 x32.6526 y24.3914 z-0.1000
G1 x32.6526 y24.2614 z-0.1000
G1 x32.6526 y24.1314 z-0.1000
G1 x32.6826 y24.0014 z-0.1000
G1 x32.7326 y23.8814 z-0.1000
G1 x32.8126 y23.7814 z-0.1000
G1 x32.9126 y23.6914 z-0.1000
G1 x32.9726 y23.5814 z-0.1000
G1 x32.9726 y23.4514 z-0.1000
G1 x32.9726 y23.3214 z-0.1000
G1 x32.9726 y23.1914 z-0.1000
G1 x32.9726 y23.0614 z-0.1000
G1 x32.9726 y22.9314 z-0.1000
G1 x32.9726 y22.8014 z-0.1000
G1 x32.9726 y22.6714 z-0.1000
G1 x32.9726 y22.5414 z-0.1000
G1 x32.9726 y22.4114 z-0.1000
G1 x32.9726 y22.2814 z-0.1000
G1 x32.9726 y22.1514 z-0.1000
G1 x32.9726 y22.0214 z-0.1000
G1 x32.9726 y21.8914 z-0.1000
G1 x32.8726 y21.8114 z-0.1000
G1 x32.7826 y21.7214 z-0.1000
G1 x32.7126 y21.6114 z-0.1000
G1 x32.6626 y21.4914 z-0.1000
G1 x32.6526 y21.3614 z-0.1000
G1 x32.6526 y21.2314 z-0.1000
G1 x32.6926 y21.1114 z-0.1000
G1 x32.7526 y21.0014 z-0.1000
G1 x32.8326 y20.9014 z-0.1000
G1 x32.9326 y20.8214 z-0.1000
G1 x33.0426 y20.7614 z-0.1000
G1 x33.1726 y20.7214 z-0.1000
G1 x33.3026 y20.7214 z-0.1000
G1 x33.4326 y20.7214 z-0.1000
G1 x33.5626 y20.7214 z-0.1000
G1 x33.6926 y20.7214 z-0.1000
G1 x33.8226 y20.7214 z-0.1000
G1 x33.9526 y20.7214 z-0.1000
G1 x34.0826 y20.7214 z-0.1000
G1 x34.2126 y20.7214 z-0.1000
G1 x34.3426 y20.7214 z-0.1000
G1 x34.4726 y20.7214 z-0.1000
G1 x34.6026 y20.7214 z-0.1000
G1 x34.7326 y20.7214 z-0.1000
G1 x34.8626 y20.7214 z-0.1000
G1 x34.9926 y20.7214 z-0.1000
G1 x35.1226 y20.7214 z-0.1000
G1 x35.2526 y20.7214 z-0.1000
G1 x35.3826 y20.7214 z-0.1000
G1 x35.5126 y20.7214 z-0.1000
G1 x35.6426 y20.7214 z-0.1000
G1 x35.7726 y20.7214 z-0.1000
G1 x35.9026 y20.7214 z-0.1000
G1 x36.0326 y20.7214 z-0.1000
G1 x36.1626 y20.7214 z-0.1000
G1 x36.2926 y20.7214 z-0.1000
G1 x36.4226 y20.7214 z-0.1000
G1 x36.5526 y20.7214 z-0.1000
G1 x36.6826 y20.7214 z-0.1000
G1 x36.8126 y20.7214 z-0.1000
G1 x36.9426 y20.7214 z-0.1000
G1 x37.0726 y20.7214 z-0.1000
G1 x37.2026 y20.7214 z-0.1000
G1 x37.3326 y20.7214 z-0.1000
G1 x37.4626 y20.7214 z-0.1000
G1 x37.5926 y20.7214 z-0.1000
G1 x37.7226 y20.7214 z-0.1000
G1 x37.8526 y20.7214 z-0.1000
G1 x37.9826 y20.7214 z-0.1000
G1 x38.1126 y20.7214 z-0.1000
G1 x38.2426 y20.7214 z-0.1000
G1 x38.3726 y20.7214 z-0.1000
G1 x38.5026 y20.7214 z-0.1000
G1 x38.6326 y20.7214 z-0.1000
G1 x38.7626 y20.7214 z-0.1000
G1 x38.8926 y20.7214 z-0.1000
G1 x39.0226 y20.7414 z-0.1000
G1 x39.1426 y20.7914 z-0.1000
G1 x39.2526 y20.8614 z-0.1000
G1 x39.3526 y20.9514 z-0.1000
G1 x39.4426 y21.0414 z-0.1000
G1 x39.5326 y21.1314 z-0.1000
G1 x39.6226 y21.2214 z-0.1000
G1 x39.7126 y21.3114 z-0.1000
G1 x39.8026 y21.4014 z-0.1000
G1 x39.8926 y21.4914 z-0.1000
G1 x39.9826 y21.5814 z-0.1000
G1 x40.0726 y21.6714 z-0.1000
G1 x40.1626 y21.7614 z-0.1000
G1 x40.2526 y21.8514 z-0.1000
G1 x40.3426 y21.9514 z-0.1000
G1 x40.4226 y22.0614 z-0.1000
G1 x40.4726 y22.1814 z-0.1000
G1 x40.4926 y22.3114 z-0.1000
G1 x40.4926 y22.4414 z-0.1000
G1 x40.4926 y22.5714 z-0.1000
G1 x40.4926 y22.7014 z-0.1000
G1 x40.4926 y22.8314 z-0.1000
G1 x40.4926 y22.9614 z-0.1000
G1 x40.4926 y23.0914 z-0.1000
G1 x40.4926 y23.2214 z-0.1000
G1 x40.4926 y23.3514 z-0.1000
G1 x40.4926 y23.4814 z-0.1000
G1 x40.4926 y23.6114 z-0.1000
G1 x40.4926 y23.7414 z-0.1000
G1 x40.4926 y23.8714 z-0.1000
G1 x40.4926 y24.0014 z-0.1000
G1 x40.4926 y24.1314 z-0.1000
G1 x40.4926 y24.2614 z-0.1000
G1 x40.4926 y24.3914 z-0.1000
G1 x40.4926 y24.5214 z-0.1000
G1 x40.4926 y24.6514 z-0.1000
G1 x40.4926 y24.7814 z-0.1000
G1 x40.4926 y24.9114 z-0.1000
G1 x40.4926 y25.0414 z-0.1000
G1 x40.4926 y25.1714 z-0.1000
G1 x40.4926 y25.3014 z-0.1000
G1 x40.4926 y25.4314 z-0.1000
G1 x40.4926 y25.5614 z-0.1000
G1 x40.4926 y25.6914 z-0.1000
G1 x40.4926 y25.8214 z-0.1000
G1 x40.4926 y25.9514 z-0.1000
G1 x40.4926 y26.0814 z-0.1000
G1 x40.4926 y26.2114 z-0.1000
G1 x40.4926 y26.3414 z-0.1000
G1 x40.4926 y26.4714 z-0.1000
G1 x40.4926 y26.6014 z-0.1000
G1 x40.4926 y26.7314 z-0.1000
G1 x40.4926 y26.8614 z-0.1000
G1 x40.4926 y26.9914 z-0.1000
G1 x40.4926 y27.1214 z-0.1000
G1 x40.4926 y27.2514 z-0.1000
G1 x40.4926 y27.3814 z-0.1000
G1 x40.4926 y27.5114 z-0.1000
G1 x40.4926 y27.6414 z-0.1000
G1 x40.4926 y27.7714 z-0.1000
G1 x40.4926 y27.9014 z-0.1000
G1 x40.4926 y28.0314 z-0.1000
G1 x40.4926 y28.1614 z-0.1000
G1 x40.4926 y28.2914 z-0.1000
G1 x40.4926 y28.4214 z-0.1000
G1 x40.4926 y28.5514 z-0.1000
G1 x40.4926 y28.6814 z-0.1000
G1 x40.4926 y28.8114 z-0.1000
G1 x40.4926 y28.9414 z-0.1000
G1 x40.4926 y29.0714 z-0.1000
G1 x40.4926 y29.2014 z-0.1000
G1 x40.4926 y29.3314 z-0.1000
G1 x40.4926 y29.4614 z-0.1000
G1 x40.4926 y29.5914 z-0.1000
G1 x40.4926 y29.7214 z-0.1000
G1 x40.4926 y29.8514 z-0.1000
G1 x40.4926 y29.9814 z-0.1000
G1 x40.4926 y30.1114 z-0.1000
G1 x40.4926 y30.2414 z-0.1000
G1 x40.4926 y30.3714 z-0.1000
G1 x40.4926 y30.5014 z-0.1000
G1 x40.4926 y30.6314 z-0.1000
G1 x40.4926 y30.7614 z-0.1000
G1 x40.4926 y30.8914 z-0.1000
G1 x40.4926 y31.0214 z-0.1000
G1 x40.4926 y31.1514 z-0.1000
G1 x40.4726 y31.2814 z-0.1000
G1 x40.4226 y31.4014 z-0.1000
G1 x40.3526 y31.5114 z-0.1000
G1 x40.2626 y31.6114 z-0.1000
G1 x40.1726 y31.7014 z-0.1000
G1 x40.0826 y31.7914 z-0.1000
G1 x39.9926 y31.8814 z-0.1000
G1 x39.8926 y31.9714 z-0.1000
G1 x39.7826 y32.0514 z-0.1000
G1 x39.6626 y32.1014 z-0.1000
G1 x39.5326 y32.1214 z-0.1000
G1 x39.4026 y32.1214 z-0.1000
G1 x39.2726 y32.1214 z-0.1000
G1 x39.1526 y32.0814 z-0.1000
G1 x39.0326 y32.0214 z-0.1000
G1 x38.9326 y31.9414 z-0.1000
G1 x38.8426 y31.8414 z-0.1000
G1 x38.7826 y31.7214 z-0.1000
G1 x38.7526 y31.5914 z-0.1000
G1 x38.7426 y31.4614 z-0.1000
G1 x38.7626 y31.3314 z-0.1000
G1 x38.8126 y31.2114 z-0.1000
G1 x38.8926 y31.1014 z-0.1000
G1 x38.9826 y31.0114 z-0.1000
G1 x39.0926 y30.9414 z-0.1000
G1 x39.2126 y30.9014 z-0.1000
G1 x39.2526 y30.7814 z-0.1000
G1 x39.2526 y30.6514 z-0.1000
G1 x39.2526 y30.5214 z-0.1000
G1 x39.2526 y30.3914 z-0.1000
G1 x39.2526 y30.2614 z-0.1000
G1 x39.2526 y30.1314 z-0.1000
G1 x39.2526 y30.0014 z-0.1000
G1 x39.2526 y29.8714 z-0.1000
G1 x39.2526 y29.7414 z-0.1000
G1 x39.2526 y29.6114 z-0.1000
G1 x39.2526 y29.4814 z-0.1000
G1 x39.2526 y29.3514 z-0.1000
G1 x39.2526 y29.2214 z-0.1000
G1 x39.2526 y29.0914 z-0.1000
G1 x39.2526 y28.9614 z-0.1000
G1 x39.2526 y28.8314 z-0.1000
G1 x39.2526 y28.7014 z-0.1000
G1 x39.2526 y28.5714 z-0.1000
G1 x39.2526 y28.4414 z-0.1000
G1 x39.2526 y28.3114 z-0.1000
G1 x39.2526 y28.1814 z-0.1000
G1 x39.2526 y28.0514 z-0.1000
G1 x39.2526 y27.9214 z-0.1000
G1 x39.2526 y27.7914 z-0.1000
G1 x39.2526 y27.6614 z-0.1000
G1 x39.2526 y27.5314 z-0.1000
G1 x39.2526 y27.4014 z-0.1000
G1 x39.2526 y27.2714 z-0.1000
G1 x39.2526 y27.1414 z-0.1000
G1 x39.2526 y27.0114 z-0.1000
G1 x39.2526 y26.8814 z-0.1000
G1 x39.2526 y26.7514 z-0.1000
G1 x39.2526 y26.6214 z-0.1000
G1 x39.2526 y26.4914 z-0.1000
G1 x39.2526 y26.3614 z-0.1000
G1 x39.2526 y26.2314 z-0.1000
G1 x39.2526 y26.1014 z-0.1000
G1 x39.2526 y25.9714 z-0.1000
G1 x39.2526 y25.8414 z-0.1000
G1 x39.2526 y25.7114 z-0.1000
G1 x39.2526 y25.5814 z-0.1000
G1 x39.2526 y25.4514 z-0.1000
G1 x39.2526 y25.3214 z-0.1000
G1 x39.2526 y25.1914 z-0.1000
G1 x39.2526 y25.0614 z-0.1000
G1 x39.2526 y24.9314 z-0.1000
G1 x39.2526 y24.8014 z-0.1000
G1 x39.2526 y24.6714 z-0.1000
G1 x39.2526 y24.5414 z-0.1000
G1 x39.2526 y24.4114 z-0.1000
G1 x39.2526 y24.2814 z-0.1000
G1 x39.2526 y24.1514 z-0.1000
G1 x39.2526 y24.0214 z-0.1000
G1 x39.2526 y23.8914 z-0.1000
G1 x39.2526 y23.7614 z-0.1000
G1 x39.2526 y23.6314 z-0.1000
G1 x39.2526 y23.5014 z-0.1000
G1 x39.2526 y23.3714 z-0.1000
G1 x39.2526 y23.2414 z-0.1000
G1 x39.2526 y23.1114 z-0.1000
G1 x39.2526 y22.9814 z-0.1000
G1 x39.2526 y22.8514 z-0.1000
G1 x39.2526 y22.7214 z-0.1000
G1 x39.2326 y22.5914 z-0.1000
G1 x39.1426 y22.5014 z-0.1000
G1 x39.0526 y22.4114 z-0.1000
G1 x38.9626 y22.3214 z-0.1000
G1 x38.8726 y22.2314 z-0.1000
G1 x38.7826 y22.1414 z-0.1000
G1 x38.6926 y22.0514 z-0.1000
G1 x38.6026 y21.9614 z-0.1000
G1 x38.4726 y21.9614 z-0.1000
G1 x38.3426 y21.9614 z-0.1000
G1 x38.2126 y21.9614 z-0.1000
G1 x38.0826 y21.9614 z-0.1000
G1 x37.9526 y21.9614 z-0.1000
G1 x37.8226 y21.9614 z-0.1000
G1 x37.6926 y21.9614 z-0.1000
G1 x37.5626 y21.9614 z-0.1000
G1 x37.4326 y21.9614 z-0.1000
G1 x37.3026 y21.9614 z-0.1000
G1 x37.1726 y21.9614 z-0.1000
G1 x37.0426 y21.9614 z-0.1000
G1 x36.9126 y21.9614 z-0.1000
G1 x36.7826 y21.9614 z-0.1000
G1 x36.6526 y21.9614 z-0.1000
G1 x36.5226 y21.9614 z-0.1000
G1 x36.3926 y21.9614 z-0.1000
G1 x36.2626 y21.9614 z-0.1000
G1 x36.1326 y21.9614 z-0.1000
G1 x36.0026 y21.9614 z-0.1000
G1 x35.8726 y21.9614 z-0.1000
G1 x35.7426 y21.9614 z-0.1000
G1 x35.6126 y21.9614 z-0.1000
G1 x35.4826 y21.9614 z-0.1000
G1 x35.3526 y21.9614 z-0.1000
G1 x35.2226 y21.9614 z-0.1000
G1 x35.0926 y21.9614 z-0.1000
G1 x34.9626 y21.9614 z-0.1000
G1 x34.8326 y21.9614 z-0.1000
G1 x34.7026 y21.9614 z-0.1000
G1 x34.5726 y21.9614 z-0.1000
G1 x34.4426 y21.9614 z-0.1000
G1 x34.3126 y21.9614 z-0.1000
G1 x34.1826 y21.9614 z-0.1000
G1 x34.0526 y21.9614 z-0.1000
G1 x33.9226 y21.9614 z-0.1000
G1 x33.7926 y21.9614 z-0.1000
G1 x33.6626 y21.9614 z-0.1000
G1 x33.5626 y22.0414 z-0.1000
G1 x33.5626 y22.1714 z-0.1000
G1 x33.5626 y22.3014 z-0.1000
G1 x33.5626 y22.4314 z-0.1000
G1 x33.5626 y22.5614 z-0.1000
G1 x33.5626 y22.6914 z-0.1000
G1 x33.5626 y22.8214 z-0.1000
G1 x33.5626 y22.9514 z-0.1000
G1 x33.5626 y23.0814 z-0.1000
G1 x33.5626 y23.2114 z-0.1000
G1 x33.5626 y23.3414 z-0.1000
G1 x33.5626 y23.4714 z-0.1000
G1 x33.5626 y23.6014 z-0.1000
G1 x33.6426 y23.7014 z-0.1000
G1 x33.7426 y23.7914 z-0.1000
G1 x33.8126 y23.9014 z-0.1000
G1 x33.8726 y24.0214 z-0.1000
G1 x33.8926 y24.1514 z-0.1000
G1 x33.8926 y24.2814 z-0.1000
G1 x33.8926 y24.4114 z-0.1000
G1 x33.8926 y24.5414 z-0.1000
G1 x33.8926 y24.6714 z-0.1000
G1 x34.0226 y24.6914 z-0.1000
G1 x34.1326 y24.6214 z-0.1000
G1 x34.2526 y24.5714 z-0.1000
G1 x34.3726 y24.5314 z-0.1000
G1 x34.5026 y24.5214 z-0.1000
G1 x34.6326 y24.5214 z-0.1000
G1 x34.7626 y24.5514 z-0.1000
G1 x34.8826 y24.5914 z-0.1000
G1 x35.0026 y24.6514 z-0.1000
G1 x35.1126 y24.7314 z-0.1000
G1 x35.2026 y24.8214 z-0.1000
G1 x35.2826 y24.9214 z-0.1000
G1 x35.3426 y25.0314 z-0.1000
G1 x35.3926 y25.1514 z-0.1000
G1 x35.4126 y25.2814 z-0.1000
G1 x35.4226 y25.4114 z-0.1000
G1 x35.4126 y25.5414 z-0.1000
G1 x35.3826 y25.6714 z-0.1000
G1 x35.3326 y25.7914 z-0.1000
G1 x35.2726 y25.9014 z-0.1000
G1 x35.1926 y26.0014 z-0.1000
G1 x35.0926 y26.0914 z-0.1000
G1 x34.9826 y26.1714 z-0.1000
G1 x34.8626 y26.2314 z-0.1000
G1 x34.7326 y26.2714 z-0.1000
G1 x34.6026 y26.2814 z-0.1000
G1 x34.4726 y26.2814 z-0.1000
G1 x34.3426 y26.2714 z-0.1000
G1 x34.2226 y26.2314 z-0.1000
G1 x34.1126 y26.1714 z-0.1000
G1 x34.0026 y26.1014 z-0.1000
G1 x33.9026 y26.0214 z-0.1000
G1 x33.7726 y26.0214 z-0.1000
G1 x33.6426 y26.0214 z-0.1000
G1 x33.5126 y26.0214 z-0.1000
G1 x33.3826 y26.0214 z-0.1000
G1 x33.2526 y26.0214 z-0.1000
G1 x33.1226 y26.0214 z-0.1000
G1 x32.9926 y26.0214 z-0.1000
G1 x32.8626 y26.0214 z-0.1000
G1 x32.7326 y26.0214 z-0.1000
G1 x32.6026 y26.0514 z-0.1000
G1 x32.5026 y26.1314 z-0.1000
G1 x32.3926 y26.1914 z-0.1000
G1 x32.2726 y26.2514 z-0.1000
G1 x32.1426 y26.2814 z-0.1000
G1 x32.0126 y26.2914 z-0.1000
G1 x31.8826 y26.2814 z-0.1000
G1 x31.7526 y26.2514 z-0.1000
G1 x31.6326 y26.2014 z-0.1000
G1 x31.5226 y26.1414 z-0.1000
G1 x31.4126 y26.0614 z-0.1000
G1 x31.2926 y26.0214 z-0.1000
G1 x31.1626 y26.0214 z-0.1000
G1 x31.0326 y26.0214 z-0.1000
G1 x30.9026 y26.0214 z-0.1000
G1 x30.7726 y26.0214 z-0.1000
G1 x30.6426 y26.0214 z-0.1000
G1 x30.5126 y26.0214 z-0.1000
G1 x30.3826 y26.0214 z-0.1000
G1 x30.2526 y26.0214 z-0.1000
G1 x30.1226 y26.0214 z-0.1000
G1 x29.9926 y26.0214 z-0.1000
G1 x29.8626 y26.0214 z-0.1000
G1 x29.7326 y26.0214 z-0.1000
G1 x29.6026 y26.0214 z-0.1000
G1 x29.4726 y26.0214 z-0.1000
G1 x29.3426 y26.0214 z-0.1000
G1 x29.2126 y26.0214 z-0.1000
G1 x29.0826 y26.0214 z-0.1000
G1 x28.9526 y26.0214 z-0.1000
G1 x28.8226 y26.0214 z-0.1000
G1 x28.6926 y26.0214 z-0.1000
G1 x28.5626 y26.0214 z-0.1000
G1 x28.4326 y26.0214 z-0.1000
G1 x28.3026 y26.0214 z-0.1000
G1 x28.1726 y26.0214 z-0.1000
G1 x28.0426 y26.0214 z-0.1000
G1 x27.9126 y26.0214 z-0.1000
G1 x27.7826 y26.0214 z-0.1000
G1 x27.6526 y26.0214 z-0.1000
G1 x27.5226 y26.0214 z-0.1000
G1 x27.3926 y26.0214 z-0.1000
G1 x27.2626 y26.0214 z-0.1000
G1 x27.1326 y26.0214 z-0.1000
G1 x27.0026 y26.0014 z-0.1000
G1 x26.8826 y25.9514 z-0.1000
G1 x26.7726 y25.8714 z-0.1000
G1 x26.6826 y25.7814 z-0.1000
G1 x26.6126 y25.6714 z-0.1000
G1 x26.5726 y25.5514 z-0.1000
G0 z1.0000


G0 x17.4086 y28.0294
G0 z0.0000
F120.0000
G1 z-0.1000
F300.0000
G1 x17.4086 y27.8994 z-0.1000
G1 x17.4086 y27.7694 z-0.1000
G1 x17.4086 y27.6394 z-0.1000
G1 x17.4086 y27.5094 z-0.1000
G1 x17.4086 y27.3794 z-0.1000
G1 x17.4086 y27.2494 z-0.1000
G1 x17.4086 y27.1194 z-0.1000
G1 x17.4086 y26.9894 z-0.1000
G1 x17.4086 y26.8594 z-0.1000
G1 x17.4086 y26.7294 z-0.1000
G1 x17.4086 y26.5994 z-0.1000
G1 x17.4086 y26.4694 z-0.1000
G1 x17.4086 y26.3394 z-0.1000
G1 x17.4086 y26.2094 z-0.1000
G1 x17.4086 y26.0794 z-0.1000
G1 x17.4086 y25.9494 z-0.1000
G1 x17.4086 y25.8194 z-0.1000
G1 x17.4086 y25.6894 z-0.1000
G1 x17.4086 y25.5594 z-0.1000
G1 x17.4086 y25.4294 z-0.1000
G1 x17.4086 y25.2994 z-0.1000
G1 x17.4086 y25.1694 z-0.1000
G1 x17.4086 y25.0394 z-0.1000
G1 x17.4086 y24.9094 z-0.1000
G1 x17.4086 y24.7794 z-0.1000
G1 x17.4086 y24.6494 z-0.1000
G1 x17.4086 y24.5194 z-0.1000
G1 x17.4086 y24.3894 z-0.1000
G1 x17.4086 y24.2594 z-0.1000
G1 x17.4086 y24.1294 z-0.1000
G1 x17.4086 y23.9994 z-0.1000
G1 x17.4086 y23.8694 z-0.1000
G1 x17.4086 y23.7394 z-0.1000
G1 x17.4086 y23.6094 z-0.1000
G1 x17.4086 y23.4794 z-0.1000
G1 x17.4086 y23.3494 z-0.1000
G1 x17.4086 y23.2194 z-0.1000
G1 x17.4086 y23.0894 z-0.1000
G1 x17.4086 y22.9594 z-0.1000
G1 x17.4086 y22.8294 z-0.1000
G1 x17.4086 y22.6994 z-0.1000
G1 x17.4086 y22.5694 z-0.1000
G1 x17.4086 y22.4394 z-0.1000
G1 x17.4086 y22.3094 z-0.1000
G1 x17.4086 y22.1794 z-0.1000
G1 x17.4086 y22.0494 z-0.1000
G1 x17.4086 y21.9194 z-0.1000
G1 x17.4086 y21.7894 z-0.1000
G1 x17.4086 y21.6594 z-0.1000
G1 x17.4086 y21.5294 z-0.1000
G1 x17.4086 y21.3994 z-0.1000
G1 x17.4086 y21.2694 z-0.1000
G1 x17.4086 y21.1394 z-0.1000
G1 x17.4086 y21.0094 z-0.1000
G1 x17.4086 y20.8794 z-0.1000
G1 x17.4086 y20.7494 z-0.1000
G1 x17.4086 y20.6194 z-0.1000
G1 x17.4086 y20.4894 z-0.1000
G1 x17.4086 y20.3594 z-0.1000
G1 x17.4086 y20.2294 z-0.1000
G1 x17.4086 y20.0994 z-0.1000
G1 x17.4186 y19.9694 z-0.1000
G1 x17.4486 y19.8394 z-0.1000
G1 x17.5086 y19.7294 z-0.1000
G1 x17.5886 y19.6294 z-0.1000
G1 x17.6886 y19.5494 z-0.1000
G1 x17.7986 y19.4894 z-0.1000
G1 x17.9286 y19.4594 z-0.1000
G1 x18.0586 y19.4494 z-0.1000
G1 x18.1886 y19.4694 z-0.1000
G1 x18.3086 y19.5194 z-0.1000
G1 x18.4186 y19.5894 z-0.1000
G1 x18.5086 y19.6794 z-0.1000
G1 x18.5786 y19.7894 z-0.1000
G1 x18.6286 y19.9094 z-0.1000
G1 x18.6486 y20.0394 z-0.1000
G1 x18.6486 y20.1694 z-0.1000
G1 x18.6486 y20.2994 z-0.1000
G1 x18.6486 y20.4294 z-0.1000
G1 x18.6486 y20.5594 z-0.1000
G1 x18.6486 y20.6894 z-0.1000
G1 x18.6486 y20.8194 z-0.1000
G1 x18.6486 y20.9494 z-0.1000
G1 x18.6486 y21.0794 z-0.1000
G1 x18.6486 y21.2094 z-0.1000
G1 x18.6486 y21.3394 z-0.1000
G1 x18.6486 y21.4694 z-0.1000
G1 x18.6486 y21.5994 z-0.1000
G1 x18.6486 y21.7294 z-0.1000
G1 x18.6486 y21.8594 z-0.1000
G1 x18.6486 y21.9894 z-0.1000
G1 x18.6486 y22.1194 z-0.1000
G1 x18.6486 y22.2494 z-0.1000
G1 x18.6486 y22.3794 z-0.1000
G1 x18.6486 y22.5094 z-0.1000
G1 x18.6486 y22.6394 z-0.1000
G1 x18.6486 y22.7694 z-0.1000
G1 x18.6486 y22.8994 z-0.1000
G1 x18.6486 y23.0294 z-0.1000
G1 x18.6486 y23.1594 z-0.1000
G1 x18.6486 y23.2894 z-0.1000
G1 x18.6486 y23.4194 z-0.1000
G1 x18.6486 y23.5494 z-0.1000
G1 x18.6486 y23.6794 z-0.1000
G1 x18.6486 y23.8094 z-0.1000
G1 x18.6486 y23.9394 z-0.1000
G1 x18.6486 y24.0694 z-0.1000
G1 x18.6486 y24.1994 z-0.1000
G1 x18.6486 y24.3294 z-0.1000
G1 x18.6486 y24.4594 z-0.1000
G1 x18.6486 y24.5894 z-0.1000
G1 x18.6486 y24.7194 z-0.1000
G1 x18.6486 y24.8494 z-0.1000
G1 x18.6486 y24.9794 z-0.1000
G1 x18.6486 y25.1094 z-0.1000
G1 x18.6486 y25.2394 z-0.1000
G1 x18.6486 y25.3694 z-0.1000
G1 x18.6486 y25.4994 z-0.1000
G1 x18.6486 y25.6294 z-0.1000
G1 x18.6486 y25.7594 z-0.1000
G1 x18.6486 y25.8894 z-0.1000
G1 x18.6486 y26.0194 z-0.1000
G1 x18.6486 y26.1494 z-0.1000
G1 x18.6486 y26.2794 z-0.1000
G1 x18.6486 y26.4094 z-0.1000
G1 x18.6486 y26.5394 z-0.1000
G1 x18.6486 y26.6694 z-0.1000
G1 x18.6486 y26.7994 z-0.1000
G1 x18.6486 y26.9294 z-0.1000
G1 x18.6486 y27.0594 z-0.1000
G1 x18.6486 y27.1894 z-0.1000
G1 x18.6486 y27.3194 z-0.1000
G1 x18.6486 y27.4494 z-0.1000
G1 x18.6486 y27.5794 z-0.1000
G1 x18.6786 y27.7094 z-0.1000
G1 x18.7686 y27.8094 z-0.1000
G1 x18.8386 y27.9194 z-0.1000
G1 x18.8886 y28.0394 z-0.1000
G1 x18.8986 y28.1694 z-0.1000
G1 x18.8986 y28.2994 z-0.1000
G1 x18.8586 y28.4294 z-0.1000
G1 x18.7986 y28.5394 z-0.1000
G1 x18.7186 y28.6394 z-0.1000
G1 x18.6186 y28.7194 z-0.1000
G1 x18.5086 y28.7794 z-0.1000
G1 x18.3786 y28.8194 z-0.1000
G1 x18.2486 y28.8194 z-0.1000
G1 x18.1186 y28.7994 z-0.1000
G1 x17.9986 y28.7494 z-0.1000
G1 x17.8886 y28.6794 z-0.1000
G1 x17.7986 y28.5894 z-0.1000
G1 x17.7086 y28.4994 z-0.1000
G1 x17.6186 y28.4094 z-0.1000
G1 x17.5286 y28.3094 z-0.1000
G1 x17.4686 y28.1994 z-0.1000
G1 x17.4186 y28.0794 z-0.1000
G0 z1.0000


G0 x71.7735 y7.2405
G0 z0.0000
F120.0000
G1 z-0.1000
F300.0000
G1 x71.7735 y7.1105 z-0.1000
G1 x71.7835 y6.9805 z-0.1000
G1 x71.8035 y6.8505 z-0.1000
G1 x71.8435 y6.7305 z-0.1000
G1 x71.8935 y6.6105 z-0.1000
G1 x71.9535 y6.5005 z-0.1000
G1 x72.0335 y6.4005 z-0.1000
G1 x72.1235 y6.3005 z-0.1000
G1 x72.2235 y6.2205 z-0.1000
G1 x72.3335 y6.1505 z-0.1000
G1 x72.4435 y6.0905 z-0.1000
G1 x72.5635 y6.0405 z-0.1000
G1 x72.6935 y6.0105 z-0.1000
G1 x72.8235 y6.0005 z-0.1000
G1 x72.9535 y6.0005 z-0.1000
G1 x73.0835 y6.0005 z-0.1000
G1 x73.2135 y6.0005 z-0.1000
G1 x73.3435 y6.0005 z-0.1000
G1 x73.4735 y6.0005 z-0.1000
G1 x73.6035 y6.0005 z-0.1000
G1 x73.7335 y6.0005 z-0.1000
G1 x73.8635 y6.0005 z-0.1000
G1 x73.9935 y6.0005 z-0.1000
G1 x74.1235 y6.0005 z-0.1000
G1 x74.2535 y6.0005 z-0.1000
G1 x74.3835 y6.0005 z-0.1000
G1 x74.5135 y6.0005 z-0.1000
G1 x74.6435 y6.0005 z-0.1000
G1 x74.7735 y6.0005 z-0.1000
G1 x74.9035 y6.0005 z-0.1000
G1 x75.0335 y6.0005 z-0.1000
G1 x75.1635 y6.0005 z-0.1000
G1 x75.2935 y6.0005 z-0.1000
G1 x75.4235 y6.0005 z-0.1000
G1 x75.5535 y6.0005 z-0.1000
G1 x75.6835 y6.0005 z-0.1000
G1 x75.8135 y6.0005 z-0.1000
G1 x75.9435 y6.0005 z-0.1000
G1 x76.0735 y6.0005 z-0.1000
G1 x76.2035 y6.0005 z-0.1000
G1 x76.3335 y6.0005 z-0.1000
G1 x76.4635 y6.0005 z-0.1000
G1 x76.5935 y6.0005 z-0.1000
G1 x76.7235 y6.0005 z-0.1000
G1 x76.8535 y6.0005 z-0.1000
G1 x76.9835 y6.0005 z-0.1000
G1 x77.1135 y6.0005 z-0.1000
G1 x77.2435 y6.0005 z-0.1000
G1 x77.3735 y6.0005 z-0.1000
G1 x77.5035 y6.0005 z-0.1000
G1 x77.6335 y6.0005 z-0.1000
G1 x77.7635 y6.0005 z-0.1000
G1 x77.8935 y6.0005 z-0.1000
G1 x78.0235 y6.0005 z-0.1000
G1 x78.1535 y6.0005 z-0.1000
G1 x78.2835 y6.0005 z-0.1000
G1 x78.4135 y6.0005 z-0.1000
G1 x78.5435 y6.0005 z-0.1000
G1 x78.6735 y6.0005 z-0.1000
G1 x78.8035 y6.0005 z-0.1000
G1 x78.9335 y6.0005 z-0.1000
G1 x79.0635 y6.0005 z-0.1000
G1 x79.1935 y6.0005 z-0.1000
G1 x79.3235 y6.0005 z-0.1000
G1 x79.4535 y6.0005 z-0.1000
G1 x79.5835 y6.0005 z-0.1000
G1 x79.7135 y6.0005 z-0.1000
G1 x79.8435 y6.0005 z-0.1000
G1 x79.9735 y6.0005 z-0.1000
G1 x80.1035 y6.0005 z-0.1000
G1 x80.2335 y6.0005 z-0.1000
G1 x80.3635 y6.0005 z-0.1000
G1 x80.4935 y6.0005 z-0.1000
G1 x80.6235 y6.0005 z-0.1000
G1 x80.7535 y6.0005 z-0.1000
G1 x80.8835 y6.0005 z-0.1000
G1 x81.0135 y6.0005 z-0.1000
G1 x81.1435 y6.0005 z-0.1000
G1 x81.2735 y6.0005 z-0.1000
G1 x81.4035 y6.0005 z-0.1000
G1 x81.5335 y6.0005 z-0.1000
G1 x81.6635 y6.0005 z-0.1000
G1 x81.7935 y6.0005 z-0.1000
G1 x81.9235 y6.0005 z-0.1000
G1 x82.0535 y6.0005 z-0.1000
G1 x82.1835 y6.0005 z-0.1000
G1 x82.3135 y6.0005 z-0.1000
G1 x82.4435 y6.0005 z-0.1000
G1 x82.5735 y6.0005 z-0.1000
G1 x82.7035 y6.0005 z-0.1000
G1 x82.8335 y6.0005 z-0.1000
G1 x82.9635 y6.0005 z-0.1000
G1 x83.0935 y6.0005 z-0.1000
G1 x83.2235 y6.0005 z-0.1000
G1 x83.3535 y6.0005 z-0.1000
G1 x83.4835 y6.0005 z-0.1000
G1 x83.6135 y6.0005 z-0.1000
G1 x83.7435 y6.0005 z-0.1000
G1 x83.8735 y6.0005 z-0.1000
G1 x84.0035 y6.0005 z-0.1000
G1 x84.1335 y6.0005 z-0.1000
G1 x84.2635 y6.0005 z-0.1000
G1 x84.3935 y6.0005 z-0.1000
G1 x84.5235 y6.0005 z-0.1000
G1 x84.6535 y6.0005 z-0.1000
G1 x84.7835 y6.0005 z-0.1000
G1 x84.9135 y6.0005 z-0.1000
G1 x85.0435 y6.0005 z-0.1000
G1 x85.1735 y6.0005 z-0.1000
G1 x85.3035 y6.0005 z-0.1000
G1 x85.4335 y6.0005 z-0.1000
G1 x85.5635 y6.0005 z-0.1000
G1 x85.6935 y6.0005 z-0.1000
G1 x85.8235 y6.0005 z-0.1000
G1 x85.9535 y6.0005 z-0.1000
G1 x86.0835 y6.0205 z-0.1000
G1 x86.2135 y6.0505 z-0.1000
G1 x86.3335 y6.1105 z-0.1000
G1 x86.4435 y6.1705 z-0.1000
G1 x86.5535 y6.2405 z-0.1000
G1 x86.6535 y6.3305 z-0.1000
G1 x86.7435 y6.4205 z-0.1000
G1 x86.8335 y6.5105 z-0.1000
G1 x86.9235 y6.6005 z-0.1000
G1 x87.0135 y6.6905 z-0.1000
G1 x87.1035 y6.7805 z-0.1000
G1 x87.1935 y6.8705 z-0.1000
G1 x87.2835 y6.9605 z-0.1000
G1 x87.3735 y7.0505 z-0.1000
G1 x87.4635 y7.1405 z-0.1000
G1 x87.5535 y7.2305 z-0.1000
G1 x87.6435 y7.3205 z-0.1000
G1 x87.7335 y7.4105 z-0.1000
G1 x87.8235 y7.5005 z-0.1000
G1 x87.9135 y7.5905 z-0.1000
G1 x88.0035 y7.6805 z-0.1000
G1 x88.0935 y7.7705 z-0.1000
G1 x88.1835 y7.8605 z-0.1000
G1 x88.2735 y7.9505 z-0.1000
G1 x88.3635 y8.0405 z-0.1000
G1 x88.4535 y8.1305 z-0.1000
G1 x88.5435 y8.2205 z-0.1000
G1 x88.6335 y8.3105 z-0.1000
G1 x88.7235 y8.4005 z-0.1000
G1 x88.8135 y8.4905 z-0.1000
G1 x88.9035 y8.5805 z-0.1000
G1 x88.9935 y8.6705 z-0.1000
G1 x89.0835 y8.7605 z-0.1000
G1 x89.1735 y8.8505 z-0.1000
G1 x89.2635 y8.9405 z-0.1000
G1 x89.3535 y9.0305 z-0.1000
G1 x89.4435 y9.1205 z-0.1000
G1 x89.5335 y9.2105 z-0.1000
G1 x89.6235 y9.3005 z-0.1000
G1 x89.7135 y9.3905 z-0.1000
G1 x89.8035 y9.4805 z-0.1000
G1 x89.8935 y9.5705 z-0.1000
G1 x89.9835 y9.6605 z-0.1000
G1 x90.0735 y9.7505 z-0.1000
G1 x90.1635 y9.8405 z-0.1000
G1 x90.2535 y9.9305 z-0.1000
G1 x90.3435 y10.0205 z-0.1000
G1 x90.4335 y10.1105 z-0.1000
G1 x90.5235 y10.2005 z-0.1000
G1 x90.6135 y10.2905 z-0.1000
G1 x90.7035 y10.3805 z-0.1000
G1 x90.7935 y10.4805 z-0.1000
G1 x90.8935 y10.5605 z-0.1000
G1 x91.0235 y10.5605 z-0.1000
G1 x91.1535 y10.5605 z-0.1000
G1 x91.2835 y10.5605 z-0.1000
G1 x91.4135 y10.5605 z-0.1000
G1 x91.5435 y10.5605 z-0.1000
G1 x91.6735 y10.5605 z-0.1000
G1 x91.8035 y10.5605 z-0.1000
G1 x91.9335 y10.5605 z-0.1000
G1 x92.0635 y10.5605 z-0.1000
G1 x92.1635 y10.4805 z-0.1000
G1 x92.2735 y10.4105 z-0.1000
G1 x92.3935 y10.3505 z-0.1000
G1 x92.5235 y10.3105 z-0.1000
G1 x92.6535 y10.3005 z-0.1000
G1 x92.7835 y10.3005 z-0.1000
G1 x92.9135 y10.3205 z-0.1000
G1 x93.0335 y10.3605 z-0.1000
G1 x93.1535 y10.4205 z-0.1000
G1 x93.2635 y10.4905 z-0.1000
G1 x93.3535 y10.5805 z-0.1000
G1 x93.4335 y10.6805 z-0.1000
G1 x93.5035 y10.7905 z-0.1000
G1 x93.5535 y10.9105 z-0.1000
G1 x93.5835 y11.0405 z-0.1000
G1 x93.5835 y11.1705 z-0.1000
G1 x93.5835 y11.3005 z-0.1000
G1 x93.5535 y11.4305 z-0.1000
G1 x93.5035 y11.5505 z-0.1000
G1 x93.4435 y11.6605 z-0.1000
G1 x93.3635 y11.7705 z-0.1000
G1 x93.2735 y11.8605 z-0.1000
G1 x93.1635 y11.9405 z-0.1000
G1 x93.0435 y12.0005 z-0.1000
G1 x92.9235 y12.0405 z-0.1000
G1 x92.7935 y12.0605 z-0.1000
G1 x92.6635 y12.0605 z-0.1000
G1 x92.5335 y12.0505 z-0.1000
G1 x92.4135 y12.0105 z-0.1000
G1 x92.2935 y11.9605 z-0.1000
G1 x92.1835 y11.8905 z-0.1000
G1 x92.0835 y11.8005 z-0.1000
G1 x91.9535 y11.8005 z-0.1000
G1 x91.8235 y11.8005 z-0.1000
G1 x91.6935 y11.8005 z-0.1000
G1 x91.5635 y11.8005 z-0.1000
G1 x91.4335 y11.8005 z-0.1000
G1 x91.3035 y11.8005 z-0.1000
G1 x91.1735 y11.8005 z-0.1000
G1 x91.0435 y11.8005 z-0.1000
G1 x90.9135 y11.8005 z-0.1000
G1 x90.8035 y11.8605 z-0.1000
G1 x90.7135 y11.9605 z-0.1000
G1 x90.6235 y12.0505 z-0.1000
G1 x90.5135 y12.1305 z-0.1000
G1 x90.4035 y12.1905 z-0.1000
G1 x90.2835 y12.2405 z-0.1000
G1 x90.1535 y12.2805 z-0.1000
G1 x90.0235 y12.3005 z-0.1000
G1 x89.8935 y12.3005 z-0.1000
G1 x89.7635 y12.2905 z-0.1000
G1 x89.6435 y12.3305 z-0.1000
G1 x89.5535 y12.4205 z-0.1000
G1 x89.4635 y12.5105 z-0.1000
G1 x89.3735 y12.6005 z-0.1000
G1 x89.2835 y12.6905 z-0.1000
G1 x89.1935 y12.7805 z-0.1000
G1 x89.1035 y12.8705 z-0.1000
G1 x89.0135 y12.9605 z-0.1000
G1 x88.9235 y13.0505 z-0.1000
G1 x88.8335 y13.1405 z-0.1000
G1 x88.7535 y13.2405 z-0.1000
G1 x88.7535 y13.3705 z-0.1000
G1 x88.7535 y13.5005 z-0.1000
G1 x88.7535 y13.6305 z-0.1000
G1 x88.7535 y13.7605 z-0.1000
G1 x88.7535 y13.8905 z-0.1000
G1 x88.7535 y14.0205 z-0.1000
G1 x88.7535 y14.1505 z-0.1000
G1 x88.7535 y14.2805 z-0.1000
G1 x88.7535 y14.4105 z-0.1000
G1 x88.7535 y14.5405 z-0.1000
G1 x88.7535 y14.6705 z-0.1000
G1 x88.7535 y14.8005 z-0.1000
G1 x88.7535 y14.9305 z-0.1000
G1 x88.7535 y15.0605 z-0.1000
G1 x88.7535 y15.1905 z-0.1000
G1 x88.7535 y15.3205 z-0.1000
G1 x88.7535 y15.4505 z-0.1000
G1 x88.7535 y15.5805 z-0.1000
G1 x88.7535 y15.7105 z-0.1000
G1 x88.7535 y15.8405 z-0.1000
G1 x88.7535 y15.9705 z-0.1000
G1 x88.7535 y16.1005 z-0.1000
G1 x88.7535 y16.2305 z-0.1000
G1 x88.7535 y16.3605 z-0.1000
G1 x88.7535 y16.4905 z-0.1000
G1 x88.7535 y16.6205 z-0.1000
G1 x88.7535 y16.7505 z-0.1000
G1 x88.7535 y16.8805 z-0.1000
G1 x88.7535 y17.0105 z-0.1000
G1 x88.7535 y17.1405 z-0.1000
G1 x88.7535 y17.2705 z-0.1000
G1 x88.7535 y17.4005 z-0.1000
G1 x88.7535 y17.5305 z-0.1000
G1 x88.7535 y17.6605 z-0.1000
G1 x88.7535 y17.7905 z-0.1000
G1 x88.7535 y17.9205 z-0.1000
G1 x88.7535 y18.0505 z-0.1000
G1 x88.7535 y18.1805 z-0.1000
G1 x88.7535 y18.3105 z-0.1000
G1 x88.7535 y18.4405 z-0.1000
G1 x88.7535 y18.5705 z-0.1000
G1 x88.7535 y18.7005 z-0.1000
G1 x88.7535 y18.8305 z-0.1000
G1 x88.7535 y18.9605 z-0.1000
G1 x88.7535 y19.0905 z-0.1000
G1 x88.7535 y19.2205 z-0.1000
G1 x88.7535 y19.3505 z-0.1000
G1 x88.7535 y19.4805 z-0.1000
G1 x88.7535 y19.6105 z-0.1000
G1 x88.7535 y19.7405 z-0.1000
G1 x88.7535 y19.8705 z-0.1000
G1 x88.7535 y20.0005 z-0.1000
G1 x88.7535 y20.1305 z-0.1000
G1 x88.7535 y20.2605 z-0.1000
G1 x88.7535 y20.3905 z-0.1000
G1 x88.7535 y20.5205 z-0.1000
G1 x88.7535 y20.6505 z-0.1000
G1 x88.7535 y20.7805 z-0.1000
G1 x88.7535 y20.9105 z-0.1000
G1 x88.7535 y21.0405 z-0.1000
G1 x88.7535 y21.1705 z-0.1000
G1 x88.7535 y21.3005 z-0.1000
G1 x88.7535 y21.4305 z-0.1000
G1 x88.7535 y21.5605 z-0.1000
G1 x88.7535 y21.6905 z-0.1000
G1 x88.7535 y21.8205 z-0.1000
G1 x88.7535 y21.9505 z-0.1000
G1 x88.7535 y22.0805 z-0.1000
G1 x88.7535 y22.2105 z-0.1000
G1 x88.7535 y22.3405 z-0.1000
G1 x88.7535 y22.4705 z-0.1000
G1 x88.7535 y22.6005 z-0.1000
G1 x88.7535 y22.7305 z-0.1000
G1 x88.7535 y22.8605 z-0.1000
G1 x88.7635 y22.9905 z-0.1000
G1 x88.8535 y23.0805 z-0.1000
G1 x88.9435 y23.1705 z-0.1000
G1 x89.0335 y23.2605 z-0.1000
G1 x89.1235 y23.3505 z-0.1000
G1 x89.2135 y23.4405 z-0.1000
G1 x89.3035 y23.5305 z-0.1000
G1 x89.3935 y23.6205 z-0.1000
G1 x89.4835 y23.7105 z-0.1000
G1 x89.5735 y23.8005 z-0.1000
G1 x89.6635 y23.8905 z-0.1000
G1 x89.7535 y23.9805 z-0.1000
G1 x89.8435 y24.0705 z-0.1000
G1 x89.9335 y24.1605 z-0.1000
G1 x90.0235 y24.2505 z-0.1000
G1 x90.1135 y24.3405 z-0.1000
G1 x90.2235 y24.4005 z-0.1000
G1 x90.3535 y24.4005 z-0.1000
G1 x90.4835 y24.4005 z-0.1000
G1 x90.6135 y24.4005 z-0.1000
G1 x90.7435 y24.4005 z-0.1000
G1 x90.8735 y24.4005 z-0.1000
G1 x91.0035 y24.4005 z-0.1000
G1 x91.1335 y24.4005 z-0.1000
G1 x91.2635 y24.4305 z-0.1000
G1 x91.3035 y24.5505 z-0.1000
G1 x91.3035 y24.6805 z-0.1000
G1 x91.3035 y24.8105 z-0.1000
G1 x91.3835 y24.9105 z-0.1000
G1 x91.5135 y24.9105 z-0.1000
G1 x91.6435 y24.9105 z-0.1000
G1 x91.7735 y24.9105 z-0.1000
G1 x91.9035 y24.9105 z-0.1000
G1 x92.0335 y24.9105 z-0.1000
G1 x92.1635 y24.9105 z-0.1000
G1 x92.2935 y24.9105 z-0.1000
G1 x92.4235 y24.9105 z-0.1000
G1 x92.5535 y24.9105 z-0.1000
G1 x92.6835 y24.9105 z-0.1000
G1 x92.8135 y24.9105 z-0.1000
G1 x92.9435 y24.9105 z-0.1000
G1 x93.0735 y24.9105 z-0.1000
G1 x93.2035 y24.9105 z-0.1000
G1 x93.3335 y24.9105 z-0.1000
G1 x93.4635 y24.9105 z-0.1000
G1 x93.5935 y24.9105 z-0.1000
G1 x93.7235 y24.9105 z-0.1000
G1 x93.8535 y24.9105 z-0.1000
G1 x93.9835 y24.9105 z-0.1000
G1 x94.1135 y24.9005 z-0.1000
G1 x94.1135 y24.7705 z-0.1000
G1 x94.1135 y24.6405 z-0.1000
G1 x94.1135 y24.5105 z-0.1000
G1 x94.1935 y24.4105 z-0.1000
G1 x94.3235 y24.4005 z-0.1000
G1 x94.4535 y24.4005 z-0.1000
G1 x94.5835 y24.4005 z-0.1000
G1 x94.7135 y24.4005 z-0.1000
G1 x94.8435 y24.4005 z-0.1000
G1 x94.9735 y24.4005 z-0.1000
G1 x95.1035 y24.4005 z-0.1000
G1 x95.2335 y24.4005 z-0.1000
G1 x95.3635 y24.4005 z-0.1000
G1 x95.4935 y24.4005 z-0.1000
G1 x95.6235 y24.4005 z-0.1000
G1 x95.7535 y24.4005 z-0.1000
G1 x95.8835 y24.4005 z-0.1000
G1 x96.0135 y24.4005 z-0.1000
G1 x96.1435 y24.4005 z-0.1000
G1 x96.2735 y24.4005 z-0.1000
G1 x96.3735 y24.4805 z-0.1000
G1 x96.3835 y24.6105 z-0.1000
G1 x96.5035 y24.6605 z-0.1000
G1 x96.6335 y24.6605 z-0.1000
G1 x96.6535 y24.5305 z-0.1000
G1 x96.7135 y24.4205 z-0.1000
G1 x96.8435 y24.4005 z-0.1000
G1 x96.9735 y24.4005 z-0.1000
G1 x97.1035 y24.4005 z-0.1000
G1 x97.2335 y24.4005 z-0.1000
G1 x97.3635 y24.4005 z-0.1000
G1 x97.4935 y24.4005 z-0.1000
G1 x97.6235 y24.4005 z-0.1000
G1 x97.7535 y24.4005 z-0.1000
G1 x97.8835 y24.4005 z-0.1000
G1 x98.0135 y24.4005 z-0.1000
G1 x98.1435 y24.4005 z-0.1000
G1 x98.2735 y24.4005 z-0.1000
G1 x98.4035 y24.4005 z-0.1000
G1 x98.5335 y24.4005 z-0.1000
G1 x98.6635 y24.4005 z-0.1000
G1 x98.7935 y24.4005 z-0.1000
G1 x98.9035 y24.4605 z-0.1000
G1 x98.9235 y24.5905 z-0.1000
G1 x98.9235 y24.7205 z-0.1000
G1 x98.9235 y24.8505 z-0.1000
G1 x98.9235 y24.9805 z-0.1000
G1 x98.9235 y25.1105 z-0.1000
G1 x98.9235 y25.2405 z-0.1000
G1 x98.9235 y25.3705 z-0.1000
G1 x98.9235 y25.5005 z-0.1000
G1 x98.9235 y25.6305 z-0.1000
G1 x98.9235 y25.7605 z-0.1000
G1 x98.9235 y25.8905 z-0.1000
G1 x98.9235 y26.0205 z-0.1000
G1 x98.8735 y26.1405 z-0.1000
G1 x98.7435 y26.1605 z-0.1000
G1 x98.6135 y26.1605 z-0.1000
G1 x98.4835 y26.1605 z-0.1000
G1 x98.3535 y26.1605 z-0.1000
G1 x98.2235 y26.1605 z-0.1000
G1 x98.0935 y26.1605 z-0.1000
G1 x97.9635 y26.1605 z-0.1000
G1 x97.8335 y26.1605 z-0.1000
G1 x97.7035 y26.1605 z-0.1000
G1 x97.5735 y26.1605 z-0.1000
G1 x97.4435 y26.1605 z-0.1000
G1 x97.3135 y26.1605 z-0.1000
G1 x97.1835 y26.1605 z-0.1000
G1 x97.0535 y26.1605 z-0.1000
G1 x96.9235 y26.1605 z-0.1000
G1 x96.7935 y26.1605 z-0.1000
G1 x96.6735 y26.1105 z-0.1000
G1 x96.6535 y25.9805 z-0.1000
G1 x96.5535 y25.9005 z-0.1000
G1 x96.4235 y25.9005 z-0.1000
G1 x96.3835 y26.0205 z-0.1000
G1 x96.3335 y26.1405 z-0.1000
G1 x96.2035 y26.1605 z-0.1000
G1 x96.0735 y26.1605 z-0.1000
G1 x95.9435 y26.1605 z-0.1000
G1 x95.8135 y26.1605 z-0.1000
G1 x95.6835 y26.1605 z-0.1000
G1 x95.5535 y26.1605 z-0.1000
G1 x95.4235 y26.1605 z-0.1000
G1 x95.2935 y26.1605 z-0.1000
G1 x95.1635 y26.1605 z-0.1000
G1 x95.0335 y26.1605 z-0.1000
G1 x94.9035 y26.1605 z-0.1000
G1 x94.7735 y26.1605 z-0.1000
G1 x94.6435 y26.1605 z-0.1000
G1 x94.5135 y26.1605 z-0.1000
G1 x94.3835 y26.1605 z-0.1000
G1 x94.2535 y26.1605 z-0.1000
G1 x94.1335 y26.1105 z-0.1000
G1 x94.1135 y25.9805 z-0.1000
G1 x94.1135 y25.8505 z-0.1000
G1 x94.1135 y25.7205 z-0.1000
G1 x94.0035 y25.6505 z-0.1000
G1 x93.8735 y25.6505 z-0.1000
G1 x93.7435 y25.6505 z-0.1000
G1 x93.6135 y25.6505 z-0.1000
G1 x93.4835 y25.6505 z-0.1000
G1 x93.3535 y25.6505 z-0.1000
G1 x93.2235 y25.6505 z-0.1000
G1 x93.0935 y25.6505 z-0.1000
G1 x92.9635 y25.6505 z-0.1000
G1 x92.8335 y25.6505 z-0.1000
G1 x92.7035 y25.6505 z-0.1000
G1 x92.5735 y25.6505 z-0.1000
G1 x92.4435 y25.6505 z-0.1000
G1 x92.3135 y25.6505 z-0.1000
G1 x92.1835 y25.6505 z-0.1000
G1 x92.0535 y25.6505 z-0.1000
G1 x91.9235 y25.6505 z-0.1000
G1 x91.7935 y25.6505 z-0.1000
G1 x91.6635 y25.6505 z-0.1000
G1 x91.5335 y25.6505 z-0.1000
G1 x91.4035 y25.6505 z-0.1000
G1 x91.3035 y25.7305 z-0.1000
G1 x91.3035 y25.8605 z-0.1000
G1 x91.3035 y25.9905 z-0.1000
G1 x91.2735 y26.1205 z-0.1000
G1 x91.1535 y26.1605 z-0.1000
G1 x91.0235 y26.1605 z-0.1000
G1 x90.8935 y26.1605 z-0.1000
G1 x90.7835 y26.2205 z-0.1000
G1 x90.7835 y26.3505 z-0.1000
G1 x90.7835 y26.4805 z-0.1000
G1 x90.7835 y26.6105 z-0.1000
G1 x90.7835 y26.7405 z-0.1000
G1 x90.7835 y26.8705 z-0.1000
G1 x90.7835 y27.0005 z-0.1000
G1 x90.7935 y27.1305 z-0.1000
G1 x90.9235 y27.1305 z-0.1000
G1 x91.0535 y27.1305 z-0.1000
G1 x91.1835 y27.1305 z-0.1000
G1 x91.2935 y27.2005 z-0.1000
G1 x91.3035 y27.3305 z-0.1000
G1 x91.3035 y27.4605 z-0.1000
G1 x91.3035 y27.5905 z-0.1000
G1 x91.3035 y27.7205 z-0.1000
G1 x91.3035 y27.8505 z-0.1000
G1 x91.3035 y27.9805 z-0.1000
G1 x91.3035 y28.1105 z-0.1000
G1 x91.3035 y28.2405 z-0.1000
G1 x91.3035 y28.3705 z-0.1000
G1 x91.3035 y28.5005 z-0.1000
G1 x91.3035 y28.6305 z-0.1000
G1 x91.3035 y28.7605 z-0.1000
G1 x91.2435 y28.8705 z-0.1000
G1 x91.1135 y28.8905 z-0.1000
G1 x90.9835 y28.8905 z-0.1000
G1 x90.8535 y28.8905 z-0.1000
G1 x90.7235 y28.8905 z-0.1000
G1 x90.5935 y28.8905 z-0.1000
G1 x90.4635 y28.8905 z-0.1000
G1 x90.3335 y28.8905 z-0.1000
G1 x90.2035 y28.8905 z-0.1000
G1 x90.0735 y28.8905 z-0.1000
G1 x89.9435 y28.8905 z-0.1000
G1 x89.8135 y28.8905 z-0.1000
G1 x89.6835 y28.8905 z-0.1000
G1 x89.5535 y28.8905 z-0.1000
G1 x89.4235 y28.8905 z-0.1000
G1 x89.2935 y28.8905 z-0.1000
G1 x89.1635 y28.8905 z-0.1000
G1 x89.0535 y28.8305 z-0.1000
G1 x89.0335 y28.7005 z-0.1000
G1 x89.0335 y28.5705 z-0.1000
G1 x89.0335 y28.4405 z-0.1000
G1 x89.0335 y28.3105 z-0.1000
G1 x89.0335 y28.1805 z-0.1000
G1 x89.0335 y28.0505 z-0.1000
G1 x89.0335 y27.9205 z-0.1000
G1 x89.0335 y27.7905 z-0.1000
G1 x89.0335 y27.6605 z-0.1000
G1 x89.0335 y27.5305 z-0.1000
G1 x89.0335 y27.4005 z-0.1000
G1 x89.0335 y27.2705 z-0.1000
G1 x89.0835 y27.1505 z-0.1000
G1 x89.2135 y27.1305 z-0.1000
G1 x89.3435 y27.1305 z-0.1000
G1 x89.4735 y27.1305 z-0.1000
G1 x89.5435 y27.0205 z-0.1000
G1 x89.5435 y26.8905 z-0.1000
G1 x89.5435 y26.7605 z-0.1000
G1 x89.5435 y26.6305 z-0.1000
G1 x89.5435 y26.5005 z-0.1000
G1 x89.5435 y26.3705 z-0.1000
G1 x89.5435 y26.2405 z-0.1000
G1 x89.4435 y26.1605 z-0.1000
G1 x89.3135 y26.1605 z-0.1000
G1 x89.1835 y26.1605 z-0.1000
G1 x89.0635 y26.1205 z-0.1000
G1 x89.0335 y25.9905 z-0.1000
G1 x88.9435 y25.9005 z-0.1000
G1 x88.8135 y25.9005 z-0.1000
G1 x88.6835 y25.9005 z-0.1000
G1 x88.5535 y25.9005 z-0.1000
G1 x88.4335 y25.9505 z-0.1000
G1 x88.3135 y26.0005 z-0.1000
G1 x88.1835 y26.0205 z-0.1000
G1 x88.0535 y26.0205 z-0.1000
G1 x87.9235 y25.9905 z-0.1000
G1 x87.8135 y25.9305 z-0.1000
G1 x87.7035 y25.8505 z-0.1000
G1 x87.6135 y25.7505 z-0.1000
G1 x87.5535 y25.6305 z-0.1000
G1 x87.5135 y25.5005 z-0.1000
G1 x87.5135 y25.3705 z-0.1000
G1 x87.5335 y25.2405 z-0.1000
G1 x87.5835 y25.1205 z-0.1000
G1 x87.6535 y25.0105 z-0.1000
G1 x87.7435 y24.9205 z-0.1000
G1 x87.8335 y24.8305 z-0.1000
G1 x87.9335 y24.7505 z-0.1000
G1 x88.0435 y24.6905 z-0.1000
G1 x88.1735 y24.6605 z-0.1000
G1 x88.3035 y24.6605 z-0.1000
G1 x88.4335 y24.6605 z-0.1000
G1 x88.5635 y24.6605 z-0.1000
G1 x88.5435 y24.5305 z-0.1000
G1 x88.4535 y24.4405 z-0.1000
G1 x88.3635 y24.3505 z-0.1000
G1 x88.2735 y24.2605 z-0.1000
G1 x88.1835 y24.1705 z-0.1000
G1 x88.0935 y24.0805 z-0.1000
G1 x88.0035 y23.9905 z-0.1000
G1 x87.9135 y23.9005 z-0.1000
G1 x87.8235 y23.8105 z-0.1000
G1 x87.7335 y23.7205 z-0.1000
G1 x87.6435 y23.6205 z-0.1000
G1 x87.5735 y23.5105 z-0.1000
G1 x87.5235 y23.3905 z-0.1000
G1 x87.5135 y23.2605 z-0.1000
G1 x87.5135 y23.1305 z-0.1000
G1 x87.5135 y23.0005 z-0.1000
G1 x87.5135 y22.8705 z-0.1000
G1 x87.5135 y22.7405 z-0.1000
G1 x87.5135 y22.6105 z-0.1000
G1 x87.5135 y22.4805 z-0.1000
G1 x87.5135 y22.3505 z-0.1000
G1 x87.5135 y22.2205 z-0.1000
G1 x87.5135 y22.0905 z-0.1000
G1 x87.5135 y21.9605 z-0.1000
G1 x87.5135 y21.8305 z-0.1000
G1 x87.5135 y21.7005 z-0.1000
G1 x87.5135 y21.5705 z-0.1000
G1 x87.5135 y21.4405 z-0.1000
G1 x87.5135 y21.3105 z-0.1000
G1 x87.5135 y21.1805 z-0.1000
G1 x87.5135 y21.0505 z-0.1000
G1 x87.5135 y20.9205 z-0.1000
G1 x87.5135 y20.7905 z-0.1000
G1 x87.5135 y20.6605 z-0.1000
G1 x87.5135 y20.5305 z-0.1000
G1 x87.5135 y20.4005 z-0.1000
G1 x87.5135 y20.2705 z-0.1000
G1 x87.5135 y20.1405 z-0.1000
G1 x87.5135 y20.0105 z-0.1000
G1 x87.5135 y19.8805 z-0.1000
G1 x87.5135 y19.7505 z-0.1000
G1 x87.5135 y19.6205 z-0.1000
G1 x87.5135 y19.4905 z-0.1000
G1 x87.5135 y19.3605 z-0.1000
G1 x87.5135 y19.2305 z-0.1000
G1 x87.5135 y19.1005 z-0.1000
G1 x87.5135 y18.9705 z-0.1000
G1 x87.5135 y18.8405 z-0.1000
G1 x87.5135 y18.7105 z-0.1000
G1 x87.5135 y18.5805 z-0.1000
G1 x87.5135 y18.4505 z-0.1000
G1 x87.5135 y18.3205 z-0.1000
G1 x87.5135 y18.1905 z-0.1000
G1 x87.5135 y18.0605 z-0.1000
G1 x87.5135 y17.9305 z-0.1000
G1 x87.5135 y17.8005 z-0.1000
G1 x87.5135 y17.6705 z-0.1000
G1 x87.5135 y17.5405 z-0.1000
G1 x87.5135 y17.4105 z-0.1000
G1 x87.5135 y17.2805 z-0.1000
G1 x87.5135 y17.1505 z-0.1000
G1 x87.5135 y17.0205 z-0.1000
G1 x87.5135 y16.8905 z-0.1000
G1 x87.5135 y16.7605 z-0.1000
G1 x87.5135 y16.6305 z-0.1000
G1 x87.5135 y16.5005 z-0.1000
G1 x87.5135 y16.3705 z-0.1000
G1 x87.5135 y16.2405 z-0.1000
G1 x87.5135 y16.1105 z-0.1000
G1 x87.5135 y15.9805 z-0.1000
G1 x87.5135 y15.8505 z-0.1000
G1 x87.5135 y15.7205 z-0.1000
G1 x87.5135 y15.5905 z-0.1000
G1 x87.5135 y15.4605 z-0.1000
G1 x87.5135 y15.3305 z-0.1000
G1 x87.5135 y15.2005 z-0.1000
G1 x87.5135 y15.0705 z-0.1000
G1 x87.5135 y14.9405 z-0.1000
G1 x87.5135 y14.8105 z-0.1000
G1 x87.5135 y14.6805 z-0.1000
G1 x87.5135 y14.5505 z-0.1000
G1 x87.5135 y14.4205 z-0.1000
G1 x87.5135 y14.2905 z-0.1000
G1 x87.5135 y14.1605 z-0.1000
G1 x87.5135 y14.0305 z-0.1000
G1 x87.5135 y13.9005 z-0.1000
G1 x87.5135 y13.7705 z-0.1000
G1 x87.5135 y13.6405 z-0.1000
G1 x87.5135 y13.5105 z-0.1000
G1 x87.5135 y13.3805 z-0.1000
G1 x87.5135 y13.2505 z-0.1000
G1 x87.5135 y13.1205 z-0.1000
G1 x87.5135 y12.9905 z-0.1000
G1 x87.5135 y12.8605 z-0.1000
G1 x87.5535 y12.7405 z-0.1000
G1 x87.6135 y12.6205 z-0.1000
G1 x87.6935 y12.5205 z-0.1000
G1 x87.7835 y12.4305 z-0.1000
G1 x87.8735 y12.3405 z-0.1000
G1 x87.9635 y12.2505 z-0.1000
G1 x88.0535 y12.1605 z-0.1000
G1 x88.1435 y12.0705 z-0.1000
G1 x88.2335 y11.9805 z-0.1000
G1 x88.3235 y11.8905 z-0.1000
G1 x88.4135 y11.8005 z-0.1000
G1 x88.5035 y11.7105 z-0.1000
G1 x88.5935 y11.6205 z-0.1000
G1 x88.6835 y11.5305 z-0.1000
G1 x88.5935 y11.4405 z-0.1000
G1 x88.5035 y11.3505 z-0.1000
G1 x88.4135 y11.2605 z-0.1000
G1 x88.3235 y11.1705 z-0.1000
G1 x88.2335 y11.0805 z-0.1000
G1 x88.1435 y10.9905 z-0.1000
G1 x88.0535 y10.9005 z-0.1000
G1 x87.9635 y10.8105 z-0.1000
G1 x87.8735 y10.7205 z-0.1000
G1 x87.7835 y10.6305 z-0.1000
G1 x87.6935 y10.5405 z-0.1000
G1 x87.6035 y10.4505 z-0.1000
G1 x87.5135 y10.3605 z-0.1000
G1 x87.4235 y10.2705 z-0.1000
G1 x87.3335 y10.1805 z-0.1000
G1 x87.2435 y10.0905 z-0.1000
G1 x87.1535 y10.0005 z-0.1000
G1 x87.0635 y9.9105 z-0.1000
G1 x86.9735 y9.8205 z-0.1000
G1 x86.8835 y9.7305 z-0.1000
G1 x86.7935 y9.6405 z-0.1000
G1 x86.7035 y9.5505 z-0.1000
G1 x86.6135 y9.4605 z-0.1000
G1 x86.5235 y9.3705 z-0.1000
G1 x86.4335 y9.2805 z-0.1000
G1 x86.3435 y9.1905 z-0.1000
G1 x86.2535 y9.1005 z-0.1000
G1 x86.1635 y9.0105 z-0.1000
G1 x86.0735 y8.9205 z-0.1000
G1 x85.9835 y8.8305 z-0.1000
G1 x85.8935 y8.7405 z-0.1000
G1 x85.8035 y8.6505 z-0.1000
G1 x85.7135 y8.5605 z-0.1000
G1 x85.6235 y8.4705 z-0.1000
G1 x85.5335 y8.3805 z-0.1000
G1 x85.4435 y8.2905 z-0.1000
G1 x85.3235 y8.2405 z-0.1000
G1 x85.1935 y8.2405 z-0.1000
G1 x85.0635 y8.2405 z-0.1000
G1 x84.9335 y8.2405 z-0.1000
G1 x84.8035 y8.2405 z-0.1000
G1 x84.6735 y8.2405 z-0.1000
G1 x84.5435 y8.2405 z-0.1000
G1 x84.4135 y8.2405 z-0.1000
G1 x84.2835 y8.2405 z-0.1000
G1 x84.1535 y8.2405 z-0.1000
G1 x84.0235 y8.2405 z-0.1000
G1 x83.8935 y8.2405 z-0.1000
G1 x83.7635 y8.2405 z-0.1000
G1 x83.6335 y8.2405 z-0.1000
G1 x83.5035 y8.2405 z-0.1000
G1 x83.3735 y8.2405 z-0.1000
G1 x83.2435 y8.2405 z-0.1000
G1 x83.1135 y8.2405 z-0.1000
G1 x82.9835 y8.2405 z-0.1000
G1 x82.8535 y8.2405 z-0.1000
G1 x82.7235 y8.2405 z-0.1000
G1 x82.5935 y8.2405 z-0.1000
G1 x82.4635 y8.2405 z-0.1000
G1 x82.3335 y8.2405 z-0.1000
G1 x82.2035 y8.2405 z-0.1000
G1 x82.0735 y8.2405 z-0.1000
G1 x81.9435 y8.2405 z-0.1000
G1 x81.8135 y8.2405 z-0.1000
G1 x81.6835 y8.2405 z-0.1000
G1 x81.5535 y8.2405 z-0.1000
G1 x81.4235 y8.2405 z-0.1000
G1 x81.2935 y8.2405 z-0.1000
G1 x81.1635 y8.2405 z-0.1000
G1 x81.0335 y8.2405 z-0.1000
G1 x80.9035 y8.2405 z-0.1000
G1 x80.7735 y8.2405 z-0.1000
G1 x80.6435 y8.2405 z-0.1000
G1 x80.5135 y8.2405 z-0.1000
G1 x80.3835 y8.2405 z-0.1000
G1 x80.2535 y8.2405 z-0.1000
G1 x80.1235 y8.2405 z-0.1000
G1 x79.9935 y8.2405 z-0.1000
G1 x79.8635 y8.2405 z-0.1000
G1 x79.7335 y8.2405 z-0.1000
G1 x79.6035 y8.2405 z-0.1000
G1 x79.4735 y8.2405 z-0.1000
G1 x79.3435 y8.2405 z-0.1000
G1 x79.2135 y8.2405 z-0.1000
G1 x79.0835 y8.2405 z-0.1000
G1 x78.9535 y8.2405 z-0.1000
G1 x78.8235 y8.2405 z-0.1000
G1 x78.6935 y8.2405 z-0.1000
G1 x78.5635 y8.2405 z-0.1000
G1 x78.4335 y8.2405 z-0.1000
G1 x78.3035 y8.2405 z-0.1000
G1 x78.1735 y8.2405 z-0.1000
G1 x78.0435 y8.2405 z-0.1000
G1 x77.9135 y8.2405 z-0.1000
G1 x77.7835 y8.2405 z-0.1000
G1 x77.6535 y8.2405 z-0.1000
G1 x77.5235 y8.2405 z-0.1000
G1 x77.3935 y8.2405 z-0.1000
G1 x77.2635 y8.2405 z-0.1000
G1 x77.1335 y8.2405 z-0.1000
G1 x77.0035 y8.2405 z-0.1000
G1 x76.8735 y8.2405 z-0.1000
G1 x76.7435 y8.2405 z-0.1000
G1 x76.6135 y8.2405 z-0.1000
G1 x76.4835 y8.2405 z-0.1000
G1 x76.3535 y8.2405 z-0.1000
G1 x76.2235 y8.2405 z-0.1000
G1 x76.0935 y8.2405 z-0.1000
G1 x75.9635 y8.2405 z-0.1000
G1 x75.8335 y8.2405 z-0.1000
G1 x75.7035 y8.2405 z-0.1000
G1 x75.5735 y8.2405 z-0.1000
G1 x75.4435 y8.2405 z-0.1000
G1 x75.3135 y8.2405 z-0.1000
G1 x75.1835 y8.2405 z-0.1000
G1 x75.0535 y8.2405 z-0.1000
G1 x74.9235 y8.2405 z-0.1000
G1 x74.7935 y8.2405 z-0.1000
G1 x74.6635 y8.2405 z-0.1000
G1 x74.5335 y8.2405 z-0.1000
G1 x74.4035 y8.2405 z-0.1000
G1 x74.2735 y8.2405 z-0.1000
G1 x74.1435 y8.2405 z-0.1000
G1 x74.0135 y8.2405 z-0.1000
G1 x73.8835 y8.2405 z-0.1000
G1 x73.7535 y8.2405 z-0.1000
G1 x73.6235 y8.2405 z-0.1000
G1 x73.4935 y8.2405 z-0.1000
G1 x73.3635 y8.2405 z-0.1000
G1 x73.2335 y8.2405 z-0.1000
G1 x73.1035 y8.2405 z-0.1000
G1 x72.9735 y8.2405 z-0.1000
G1 x72.8435 y8.2305 z-0.1000
G1 x72.7135 y8.2205 z-0.1000
G1 x72.5835 y8.1905 z-0.1000
G1 x72.4635 y8.1505 z-0.1000
G1 x72.3435 y8.0905 z-0.1000
G1 x72.2335 y8.0205 z-0.1000
G1 x72.1335 y7.9405 z-0.1000
G1 x72.0435 y7.8405 z-0.1000
G1 x71.9635 y7.7405 z-0.1000
G1 x71.9035 y7.6305 z-0.1000
G1 x71.8435 y7.5205 z-0.1000
G1 x71.8035 y7.4005 z-0.1000
G1 x71.7835 y7.2705 z-0.1000
G0 z1.0000


G0 x68.7090 y21.4980
G0 z0.0000
F120.0000
G1 z-0.1000
F300.0000
G1 x68.7090 y21.3680 z-0.1000
G1 x68.7090 y21.2380 z-0.1000
G1 x68.7090 y21.1080 z-0.1000
G1 x68.7090 y20.9780 z-0.1000
G1 x68.7090 y20.8480 z-0.1000
G1 x68.7090 y20.7180 z-0.1000
G1 x68.7090 y20.5880 z-0.1000
G1 x68.7090 y20.4580 z-0.1000
G1 x68.7090 y20.3280 z-0.1000
G1 x68.7090 y20.1980 z-0.1000
G1 x68.7090 y20.0680 z-0.1000
G1 x68.7090 y19.9380 z-0.1000
G1 x68.7090 y19.8080 z-0.1000
G1 x68.7090 y19.6780 z-0.1000
G1 x68.7090 y19.5480 z-0.1000
G1 x68.7090 y19.4180 z-0.1000
G1 x68.7990 y19.3180 z-0.1000
G1 x68.9290 y19.3180 z-0.1000
G1 x69.0590 y19.3180 z-0.1000
G1 x69.1890 y19.3180 z-0.1000
G1 x69.3190 y19.3180 z-0.1000
G1 x69.4490 y19.3180 z-0.1000
G1 x69.5790 y19.3180 z-0.1000
G1 x69.7090 y19.3180 z-0.1000
G1 x69.8390 y19.3180 z-0.1000
G1 x69.9690 y19.3180 z-0.1000
G1 x70.0990 y19.3180 z-0.1000
G1 x70.2290 y19.3180 z-0.1000
G1 x70.3590 y19.3180 z-0.1000
G1 x70.4590 y19.3980 z-0.1000
G1 x70.4690 y19.5280 z-0.1000
G1 x70.4690 y19.6580 z-0.1000
G1 x70.4690 y19.7880 z-0.1000
G1 x70.5890 y19.8280 z-0.1000
G1 x70.7190 y19.8280 z-0.1000
G1 x70.8490 y19.8280 z-0.1000
G1 x70.9790 y19.8280 z-0.1000
G1 x71.1090 y19.8280 z-0.1000
G1 x71.2390 y19.8280 z-0.1000
G1 x71.3690 y19.8280 z-0.1000
G1 x71.4990 y19.8280 z-0.1000
G1 x71.6290 y19.8280 z-0.1000
G1 x71.7590 y19.8280 z-0.1000
G1 x71.8890 y19.8280 z-0.1000
G1 x72.0190 y19.8280 z-0.1000
G1 x72.1490 y19.8280 z-0.1000
G1 x72.2790 y19.8280 z-0.1000
G1 x72.4090 y19.8280 z-0.1000
G1 x72.5390 y19.8280 z-0.1000
G1 x72.6690 y19.8280 z-0.1000
G1 x72.7990 y19.8280 z-0.1000
G1 x72.9290 y19.8280 z-0.1000
G1 x73.0590 y19.8280 z-0.1000
G1 x73.1890 y19.8280 z-0.1000
G1 x73.3190 y19.8480 z-0.1000
G1 x73.4390 y19.9080 z-0.1000
G1 x73.5490 y19.9780 z-0.1000
G1 x73.6390 y20.0680 z-0.1000
G1 x73.7090 y20.1780 z-0.1000
G1 x73.7490 y20.2980 z-0.1000
G1 x73.7690 y20.4280 z-0.1000
G1 x73.7590 y20.5580 z-0.1000
G1 x73.7190 y20.6880 z-0.1000
G1 x73.6590 y20.7980 z-0.1000
G1 x73.5790 y20.8980 z-0.1000
G1 x73.4790 y20.9780 z-0.1000
G1 x73.3690 y21.0380 z-0.1000
G1 x73.2390 y21.0680 z-0.1000
G1 x73.1090 y21.0680 z-0.1000
G1 x72.9790 y21.0680 z-0.1000
G1 x72.8490 y21.0680 z-0.1000
G1 x72.7190 y21.0680 z-0.1000
G1 x72.5890 y21.0680 z-0.1000
G1 x72.4590 y21.0680 z-0.1000
G1 x72.3290 y21.0680 z-0.1000
G1 x72.1990 y21.0680 z-0.1000
G1 x72.0690 y21.0680 z-0.1000
G1 x71.9390 y21.0680 z-0.1000
G1 x71.8090 y21.0680 z-0.1000
G1 x71.6790 y21.0680 z-0.1000
G1 x71.5490 y21.0680 z-0.1000
G1 x71.4190 y21.0680 z-0.1000
G1 x71.2890 y21.0680 z-0.1000
G1 x71.1590 y21.0680 z-0.1000
G1 x71.0290 y21.0680 z-0.1000
G1 x70.8990 y21.0680 z-0.1000
G1 x70.7690 y21.0680 z-0.1000
G1 x70.6390 y21.0680 z-0.1000
G1 x70.5090 y21.0680 z-0.1000
G1 x70.4690 y21.1880 z-0.1000
G1 x70.4690 y21.3180 z-0.1000
G1 x70.4690 y21.4480 z-0.1000
G1 x70.4190 y21.5680 z-0.1000
G1 x70.2890 y21.5880 z-0.1000
G1 x70.1590 y21.5880 z-0.1000
G1 x70.0290 y21.5880 z-0.1000
G1 x69.8990 y21.5880 z-0.1000
G1 x69.7690 y21.5880 z-0.1000
G1 x69.6390 y21.5880 z-0.1000
G1 x69.5090 y21.5880 z-0.1000
G1 x69.3790 y21.5880 z-0.1000
G1 x69.2490 y21.5880 z-0.1000
G1 x69.1190 y21.5880 z-0.1000
G1 x68.9890 y21.5880 z-0.1000
G1 x68.8590 y21.5880 z-0.1000
G1 x68.7390 y21.5480 z-0.1000
G0 z1.0000


G0 x59.3923 y30.5547
G0 z0.0000
F120.0000
G1 z-0.1000
F300.0000
G1 x59.3923 y30.4247 z-0.1000
G1 x59.4323 y30.3047 z-0.1000
G1 x59.5123 y30.1947 z-0.1000
G1 x59.6123 y30.1147 z-0.1000
G1 x59.7323 y30.0747 z-0.1000
G1 x59.8623 y30.0647 z-0.1000
G1 x59.9923 y30.1047 z-0.1000
G1 x60.1023 y30.1747 z-0.1000
G1 x60.2323 y30.1947 z-0.1000
G1 x60.3623 y30.1947 z-0.1000
G1 x60.4923 y30.1947 z-0.1000
G1 x60.6223 y30.1947 z-0.1000
G1 x60.7523 y30.1947 z-0.1000
G1 x60.8823 y30.1947 z-0.1000
G1 x61.0123 y30.1947 z-0.1000
G1 x61.1423 y30.1947 z-0.1000
G1 x61.2723 y30.1947 z-0.1000
G1 x61.4023 y30.1947 z-0.1000
G1 x61.5223 y30.2547 z-0.1000
G1 x61.6023 y30.3547 z-0.1000
G1 x61.6323 y30.4847 z-0.1000
G1 x61.6023 y30.6147 z-0.1000
G1 x61.5223 y30.7147 z-0.1000
G1 x61.4123 y30.7747 z-0.1000
G1 x61.2823 y30.7847 z-0.1000
G1 x61.1523 y30.7847 z-0.1000
G1 x61.0223 y30.7847 z-0.1000
G1 x60.8923 y30.7847 z-0.1000
G1 x60.7623 y30.7847 z-0.1000
G1 x60.6323 y30.7847 z-0.1000
G1 x60.5023 y30.7847 z-0.1000
G1 x60.3723 y30.7847 z-0.1000
G1 x60.2423 y30.7847 z-0.1000
G1 x60.1123 y30.7847 z-0.1000
G1 x60.0023 y30.8547 z-0.1000
G1 x59.8823 y30.9047 z-0.1000
G1 x59.7523 y30.9047 z-0.1000
G1 x59.6323 y30.8647 z-0.1000
G1 x59.5223 y30.7847 z-0.1000
G1 x59.4423 y30.6847 z-0.1000
G1 x59.4023 y30.5647 z-0.1000
G0 z1.0000


G0 x102.5703 y7.4955
G0 z0.0000
F120.0000
G1 z-0.1000
F300.0000
G1 x102.5703 y9.5275 z-0.1000
G1 x101.6991 y7.4955 z-0.1000
G1 x101.6991 y9.5275 z-0.1000
G0 z1.0000


G0 x104.5230 y14.0770
G0 z0.0000
F120.0000
G1 z-0.1000
F300.0000
G1 x104.5230 y13.9470 z-0.1000
G1 x104.5330 y13.8170 z-0.1000
G1 x104.5730 y13.6870 z-0.1000
G1 x104.6230 y13.5670 z-0.1000
G1 x104.6930 y13.4570 z-0.1000
G1 x104.7730 y13.3570 z-0.1000
G1 x104.7830 y13.2270 z-0.1000
G1 x104.7830 y13.0970 z-0.1000
G1 x104.7830 y12.9670 z-0.1000
G1 x104.7930 y12.8370 z-0.1000
G1 x104.8330 y12.7170 z-0.1000
G1 x104.8930 y12.6070 z-0.1000
G1 x104.9830 y12.5070 z-0.1000
G1 x105.0730 y12.4170 z-0.1000
G1 x105.1630 y12.3270 z-0.1000
G1 x105.2530 y12.2370 z-0.1000
G1 x105.3430 y12.1470 z-0.1000
G1 x105.4330 y12.0570 z-0.1000
G1 x105.5230 y11.9670 z-0.1000
G1 x105.6130 y11.8770 z-0.1000
G1 x105.7030 y11.7870 z-0.1000
G1 x105.7930 y11.6970 z-0.1000
G1 x105.8830 y11.6070 z-0.1000
G1 x105.9730 y11.5170 z-0.1000
G1 x106.0630 y11.4270 z-0.1000
G1 x106.1530 y11.3370 z-0.1000
G1 x106.2430 y11.2470 z-0.1000
G1 x106.3430 y11.1670 z-0.1000
G1 x106.4530 y11.1070 z-0.1000
G1 x106.5830 y11.0770 z-0.1000
G1 x106.7130 y11.0670 z-0.1000
G1 x106.8430 y11.0670 z-0.1000
G1 x106.9730 y11.0670 z-0.1000
G1 x107.1030 y11.0670 z-0.1000
G1 x107.2330 y11.0670 z-0.1000
G1 x107.3630 y11.0670 z-0.1000
G1 x107.4930 y11.0670 z-0.1000
G1 x107.6230 y11.0670 z-0.1000
G1 x107.7530 y11.0670 z-0.1000
G1 x107.8830 y11.0670 z-0.1000
G1 x108.0130 y11.0670 z-0.1000
G1 x108.1430 y11.0670 z-0.1000
G1 x108.2730 y11.0670 z-0.1000
G1 x108.4030 y11.0670 z-0.1000
G1 x108.5330 y11.0670 z-0.1000
G1 x108.6630 y11.0670 z-0.1000
G1 x108.7930 y11.0670 z-0.1000
G1 x108.9230 y11.0670 z-0.1000
G1 x109.0530 y11.0670 z-0.1000
G1 x109.1830 y11.0670 z-0.1000
G1 x109.3130 y11.0670 z-0.1000
G1 x109.4430 y11.0670 z-0.1000
G1 x109.5730 y11.0670 z-0.1000
G1 x109.7030 y11.0670 z-0.1000
G1 x109.8330 y11.0770 z-0.1000
G1 x109.9630 y11.1170 z-0.1000
G1 x110.0830 y11.1770 z-0.1000
G1 x110.1830 y11.2670 z-0.1000
G1 x110.2730 y11.3570 z-0.1000
G1 x110.3630 y11.4470 z-0.1000
G1 x110.4530 y11.5370 z-0.1000
G1 x110.5430 y11.6270 z-0.1000
G1 x110.6330 y11.7170 z-0.1000
G1 x110.7230 y11.8070 z-0.1000
G1 x110.8130 y11.8970 z-0.1000
G1 x110.9030 y11.9870 z-0.1000
G1 x110.9930 y12.0770 z-0.1000
G1 x111.0830 y12.1670 z-0.1000
G1 x111.1730 y12.2570 z-0.1000
G1 x111.2630 y12.3470 z-0.1000
G1 x111.3530 y12.4370 z-0.1000
G1 x111.4430 y12.5270 z-0.1000
G1 x111.5330 y12.6170 z-0.1000
G1 x111.6230 y12.7070 z-0.1000
G1 x111.7130 y12.7970 z-0.1000
G1 x111.8030 y12.8870 z-0.1000
G1 x111.8930 y12.9770 z-0.1000
G1 x111.9830 y13.0670 z-0.1000
G1 x112.0530 y13.1770 z-0.1000
G1 x112.1030 y13.2970 z-0.1000
G1 x112.1230 y13.4270 z-0.1000
G1 x112.1230 y13.5570 z-0.1000
G1 x112.1230 y13.6870 z-0.1000
G1 x112.1230 y13.8170 z-0.1000
G1 x112.1230 y13.9470 z-0.1000
G1 x112.1230 y14.0770 z-0.1000
G1 x112.1230 y14.2070 z-0.1000
G1 x112.1230 y14.3370 z-0.1000
G1 x112.1230 y14.4670 z-0.1000
G1 x112.1230 y14.5970 z-0.1000
G1 x112.1230 y14.7270 z-0.1000
G1 x112.1230 y14.8570 z-0.1000
G1 x112.1230 y14.9870 z-0.1000
G1 x112.1230 y15.1170 z-0.1000
G1 x112.1230 y15.2470 z-0.1000
G1 x112.1230 y15.3770 z-0.1000
G1 x112.1230 y15.5070 z-0.1000
G1 x112.1230 y15.6370 z-0.1000
G1 x112.1230 y15.7670 z-0.1000
G1 x112.1230 y15.8970 z-0.1000
G1 x112.1230 y16.0270 z-0.1000
G1 x112.1230 y16.1570 z-0.1000
G1 x112.1230 y16.2870 z-0.1000
G1 x112.1230 y16.4170 z-0.1000
G1 x112.1230 y16.5470 z-0.1000
G1 x112.1230 y16.6770 z-0.1000
G1 x112.1230 y16.8070 z-0.1000
G1 x112.1230 y16.9370 z-0.1000
G1 x112.1230 y17.0670 z-0.1000
G1 x112.1230 y17.1970 z-0.1000
G1 x112.1230 y17.3270 z-0.1000
G1 x112.1230 y17.4570 z-0.1000
G1 x112.1230 y17.5870 z-0.1000
G1 x112.1230 y17.7170 z-0.1000
G1 x112.1230 y17.8470 z-0.1000
G1 x112.1230 y17.9770 z-0.1000
G1 x112.1230 y18.1070 z-0.1000
G1 x112.1230 y18.2370 z-0.1000
G1 x112.1230 y18.3670 z-0.1000
G1 x112.1230 y18.4970 z-0.1000
G1 x112.1230 y18.6270 z-0.1000
G1 x112.1230 y18.7570 z-0.1000
G1 x112.1230 y18.8870 z-0.1000
G1 x112.1230 y19.0170 z-0.1000
G1 x112.1230 y19.1470 z-0.1000
G1 x112.1230 y19.2770 z-0.1000
G1 x112.1230 y19.4070 z-0.1000
G1 x112.1230 y19.5370 z-0.1000
G1 x112.1230 y19.6670 z-0.1000
G1 x112.1230 y19.7970 z-0.1000
G1 x112.1230 y19.9270 z-0.1000
G1 x112.1230 y20.0570 z-0.1000
G1 x112.2130 y20.1570 z-0.1000
G1 x112.3030 y20.2470 z-0.1000
G1 x112.3930 y20.3370 z-0.1000
G1 x112.4830 y20.4270 z-0.1000
G1 x112.5730 y20.5170 z-0.1000
G1 x112.6630 y20.6070 z-0.1000
G1 x112.7530 y20.6970 z-0.1000
G1 x112.8430 y20.7870 z-0.1000
G1 x112.9330 y20.8770 z-0.1000
G1 x113.0230 y20.9670 z-0.1000
G1 x113.1130 y21.0570 z-0.1000
G1 x113.2030 y21.1470 z-0.1000
G1 x113.2930 y21.2370 z-0.1000
G1 x113.3830 y21.3270 z-0.1000
G1 x113.4730 y21.4170 z-0.1000
G1 x113.5630 y21.5070 z-0.1000
G1 x113.6530 y21.5970 z-0.1000
G1 x113.7430 y21.6870 z-0.1000
G1 x113.8330 y21.7770 z-0.1000
G1 x113.9230 y21.8670 z-0.1000
G1 x114.0130 y21.9570 z-0.1000
G1 x114.1030 y22.0470 z-0.1000
G1 x114.1930 y22.1370 z-0.1000
G1 x114.2830 y22.2270 z-0.1000
G1 x114.3730 y22.3170 z-0.1000
G1 x114.4630 y22.4070 z-0.1000
G1 x114.5530 y22.4970 z-0.1000
G1 x114.6430 y22.5870 z-0.1000
G1 x114.7330 y22.6770 z-0.1000
G1 x114.8230 y22.7670 z-0.1000
G1 x114.9130 y22.8570 z-0.1000
G1 x115.0030 y22.9470 z-0.1000
G1 x115.0930 y23.0370 z-0.1000
G1 x115.1830 y23.1270 z-0.1000
G1 x115.2730 y23.2170 z-0.1000
G1 x115.3630 y23.3070 z-0.1000
G1 x115.4530 y23.3970 z-0.1000
G1 x115.5430 y23.4870 z-0.1000
G1 x115.6330 y23.5770 z-0.1000
G1 x115.7230 y23.6670 z-0.1000
G1 x115.8130 y23.7570 z-0.1000
G1 x115.9030 y23.8470 z-0.1000
G1 x115.9930 y23.9370 z-0.1000
G1 x116.0830 y24.0270 z-0.1000
G1 x116.1730 y24.1170 z-0.1000
G1 x116.2630 y24.2070 z-0.1000
G1 x116.3730 y24.2670 z-0.1000
G1 x116.5030 y24.2670 z-0.1000
G1 x116.6330 y24.2670 z-0.1000
G1 x116.7630 y24.2770 z-0.1000
G1 x116.8330 y24.3870 z-0.1000
G1 x116.8330 y24.5170 z-0.1000
G1 x116.8330 y24.6470 z-0.1000
G1 x116.8330 y24.7770 z-0.1000
G1 x116.8330 y24.9070 z-0.1000
G1 x116.8330 y25.0370 z-0.1000
G1 x116.8330 y25.1670 z-0.1000
G1 x116.8330 y25.2970 z-0.1000
G1 x116.8330 y25.4270 z-0.1000
G1 x116.8330 y25.5570 z-0.1000
G1 x116.8330 y25.6870 z-0.1000
G1 x116.8330 y25.8170 z-0.1000
G1 x116.8330 y25.9470 z-0.1000
G1 x116.8330 y26.0770 z-0.1000
G1 x116.8330 y26.2070 z-0.1000
G1 x116.8330 y26.3370 z-0.1000
G1 x116.8230 y26.4670 z-0.1000
G1 x116.7130 y26.5370 z-0.1000
G1 x116.5830 y26.5370 z-0.1000
G1 x116.5630 y26.6670 z-0.1000
G1 x116.5630 y26.7970 z-0.1000
G1 x116.5630 y26.9270 z-0.1000
G1 x116.5630 y27.0570 z-0.1000
G1 x116.5630 y27.1870 z-0.1000
G1 x116.5630 y27.3170 z-0.1000
G1 x116.5630 y27.4470 z-0.1000
G1 x116.5630 y27.5770 z-0.1000
G1 x116.5530 y27.7070 z-0.1000
G1 x116.5030 y27.8270 z-0.1000
G1 x116.4430 y27.9370 z-0.1000
G1 x116.4430 y28.0670 z-0.1000
G1 x116.4130 y28.1970 z-0.1000
G1 x116.3630 y28.3170 z-0.1000
G1 x116.3030 y28.4270 z-0.1000
G1 x116.2230 y28.5370 z-0.1000
G1 x116.1230 y28.6270 z-0.1000
G1 x116.0130 y28.7070 z-0.1000
G1 x115.8930 y28.7670 z-0.1000
G1 x115.7730 y28.8070 z-0.1000
G1 x115.6430 y28.8270 z-0.1000
G1 x115.5130 y28.8270 z-0.1000
G1 x115.3830 y28.8070 z-0.1000
G1 x115.2530 y28.7670 z-0.1000
G1 x115.1330 y28.7170 z-0.1000
G1 x115.0230 y28.6370 z-0.1000
G1 x114.9230 y28.5470 z-0.1000
G1 x114.8430 y28.4470 z-0.1000
G1 x114.7730 y28.3370 z-0.1000
G1 x114.7230 y28.2170 z-0.1000
G1 x114.6930 y28.0870 z-0.1000
G1 x114.6830 y27.9570 z-0.1000
G1 x114.6930 y27.8270 z-0.1000
G1 x114.7130 y27.6970 z-0.1000
G1 x114.7630 y27.5770 z-0.1000
G1 x114.8230 y27.4670 z-0.1000
G1 x114.9030 y27.3670 z-0.1000
G1 x114.9930 y27.2770 z-0.1000
G1 x115.0930 y27.1970 z-0.1000
G1 x115.2030 y27.1370 z-0.1000
G1 x115.3230 y27.0870 z-0.1000
G1 x115.3230 y26.9570 z-0.1000
G1 x115.3230 y26.8270 z-0.1000
G1 x115.3230 y26.6970 z-0.1000
G1 x115.3230 y26.5670 z-0.1000
G1 x115.1930 y26.5370 z-0.1000
G1 x115.0830 y26.4770 z-0.1000
G1 x115.0630 y26.3470 z-0.1000
G1 x115.0630 y26.2170 z-0.1000
G1 x115.0630 y26.0870 z-0.1000
G1 x115.0630 y25.9570 z-0.1000
G1 x115.0630 y25.8270 z-0.1000
G1 x115.0630 y25.6970 z-0.1000
G1 x115.0630 y25.5670 z-0.1000
G1 x115.0630 y25.4370 z-0.1000
G1 x115.0630 y25.3070 z-0.1000
G1 x115.0630 y25.1770 z-0.1000
G1 x115.0630 y25.0470 z-0.1000
G1 x115.0630 y24.9170 z-0.1000
G1 x115.0630 y24.7870 z-0.1000
G1 x114.9830 y24.6770 z-0.1000
G1 x114.8930 y24.5870 z-0.1000
G1 x114.8030 y24.4970 z-0.1000
G1 x114.7130 y24.4070 z-0.1000
G1 x114.6230 y24.3170 z-0.1000
G1 x114.5330 y24.2270 z-0.1000
G1 x114.4430 y24.1370 z-0.1000
G1 x114.3530 y24.0470 z-0.1000
G1 x114.2630 y23.9570 z-0.1000
G1 x114.1730 y23.8670 z-0.1000
G1 x114.0830 y23.7770 z-0.1000
G1 x113.9930 y23.6870 z-0.1000
G1 x113.9030 y23.5970 z-0.1000
G1 x113.8130 y23.5070 z-0.1000
G1 x113.7230 y23.4170 z-0.1000
G1 x113.6330 y23.3270 z-0.1000
G1 x113.5430 y23.2370 z-0.1000
G1 x113.4530 y23.1470 z-0.1000
G1 x113.3630 y23.0570 z-0.1000
G1 x113.2730 y22.9670 z-0.1000
G1 x113.1830 y22.8770 z-0.1000
G1 x113.0930 y22.7870 z-0.1000
G1 x113.0030 y22.6970 z-0.1000
G1 x112.9130 y22.6070 z-0.1000
G1 x112.8230 y22.5170 z-0.1000
G1 x112.7330 y22.4270 z-0.1000
G1 x112.6430 y22.3370 z-0.1000
G1 x112.5530 y22.2470 z-0.1000
G1 x112.4630 y22.1570 z-0.1000
G1 x112.3730 y22.0670 z-0.1000
G1 x112.2830 y21.9770 z-0.1000
G1 x112.1930 y21.8870 z-0.1000
G1 x112.1030 y21.7970 z-0.1000
G1 x112.0130 y21.7070 z-0.1000
G1 x111.9230 y21.6170 z-0.1000
G1 x111.8330 y21.5270 z-0.1000
G1 x111.7430 y21.4370 z-0.1000
G1 x111.6530 y21.3470 z-0.1000
G1 x111.5630 y21.2570 z-0.1000
G1 x111.4730 y21.1670 z-0.1000
G1 x111.3830 y21.0770 z-0.1000
G1 x111.2930 y20.9870 z-0.1000
G1 x111.2030 y20.8970 z-0.1000
G1 x111.1130 y20.8070 z-0.1000
G1 x111.0230 y20.7170 z-0.1000
G1 x110.9530 y20.6070 z-0.1000
G1 x110.9030 y20.4870 z-0.1000
G1 x110.8830 y20.3570 z-0.1000
G1 x110.8830 y20.2270 z-0.1000
G1 x110.8830 y20.0970 z-0.1000
G1 x110.8830 y19.9670 z-0.1000
G1 x110.8830 y19.8370 z-0.1000
G1 x110.8830 y19.7070 z-0.1000
G1 x110.8830 y19.5770 z-0.1000
G1 x110.8830 y19.4470 z-0.1000
G1 x110.8830 y19.3170 z-0.1000
G1 x110.8830 y19.1870 z-0.1000
G1 x110.8830 y19.0570 z-0.1000
G1 x110.8830 y18.9270 z-0.1000
G1 x110.8830 y18.7970 z-0.1000
G1 x110.8830 y18.6670 z-0.1000
G1 x110.8830 y18.5370 z-0.1000
G1 x110.8830 y18.4070 z-0.1000
G1 x110.8830 y18.2770 z-0.1000
G1 x110.8830 y18.1470 z-0.1000
G1 x110.8830 y18.0170 z-0.1000
G1 x110.8830 y17.8870 z-0.1000
G1 x110.8830 y17.7570 z-0.1000
G1 x110.8830 y17.6270 z-0.1000
G1 x110.8830 y17.4970 z-0.1000
G1 x110.8830 y17.3670 z-0.1000
G1 x110.8830 y17.2370 z-0.1000
G1 x110.8830 y17.1070 z-0.1000
G1 x110.8830 y16.9770 z-0.1000
G1 x110.8830 y16.8470 z-0.1000
G1 x110.8830 y16.7170 z-0.1000
G1 x110.8830 y16.5870 z-0.1000
G1 x110.8830 y16.4570 z-0.1000
G1 x110.8830 y16.3270 z-0.1000
G1 x110.8830 y16.1970 z-0.1000
G1 x110.8830 y16.0670 z-0.1000
G1 x110.8830 y15.9370 z-0.1000
G1 x110.8830 y15.8070 z-0.1000
G1 x110.8830 y15.6770 z-0.1000
G1 x110.8830 y15.5470 z-0.1000
G1 x110.8830 y15.4170 z-0.1000
G1 x110.8830 y15.2870 z-0.1000
G1 x110.8830 y15.1570 z-0.1000
G1 x110.8830 y15.0270 z-0.1000
G1 x110.8830 y14.8970 z-0.1000
G1 x110.8830 y14.7670 z-0.1000
G1 x110.8830 y14.6370 z-0.1000
G1 x110.8830 y14.5070 z-0.1000
G1 x110.8830 y14.3770 z-0.1000
G1 x110.8830 y14.2470 z-0.1000
G1 x110.8830 y14.1170 z-0.1000
G1 x110.8830 y13.9870 z-0.1000
G1 x110.8830 y13.8570 z-0.1000
G1 x110.8830 y13.7270 z-0.1000
G1 x110.7930 y13.6270 z-0.1000
G1 x110.7030 y13.5370 z-0.1000
G1 x110.6130 y13.4470 z-0.1000
G1 x110.5230 y13.3570 z-0.1000
G1 x110.4330 y13.2670 z-0.1000
G1 x110.3430 y13.1770 z-0.1000
G1 x110.2530 y13.0870 z-0.1000
G1 x110.1630 y12.9970 z-0.1000
G1 x110.0730 y12.9070 z-0.1000
G1 x109.9830 y12.8170 z-0.1000
G1 x109.8930 y12.7270 z-0.1000
G1 x109.8030 y12.6370 z-0.1000
G1 x109.7130 y12.5470 z-0.1000
G1 x109.6230 y12.4570 z-0.1000
G1 x109.5330 y12.3670 z-0.1000
G1 x109.4230 y12.3070 z-0.1000
G1 x109.2930 y12.3070 z-0.1000
G1 x109.1630 y12.3070 z-0.1000
G1 x109.0330 y12.3070 z-0.1000
G1 x108.9030 y12.3070 z-0.1000
G1 x108.7730 y12.3070 z-0.1000
G1 x108.6430 y12.3070 z-0.1000
G1 x108.5130 y12.3070 z-0.1000
G1 x108.3830 y12.3070 z-0.1000
G1 x108.2530 y12.3070 z-0.1000
G1 x108.1230 y12.3070 z-0.1000
G1 x107.9930 y12.3070 z-0.1000
G1 x107.8630 y12.3070 z-0.1000
G1 x107.7330 y12.3070 z-0.1000
G1 x107.6030 y12.3070 z-0.1000
G1 x107.4730 y12.3070 z-0.1000
G1 x107.3430 y12.3070 z-0.1000
G1 x107.2130 y12.3070 z-0.1000
G1 x107.0830 y12.3070 z-0.1000
G1 x106.9530 y12.3070 z-0.1000
G1 x106.8530 y12.3870 z-0.1000
G1 x106.7630 y12.4770 z-0.1000
G1 x106.6730 y12.5670 z-0.1000
G1 x106.5830 y12.6570 z-0.1000
G1 x106.4930 y12.7470 z-0.1000
G1 x106.4030 y12.8370 z-0.1000
G1 x106.3130 y12.9270 z-0.1000
G1 x106.2230 y13.0170 z-0.1000
G1 x106.1330 y13.1070 z-0.1000
G1 x106.0430 y13.1970 z-0.1000
G1 x106.0230 y13.3270 z-0.1000
G1 x106.1030 y13.4270 z-0.1000
G1 x106.1730 y13.5370 z-0.1000
G1 x106.2330 y13.6470 z-0.1000
G1 x106.2730 y13.7770 z-0.1000
G1 x106.2830 y13.9070 z-0.1000
G1 x106.2830 y14.0370 z-0.1000
G1 x106.2730 y14.1670 z-0.1000
G1 x106.2330 y14.2870 z-0.1000
G1 x106.1730 y14.4070 z-0.1000
G1 x106.1030 y14.5170 z-0.1000
G1 x106.0130 y14.6170 z-0.1000
G1 x105.9130 y14.6970 z-0.1000
G1 x105.8030 y14.7670 z-0.1000
G1 x105.6830 y14.8170 z-0.1000
G1 x105.5530 y14.8470 z-0.1000
G1 x105.4230 y14.8570 z-0.1000
G1 x105.2930 y14.8470 z-0.1000
G1 x105.1630 y14.8270 z-0.1000
G1 x105.0430 y14.7770 z-0.1000
G1 x104.9330 y14.7170 z-0.1000
G1 x104.8230 y14.6370 z-0.1000
G1 x104.7330 y14.5470 z-0.1000
G1 x104.6530 y14.4370 z-0.1000
G1 x104.5930 y14.3270 z-0.1000
G1 x104.5530 y14.2070 z-0.1000
G1 x104.5230 y14.0770 z-0.1000
G0 z1.0000


G0 x109.8646 y22.9570
G0 z0.0000
F120.0000
G1 z-0.1000
F300.0000
G1 x109.8646 y22.8270 z-0.1000
G1 x109.8846 y22.6970 z-0.1000
G1 x109.9346 y22.5770 z-0.1000
G1 x110.0146 y22.4670 z-0.1000
G1 x110.1046 y22.3770 z-0.1000
G1 x110.2146 y22.3070 z-0.1000
G1 x110.3346 y22.2570 z-0.1000
G1 x110.4646 y22.2470 z-0.1000
G1 x110.5946 y22.2470 z-0.1000
G1 x110.7146 y22.2870 z-0.1000
G1 x110.8346 y22.3470 z-0.1000
G1 x110.9346 y22.4370 z-0.1000
G1 x111.0246 y22.5270 z-0.1000
G1 x111.1146 y22.6170 z-0.1000
G1 x111.2046 y22.7070 z-0.1000
G1 x111.2946 y22.7970 z-0.1000
G1 x111.3846 y22.8870 z-0.1000
G1 x111.4746 y22.9770 z-0.1000
G1 x111.5646 y23.0670 z-0.1000
G1 x111.6546 y23.1570 z-0.1000
G1 x111.7446 y23.2470 z-0.1000
G1 x111.8346 y23.3370 z-0.1000
G1 x111.9246 y23.4270 z-0.1000
G1 x112.0146 y23.5170 z-0.1000
G1 x112.1046 y23.6070 z-0.1000
G1 x112.1946 y23.6970 z-0.1000
G1 x112.2846 y23.7870 z-0.1000
G1 x112.3746 y23.8770 z-0.1000
G1 x112.4646 y23.9670 z-0.1000
G1 x112.5546 y24.0570 z-0.1000
G1 x112.6446 y24.1470 z-0.1000
G1 x112.7346 y24.2370 z-0.1000
G1 x112.8646 y24.2670 z-0.1000
G1 x112.9946 y24.2670 z-0.1000
G1 x113.1246 y24.2670 z-0.1000
G1 x113.2546 y24.2670 z-0.1000
G1 x113.3846 y24.2670 z-0.1000
G1 x113.5046 y24.3170 z-0.1000
G1 x113.5246 y24.4470 z-0.1000
G1 x113.5246 y24.5770 z-0.1000
G1 x113.5246 y24.7070 z-0.1000
G1 x113.5246 y24.8370 z-0.1000
G1 x113.5246 y24.9670 z-0.1000
G1 x113.5246 y25.0970 z-0.1000
G1 x113.5246 y25.2270 z-0.1000
G1 x113.5246 y25.3570 z-0.1000
G1 x113.5646 y25.4770 z-0.1000
G1 x113.6246 y25.5970 z-0.1000
G1 x113.6446 y25.7270 z-0.1000
G1 x113.6446 y25.8570 z-0.1000
G1 x113.6446 y25.9870 z-0.1000
G1 x113.6446 y26.1170 z-0.1000
G1 x113.6446 y26.2470 z-0.1000
G1 x113.6446 y26.3770 z-0.1000
G1 x113.6446 y26.5070 z-0.1000
G1 x113.6446 y26.6370 z-0.1000
G1 x113.6446 y26.7670 z-0.1000
G1 x113.6446 y26.8970 z-0.1000
G1 x113.6446 y27.0270 z-0.1000
G1 x113.7646 y27.0670 z-0.1000
G1 x113.8846 y27.1170 z-0.1000
G1 x113.9046 y27.2470 z-0.1000
G1 x113.9046 y27.3770 z-0.1000
G1 x113.9046 y27.5070 z-0.1000
G1 x113.9046 y27.6370 z-0.1000
G1 x113.9046 y27.7670 z-0.1000
G1 x113.9046 y27.8970 z-0.1000
G1 x113.9046 y28.0270 z-0.1000
G1 x113.9046 y28.1570 z-0.1000
G1 x113.9046 y28.2870 z-0.1000
G1 x113.9046 y28.4170 z-0.1000
G1 x113.9046 y28.5470 z-0.1000
G1 x113.9046 y28.6770 z-0.1000
G1 x113.8646 y28.7970 z-0.1000
G1 x113.7346 y28.8270 z-0.1000
G1 x113.6046 y28.8270 z-0.1000
G1 x113.4746 y28.8270 z-0.1000
G1 x113.3446 y28.8270 z-0.1000
G1 x113.2146 y28.8270 z-0.1000
G1 x113.0846 y28.8270 z-0.1000
G1 x112.9546 y28.8270 z-0.1000
G1 x112.8246 y28.8270 z-0.1000
G1 x112.6946 y28.8270 z-0.1000
G1 x112.5646 y28.8270 z-0.1000
G1 x112.4346 y28.8270 z-0.1000
G1 x112.3046 y28.8270 z-0.1000
G1 x112.1746 y28.7870 z-0.1000
G1 x112.1446 y28.6570 z-0.1000
G1 x112.0546 y28.5670 z-0.1000
G1 x111.9246 y28.5670 z-0.1000
G1 x111.7946 y28.5670 z-0.1000
G1 x111.6646 y28.5670 z-0.1000
G1 x111.5346 y28.5670 z-0.1000
G1 x111.4046 y28.5670 z-0.1000
G1 x111.2746 y28.5670 z-0.1000
G1 x111.1446 y28.5570 z-0.1000
G1 x111.0146 y28.5170 z-0.1000
G1 x110.9046 y28.4570 z-0.1000
G1 x110.8046 y28.3770 z-0.1000
G1 x110.7246 y28.2770 z-0.1000
G1 x110.6646 y28.1670 z-0.1000
G1 x110.6346 y28.0370 z-0.1000
G1 x110.6246 y27.9070 z-0.1000
G1 x110.6446 y27.7770 z-0.1000
G1 x110.6946 y27.6570 z-0.1000
G1 x110.7746 y27.5470 z-0.1000
G1 x110.8646 y27.4570 z-0.1000
G1 x110.9746 y27.3870 z-0.1000
G1 x111.0946 y27.3370 z-0.1000
G1 x111.2246 y27.3270 z-0.1000
G1 x111.3546 y27.3270 z-0.1000
G1 x111.4846 y27.3270 z-0.1000
G1 x111.6146 y27.3270 z-0.1000
G1 x111.7446 y27.3270 z-0.1000
G1 x111.8746 y27.3270 z-0.1000
G1 x112.0046 y27.3270 z-0.1000
G1 x112.1346 y27.3270 z-0.1000
G1 x112.1446 y27.1970 z-0.1000
G1 x112.2046 y27.0870 z-0.1000
G1 x112.3346 y27.0670 z-0.1000
G1 x112.4046 y26.9570 z-0.1000
G1 x112.4046 y26.8270 z-0.1000
G1 x112.4046 y26.6970 z-0.1000
G1 x112.4046 y26.5670 z-0.1000
G1 x112.2746 y26.5370 z-0.1000
G1 x112.1446 y26.5370 z-0.1000
G1 x112.0146 y26.5370 z-0.1000
G1 x111.8846 y26.5370 z-0.1000
G1 x111.7746 y26.4670 z-0.1000
G1 x111.7646 y26.3370 z-0.1000
G1 x111.7646 y26.2070 z-0.1000
G1 x111.7646 y26.0770 z-0.1000
G1 x111.7646 y25.9470 z-0.1000
G1 x111.7646 y25.8170 z-0.1000
G1 x111.7646 y25.6870 z-0.1000
G1 x111.7646 y25.5570 z-0.1000
G1 x111.7646 y25.4270 z-0.1000
G1 x111.7646 y25.2970 z-0.1000
G1 x111.7646 y25.1670 z-0.1000
G1 x111.7646 y25.0370 z-0.1000
G1 x111.6846 y24.9370 z-0.1000
G1 x111.5946 y24.8470 z-0.1000
G1 x111.5046 y24.7570 z-0.1000
G1 x111.4146 y24.6670 z-0.1000
G1 x111.3246 y24.5770 z-0.1000
G1 x111.2346 y24.4870 z-0.1000
G1 x111.1446 y24.3970 z-0.1000
G1 x111.0546 y24.3070 z-0.1000
G1 x110.9646 y24.2170 z-0.1000
G1 x110.8746 y24.1270 z-0.1000
G1 x110.7846 y24.0370 z-0.1000
G1 x110.6946 y23.9470 z-0.1000
G1 x110.6046 y23.8570 z-0.1000
G1 x110.5146 y23.7670 z-0.1000
G1 x110.4246 y23.6770 z-0.1000
G1 x110.3346 y23.5870 z-0.1000
G1 x110.2446 y23.4970 z-0.1000
G1 x110.1546 y23.4070 z-0.1000
G1 x110.0646 y23.3170 z-0.1000
G1 x109.9746 y23.2170 z-0.1000
G1 x109.9146 y23.1070 z-0.1000
G1 x109.8746 y22.9870 z-0.1000
G0 z1.0000


G0 x107.0630 y14.7654
G0 z0.0000
F120.0000
G1 z-0.1000
F300.0000
G1 x107.0630 y14.6354 z-0.1000
G1 x107.0630 y14.5054 z-0.1000
G1 x107.0630 y14.3754 z-0.1000
G1 x107.0630 y14.2454 z-0.1000
G1 x107.0630 y14.1154 z-0.1000
G1 x107.0630 y13.9854 z-0.1000
G1 x107.0630 y13.8554 z-0.1000
G1 x107.0630 y13.7254 z-0.1000
G1 x107.0630 y13.5954 z-0.1000
G1 x107.0630 y13.4654 z-0.1000
G1 x107.0630 y13.3354 z-0.1000
G1 x107.0630 y13.2054 z-0.1000
G1 x107.1430 y13.1054 z-0.1000
G1 x107.2730 y13.0954 z-0.1000
G1 x107.4030 y13.0954 z-0.1000
G1 x107.5330 y13.0954 z-0.1000
G1 x107.6630 y13.0954 z-0.1000
G1 x107.7930 y13.0954 z-0.1000
G1 x107.9230 y13.0954 z-0.1000
G1 x108.0530 y13.0954 z-0.1000
G1 x108.1830 y13.0954 z-0.1000
G1 x108.3130 y13.0954 z-0.1000
G1 x108.4430 y13.0954 z-0.1000
G1 x108.5730 y13.0954 z-0.1000
G1 x108.7030 y13.0954 z-0.1000
G1 x108.8130 y13.1654 z-0.1000
G1 x108.8230 y13.2954 z-0.1000
G1 x108.8230 y13.4254 z-0.1000
G1 x108.8230 y13.5554 z-0.1000
G1 x108.8230 y13.6854 z-0.1000
G1 x108.8230 y13.8154 z-0.1000
G1 x108.8230 y13.9454 z-0.1000
G1 x108.8230 y14.0754 z-0.1000
G1 x108.8230 y14.2054 z-0.1000
G1 x108.8230 y14.3354 z-0.1000
G1 x108.8230 y14.4654 z-0.1000
G1 x108.8230 y14.5954 z-0.1000
G1 x108.8230 y14.7254 z-0.1000
G1 x108.7630 y14.8354 z-0.1000
G1 x108.6330 y14.8554 z-0.1000
G1 x108.5630 y14.9654 z-0.1000
G1 x108.5630 y15.0954 z-0.1000
G1 x108.5630 y15.2254 z-0.1000
G1 x108.5630 y15.3554 z-0.1000
G1 x108.5630 y15.4854 z-0.1000
G1 x108.5630 y15.6154 z-0.1000
G1 x108.5630 y15.7454 z-0.1000
G1 x108.5630 y15.8754 z-0.1000
G1 x108.5630 y16.0054 z-0.1000
G1 x108.5630 y16.1354 z-0.1000
G1 x108.5630 y16.2654 z-0.1000
G1 x108.5630 y16.3954 z-0.1000
G1 x108.5630 y16.5254 z-0.1000
G1 x108.5530 y16.6554 z-0.1000
G1 x108.5030 y16.7754 z-0.1000
G1 x108.4430 y16.8854 z-0.1000
G1 x108.3530 y16.9854 z-0.1000
G1 x108.2430 y17.0554 z-0.1000
G1 x108.1230 y17.1154 z-0.1000
G1 x107.9930 y17.1354 z-0.1000
G1 x107.8630 y17.1354 z-0.1000
G1 x107.7330 y17.0954 z-0.1000
G1 x107.6130 y17.0354 z-0.1000
G1 x107.5130 y16.9554 z-0.1000
G1 x107.4230 y16.8554 z-0.1000
G1 x107.3630 y16.7354 z-0.1000
G1 x107.3330 y16.6054 z-0.1000
G1 x107.3230 y16.4754 z-0.1000
G1 x107.3230 y16.3454 z-0.1000
G1 x107.3230 y16.2154 z-0.1000
G1 x107.3230 y16.0854 z-0.1000
G1 x107.3230 y15.9554 z-0.1000
G1 x107.3230 y15.8254 z-0.1000
G1 x107.3230 y15.6954 z-0.1000
G1 x107.3230 y15.5654 z-0.1000
G1 x107.3230 y15.4354 z-0.1000
G1 x107.3230 y15.3054 z-0.1000
G1 x107.3230 y15.1754 z-0.1000
G1 x107.3230 y15.0454 z-0.1000
G1 x107.3230 y14.9154 z-0.1000
G1 x107.2130 y14.8554 z-0.1000
G1 x107.0930 y14.8154 z-0.1000
G0 z1.0000


G0 x110.4798 y9.5275
G0 z0.0000
F120.0000
G1 z-0.1000
F300.0000
G1 x109.9718 y7.4955 z-0.1000
G1 x109.4638 y9.5275 z-0.1000
G0 z1.0000


G0 x108.9558 y8.2702
G0 z0.0000
F120.0000
G1 z-0.1000
F300.0000
G1 x107.7951 y8.2702 z-0.1000
G0 z1.0000


G0 x108.3767 y7.4955
G0 z0.0000
F120.0000
G1 z-0.1000
F300.0000
G1 x108.3767 y9.0449 z-0.1000
G0 z1.0000


G0 x106.7054 y6.8199
G0 z0.0000
F120.0000
G1 z-0.1000
F300.0000
G1 x106.7054 y9.7206 z-0.1000
G0 z1.0000


G0 x105.6183 y7.4955
G0 z0.0000
F120.0000
G1 z-0.1000
F300.0000
G1 x105.6183 y9.5275 z-0.1000
G1 x105.2551 y9.5275 z-0.1000
G1 x105.0392 y9.4310 z-0.1000
G1 x104.8918 y9.2380 z-0.1000
G1 x104.8207 y9.0449 z-0.1000
G1 x104.7471 y8.6563 z-0.1000
G1 x104.7471 y8.3668 z-0.1000
G1 x104.8207 y7.9807 z-0.1000
G1 x104.8918 y7.7851 z-0.1000
G1 x105.0392 y7.5921 z-0.1000
G1 x105.2551 y7.4955 z-0.1000
G1 x105.6183 y7.4955 z-0.1000
G0 z1.0000


G0 x103.2967 y9.4310
G0 z0.0000
F120.0000
G1 z-0.1000
F300.0000
G1 x103.4415 y9.5275 z-0.1000
G1 x103.6599 y9.5275 z-0.1000
G1 x103.8758 y9.4310 z-0.1000
G1 x104.0232 y9.2380 z-0.1000
G1 x104.0943 y9.0449 z-0.1000
G1 x104.1679 y8.6563 z-0.1000
G1 x104.1679 y8.3668 z-0.1000
G1 x104.0943 y7.9807 z-0.1000
G1 x104.0232 y7.7851 z-0.1000
G1 x103.8758 y7.5921 z-0.1000
G1 x103.6599 y7.4955 z-0.1000
G1 x103.5152 y7.4955 z-0.1000
G1 x103.2967 y7.5921 z-0.1000
G1 x103.2231 y7.6886 z-0.1000
G1 x103.2231 y8.3668 z-0.1000
G1 x103.5152 y8.3668 z-0.1000
G0 z1.0000


G0 x100.9726 y7.4955
G0 z0.0000
F120.0000
G1 z-0.1000
F300.0000
G1 x100.9726 y9.5275 z-0.1000
G1 x100.6094 y9.5275 z-0.1000
G1 x100.3935 y9.4310 z-0.1000
G1 x100.2462 y9.2380 z-0.1000
G1 x100.1751 y9.0449 z-0.1000
G1 x100.1014 y8.6563 z-0.1000
G1 x100.1014 y8.3668 z-0.1000
G1 x100.1751 y7.9807 z-0.1000
G1 x100.2462 y7.7851 z-0.1000
G1 x100.3935 y7.5921 z-0.1000
G1 x100.6094 y7.4955 z-0.1000
G1 x100.9726 y7.4955 z-0.1000
G0 z1.0000


G0 x96.9030 y11.2830
G0 z0.0000
F120.0000
G1 z-0.1000
F300.0000
G1 x96.9030 y11.1530 z-0.1000
G1 x96.9130 y11.0230 z-0.1000
G1 x96.9530 y10.8930 z-0.1000
G1 x97.0030 y10.7730 z-0.1000
G1 x97.0730 y10.6630 z-0.1000
G1 x97.1530 y10.5630 z-0.1000
G1 x97.2530 y10.4730 z-0.1000
G1 x97.3630 y10.4030 z-0.1000
G1 x97.4830 y10.3530 z-0.1000
G1 x97.6030 y10.3130 z-0.1000
G1 x97.7330 y10.3030 z-0.1000
G1 x97.8630 y10.3030 z-0.1000
G1 x97.9930 y10.3230 z-0.1000
G1 x98.1230 y10.3630 z-0.1000
G1 x98.2430 y10.4230 z-0.1000
G1 x98.3530 y10.5030 z-0.1000
G1 x98.4430 y10.5930 z-0.1000
G1 x98.5230 y10.6930 z-0.1000
G1 x98.5830 y10.8030 z-0.1000
G1 x98.6330 y10.9230 z-0.1000
G1 x98.6630 y11.0530 z-0.1000
G1 x98.6630 y11.1830 z-0.1000
G1 x98.6630 y11.3130 z-0.1000
G1 x98.6330 y11.4430 z-0.1000
G1 x98.5830 y11.5630 z-0.1000
G1 x98.5230 y11.6730 z-0.1000
G1 x98.4430 y11.7730 z-0.1000
G1 x98.3430 y11.8630 z-0.1000
G1 x98.2330 y11.9430 z-0.1000
G1 x98.1130 y12.0030 z-0.1000
G1 x97.9930 y12.0430 z-0.1000
G1 x97.8630 y12.0630 z-0.1000
G1 x97.7330 y12.0630 z-0.1000
G1 x97.6030 y12.0430 z-0.1000
G1 x97.4730 y12.0030 z-0.1000
G1 x97.3530 y11.9530 z-0.1000
G1 x97.2430 y11.8730 z-0.1000
G1 x97.1430 y11.7830 z-0.1000
G1 x97.0630 y11.6830 z-0.1000
G1 x96.9930 y11.5730 z-0.1000
G1 x96.9430 y11.4530 z-0.1000
G1 x96.9130 y11.3230 z-0.1000
G0 z1.0000


G0 x96.6490 y17.1800
G0 z0.0000
F120.0000
G1 z-0.1000
F300.0000
G1 x96.6490 y17.0500 z-0.1000
G1 x96.6490 y16.9200 z-0.1000
G1 x96.6490 y16.7900 z-0.1000
G1 x96.6490 y16.6600 z-0.1000
G1 x96.6490 y16.5300 z-0.1000
G1 x96.6490 y16.4000 z-0.1000
G1 x96.6490 y16.2700 z-0.1000
G1 x96.6490 y16.1400 z-0.1000
G1 x96.6490 y16.0100 z-0.1000
G1 x96.6490 y15.8800 z-0.1000
G1 x96.6490 y15.7500 z-0.1000
G1 x96.6490 y15.6200 z-0.1000
G1 x96.7290 y15.5200 z-0.1000
G1 x96.8590 y15.5100 z-0.1000
G1 x96.9890 y15.5100 z-0.1000
G1 x97.1190 y15.5100 z-0.1000
G1 x97.1690 y15.3900 z-0.1000
G1 x97.1690 y15.2600 z-0.1000
G1 x97.1690 y15.1300 z-0.1000
G1 x97.1690 y15.0000 z-0.1000
G1 x97.1690 y14.8700 z-0.1000
G1 x97.1690 y14.7400 z-0.1000
G1 x97.1690 y14.6100 z-0.1000
G1 x97.0390 y14.6000 z-0.1000
G1 x96.9190 y14.5500 z-0.1000
G1 x96.8990 y14.4200 z-0.1000
G1 x96.8990 y14.2900 z-0.1000
G1 x96.8990 y14.1600 z-0.1000
G1 x96.8990 y14.0300 z-0.1000
G1 x96.8990 y13.9000 z-0.1000
G1 x96.8990 y13.7700 z-0.1000
G1 x96.8990 y13.6400 z-0.1000
G1 x96.8990 y13.5100 z-0.1000
G1 x96.8990 y13.3800 z-0.1000
G1 x96.8990 y13.2500 z-0.1000
G1 x96.8990 y13.1200 z-0.1000
G1 x96.8990 y12.9900 z-0.1000
G1 x96.9390 y12.8700 z-0.1000
G1 x97.0690 y12.8400 z-0.1000
G1 x97.1990 y12.8400 z-0.1000
G1 x97.3290 y12.8400 z-0.1000
G1 x97.4590 y12.8400 z-0.1000
G1 x97.5890 y12.8400 z-0.1000
G1 x97.7190 y12.8400 z-0.1000
G1 x97.8490 y12.8400 z-0.1000
G1 x97.9790 y12.8400 z-0.1000
G1 x98.1090 y12.8400 z-0.1000
G1 x98.2390 y12.8400 z-0.1000
G1 x98.3690 y12.8400 z-0.1000
G1 x98.4990 y12.8400 z-0.1000
G1 x98.6290 y12.8700 z-0.1000
G1 x98.6690 y12.9900 z-0.1000
G1 x98.6690 y13.1200 z-0.1000
G1 x98.6690 y13.2500 z-0.1000
G1 x98.6690 y13.3800 z-0.1000
G1 x98.6690 y13.5100 z-0.1000
G1 x98.6690 y13.6400 z-0.1000
G1 x98.6690 y13.7700 z-0.1000
G1 x98.6690 y13.9000 z-0.1000
G1 x98.6690 y14.0300 z-0.1000
G1 x98.6690 y14.1600 z-0.1000
G1 x98.6690 y14.2900 z-0.1000
G1 x98.6690 y14.4200 z-0.1000
G1 x98.6490 y14.5500 z-0.1000
G1 x98.5290 y14.6000 z-0.1000
G1 x98.4090 y14.6400 z-0.1000
G1 x98.4090 y14.7700 z-0.1000
G1 x98.4090 y14.9000 z-0.1000
G1 x98.4090 y15.0300 z-0.1000
G1 x98.4090 y15.1600 z-0.1000
G1 x98.4090 y15.2900 z-0.1000
G1 x98.4090 y15.4200 z-0.1000
G1 x98.4990 y15.5100 z-0.1000
G1 x98.6290 y15.5100 z-0.1000
G1 x98.7590 y15.5100 z-0.1000
G1 x98.8890 y15.5500 z-0.1000
G1 x98.9190 y15.6800 z-0.1000
G1 x98.9190 y15.8100 z-0.1000
G1 x98.9190 y15.9400 z-0.1000
G1 x98.9190 y16.0700 z-0.1000
G1 x98.9190 y16.2000 z-0.1000
G1 x98.9190 y16.3300 z-0.1000
G1 x98.9190 y16.4600 z-0.1000
G1 x98.9190 y16.5900 z-0.1000
G1 x98.9190 y16.7200 z-0.1000
G1 x98.9190 y16.8500 z-0.1000
G1 x98.9190 y16.9800 z-0.1000
G1 x98.9190 y17.1100 z-0.1000
G1 x98.8790 y17.2400 z-0.1000
G1 x98.7490 y17.2700 z-0.1000
G1 x98.6190 y17.2700 z-0.1000
G1 x98.4890 y17.2700 z-0.1000
G1 x98.3590 y17.2700 z-0.1000
G1 x98.2290 y17.2700 z-0.1000
G1 x98.0990 y17.2700 z-0.1000
G1 x97.9690 y17.2700 z-0.1000
G1 x97.8390 y17.2700 z-0.1000
G1 x97.7090 y17.2700 z-0.1000
G1 x97.5790 y17.2700 z-0.1000
G1 x97.4490 y17.2700 z-0.1000
G1 x97.3190 y17.2700 z-0.1000
G1 x97.1890 y17.2700 z-0.1000
G1 x97.0590 y17.2700 z-0.1000
G1 x96.9290 y17.2700 z-0.1000
G1 x96.7990 y17.2700 z-0.1000
G1 x96.6790 y17.2300 z-0.1000
G0 z1.0000


G0 x94.1090 y17.1800
G0 z0.0000
F120.0000
G1 z-0.1000
F300.0000
G1 x94.1090 y17.0500 z-0.1000
G1 x94.1090 y16.9200 z-0.1000
G1 x94.1090 y16.7900 z-0.1000
G1 x94.1090 y16.6600 z-0.1000
G1 x94.1090 y16.5300 z-0.1000
G1 x94.1090 y16.4000 z-0.1000
G1 x94.1090 y16.2700 z-0.1000
G1 x94.1090 y16.1400 z-0.1000
G1 x94.1090 y16.0100 z-0.1000
G1 x94.1090 y15.8800 z-0.1000
G1 x94.1090 y15.7500 z-0.1000
G1 x94.1090 y15.6200 z-0.1000
G1 x94.1890 y15.5200 z-0.1000
G1 x94.3190 y15.5100 z-0.1000
G1 x94.4490 y15.5100 z-0.1000
G1 x94.5790 y15.5100 z-0.1000
G1 x94.6290 y15.3900 z-0.1000
G1 x94.6290 y15.2600 z-0.1000
G1 x94.6290 y15.1300 z-0.1000
G1 x94.6290 y15.0000 z-0.1000
G1 x94.6290 y14.8700 z-0.1000
G1 x94.6290 y14.7400 z-0.1000
G1 x94.6290 y14.6100 z-0.1000
G1 x94.6290 y14.4800 z-0.1000
G1 x94.6290 y14.3500 z-0.1000
G1 x94.5390 y14.2500 z-0.1000
G1 x94.4690 y14.1400 z-0.1000
G1 x94.4190 y14.0200 z-0.1000
G1 x94.3790 y13.9000 z-0.1000
G1 x94.3690 y13.7700 z-0.1000
G1 x94.3690 y13.6400 z-0.1000
G1 x94.3890 y13.5100 z-0.1000
G1 x94.4290 y13.3900 z-0.1000
G1 x94.4890 y13.2700 z-0.1000
G1 x94.5590 y13.1600 z-0.1000
G1 x94.6490 y13.0700 z-0.1000
G1 x94.7490 y12.9900 z-0.1000
G1 x94.8590 y12.9300 z-0.1000
G1 x94.9790 y12.8800 z-0.1000
G1 x95.1090 y12.8500 z-0.1000
G1 x95.2390 y12.8400 z-0.1000
G1 x95.3690 y12.8400 z-0.1000
G1 x95.4990 y12.8700 z-0.1000
G1 x95.6190 y12.9200 z-0.1000
G1 x95.7290 y12.9800 z-0.1000
G1 x95.8290 y13.0600 z-0.1000
G1 x95.9190 y13.1500 z-0.1000
G1 x95.9990 y13.2500 z-0.1000
G1 x96.0590 y13.3700 z-0.1000
G1 x96.0990 y13.4900 z-0.1000
G1 x96.1190 y13.6200 z-0.1000
G1 x96.1290 y13.7500 z-0.1000
G1 x96.1190 y13.8800 z-0.1000
G1 x96.0790 y14.0100 z-0.1000
G1 x96.0290 y14.1300 z-0.1000
G1 x95.9590 y14.2400 z-0.1000
G1 x95.8690 y14.3400 z-0.1000
G1 x95.8690 y14.4700 z-0.1000
G1 x95.8690 y14.6000 z-0.1000
G1 x95.8690 y14.7300 z-0.1000
G1 x95.8690 y14.8600 z-0.1000
G1 x95.8690 y14.9900 z-0.1000
G1 x95.8690 y15.1200 z-0.1000
G1 x95.8690 y15.2500 z-0.1000
G1 x95.8690 y15.3800 z-0.1000
G1 x95.8790 y15.5100 z-0.1000
G1 x96.0090 y15.5100 z-0.1000
G1 x96.1390 y15.5100 z-0.1000
G1 x96.2690 y15.5100 z-0.1000
G1 x96.3690 y15.5900 z-0.1000
G1 x96.3790 y15.7200 z-0.1000
G1 x96.3790 y15.8500 z-0.1000
G1 x96.3790 y15.9800 z-0.1000
G1 x96.3790 y16.1100 z-0.1000
G1 x96.3790 y16.2400 z-0.1000
G1 x96.3790 y16.3700 z-0.1000
G1 x96.3790 y16.5000 z-0.1000
G1 x96.3790 y16.6300 z-0.1000
G1 x96.3790 y16.7600 z-0.1000
G1 x96.3790 y16.8900 z-0.1000
G1 x96.3790 y17.0200 z-0.1000
G1 x96.3790 y17.1500 z-0.1000
G1 x96.3090 y17.2600 z-0.1000
G1 x96.1790 y17.2700 z-0.1000
G1 x96.0490 y17.2700 z-0.1000
G1 x95.9190 y17.2700 z-0.1000
G1 x95.7890 y17.2700 z-0.1000
G1 x95.6590 y17.2700 z-0.1000
G1 x95.5290 y17.2700 z-0.1000
G1 x95.3990 y17.2700 z-0.1000
G1 x95.2690 y17.2700 z-0.1000
G1 x95.1390 y17.2700 z-0.1000
G1 x95.0090 y17.2700 z-0.1000
G1 x94.8790 y17.2700 z-0.1000
G1 x94.7490 y17.2700 z-0.1000
G1 x94.6190 y17.2700 z-0.1000
G1 x94.4890 y17.2700 z-0.1000
G1 x94.3590 y17.2700 z-0.1000
G1 x94.2290 y17.2700 z-0.1000
G1 x94.1190 y17.2000 z-0.1000
G0 z1.0000


G0 x89.0290 y17.1800
G0 z0.0000
F120.0000
G1 z-0.1000
F300.0000
G1 x89.0290 y17.0500 z-0.1000
G1 x89.0290 y16.9200 z-0.1000
G1 x89.0290 y16.7900 z-0.1000
G1 x89.0290 y16.6600 z-0.1000
G1 x89.0290 y16.5300 z-0.1000
G1 x89.0290 y16.4000 z-0.1000
G1 x89.0290 y16.2700 z-0.1000
G1 x89.0290 y16.1400 z-0.1000
G1 x89.0290 y16.0100 z-0.1000
G1 x89.0290 y15.8800 z-0.1000
G1 x89.0290 y15.7500 z-0.1000
G1 x89.0290 y15.6200 z-0.1000
G1 x89.1090 y15.5200 z-0.1000
G1 x89.2390 y15.5100 z-0.1000
G1 x89.3690 y15.5100 z-0.1000
G1 x89.4990 y15.5100 z-0.1000
G1 x89.5490 y15.3900 z-0.1000
G1 x89.5490 y15.2600 z-0.1000
G1 x89.5490 y15.1300 z-0.1000
G1 x89.5490 y15.0000 z-0.1000
G1 x89.5490 y14.8700 z-0.1000
G1 x89.5490 y14.7400 z-0.1000
G1 x89.5490 y14.6100 z-0.1000
G1 x89.5490 y14.4800 z-0.1000
G1 x89.5490 y14.3500 z-0.1000
G1 x89.5490 y14.2200 z-0.1000
G1 x89.5490 y14.0900 z-0.1000
G1 x89.5490 y13.9600 z-0.1000
G1 x89.5490 y13.8300 z-0.1000
G1 x89.5490 y13.7000 z-0.1000
G1 x89.5590 y13.5700 z-0.1000
G1 x89.6090 y13.4500 z-0.1000
G1 x89.6790 y13.3400 z-0.1000
G1 x89.7690 y13.2400 z-0.1000
G1 x89.8590 y13.1500 z-0.1000
G1 x89.9490 y13.0600 z-0.1000
G1 x90.0390 y12.9700 z-0.1000
G1 x90.1290 y12.8800 z-0.1000
G1 x90.2190 y12.7900 z-0.1000
G1 x90.3090 y12.7000 z-0.1000
G1 x90.3990 y12.6100 z-0.1000
G1 x90.4890 y12.5200 z-0.1000
G1 x90.5790 y12.4300 z-0.1000
G1 x90.6690 y12.3400 z-0.1000
G1 x90.7590 y12.2500 z-0.1000
G1 x90.8490 y12.1600 z-0.1000
G1 x90.9390 y12.0700 z-0.1000
G1 x91.0290 y11.9800 z-0.1000
G1 x91.1390 y11.9100 z-0.1000
G1 x91.2590 y11.8500 z-0.1000
G1 x91.3890 y11.8300 z-0.1000
G1 x91.5190 y11.8300 z-0.1000
G1 x91.6490 y11.8600 z-0.1000
G1 x91.7590 y11.9200 z-0.1000
G1 x91.8690 y12.0000 z-0.1000
G1 x91.9490 y12.1000 z-0.1000
G1 x92.0590 y12.1600 z-0.1000
G1 x92.1890 y12.1600 z-0.1000
G1 x92.3190 y12.1600 z-0.1000
G1 x92.4490 y12.1600 z-0.1000
G1 x92.5790 y12.1600 z-0.1000
G1 x92.7090 y12.1600 z-0.1000
G1 x92.8390 y12.1600 z-0.1000
G1 x92.9690 y12.1600 z-0.1000
G1 x93.0990 y12.1600 z-0.1000
G1 x93.2290 y12.1600 z-0.1000
G1 x93.3590 y12.1600 z-0.1000
G1 x93.4690 y12.0900 z-0.1000
G1 x93.5590 y11.9900 z-0.1000
G1 x93.6490 y11.9000 z-0.1000
G1 x93.7390 y11.8100 z-0.1000
G1 x93.8290 y11.7200 z-0.1000
G1 x93.9190 y11.6300 z-0.1000
G1 x94.0090 y11.5400 z-0.1000
G1 x94.0990 y11.4500 z-0.1000
G1 x94.1890 y11.3600 z-0.1000
G1 x94.2790 y11.2700 z-0.1000
G1 x94.3590 y11.1700 z-0.1000
G1 x94.3690 y11.0400 z-0.1000
G1 x94.3990 y10.9100 z-0.1000
G1 x94.4490 y10.7900 z-0.1000
G1 x94.5190 y10.6800 z-0.1000
G1 x94.5990 y10.5800 z-0.1000
G1 x94.6890 y10.4900 z-0.1000
G1 x94.7990 y10.4200 z-0.1000
G1 x94.9090 y10.3600 z-0.1000
G1 x95.0290 y10.3200 z-0.1000
G1 x95.1590 y10.3000 z-0.1000
G1 x95.2890 y10.3000 z-0.1000
G1 x95.4190 y10.3100 z-0.1000
G1 x95.5390 y10.3500 z-0.1000
G1 x95.6590 y10.4000 z-0.1000
G1 x95.7690 y10.4700 z-0.1000
G1 x95.8690 y10.5500 z-0.1000
G1 x95.9590 y10.6500 z-0.1000
G1 x96.0190 y10.7600 z-0.1000
G1 x96.0790 y10.8700 z-0.1000
G1 x96.1090 y11.0000 z-0.1000
G1 x96.1290 y11.1300 z-0.1000
G1 x96.1290 y11.2600 z-0.1000
G1 x96.1090 y11.3900 z-0.1000
G1 x96.0690 y11.5100 z-0.1000
G1 x96.0090 y11.6200 z-0.1000
G1 x95.9390 y11.7300 z-0.1000
G1 x95.8490 y11.8200 z-0.1000
G1 x95.7490 y11.9100 z-0.1000
G1 x95.6390 y11.9700 z-0.1000
G1 x95.5190 y12.0200 z-0.1000
G1 x95.3890 y12.0500 z-0.1000
G1 x95.2590 y12.0600 z-0.1000
G1 x95.1590 y12.1400 z-0.1000
G1 x95.0690 y12.2300 z-0.1000
G1 x94.9790 y12.3200 z-0.1000
G1 x94.8890 y12.4100 z-0.1000
G1 x94.7990 y12.5000 z-0.1000
G1 x94.7090 y12.5900 z-0.1000
G1 x94.6190 y12.6800 z-0.1000
G1 x94.5290 y12.7700 z-0.1000
G1 x94.4390 y12.8600 z-0.1000
G1 x94.3490 y12.9500 z-0.1000
G1 x94.2390 y13.0100 z-0.1000
G1 x94.1190 y13.0600 z-0.1000
G1 x93.9890 y13.0700 z-0.1000
G1 x93.8590 y13.0600 z-0.1000
G1 x93.7390 y13.0200 z-0.1000
G1 x93.6190 y12.9600 z-0.1000
G1 x93.5190 y12.8700 z-0.1000
G1 x93.4390 y12.7600 z-0.1000
G1 x93.3090 y12.7500 z-0.1000
G1 x93.1790 y12.7500 z-0.1000
G1 x93.0490 y12.7500 z-0.1000
G1 x92.9190 y12.7500 z-0.1000
G1 x92.7890 y12.7500 z-0.1000
G1 x92.6590 y12.7500 z-0.1000
G1 x92.5290 y12.7500 z-0.1000
G1 x92.3990 y12.7500 z-0.1000
G1 x92.2690 y12.7500 z-0.1000
G1 x92.1390 y12.7500 z-0.1000
G1 x92.0090 y12.7500 z-0.1000
G1 x91.9190 y12.8400 z-0.1000
G1 x91.8290 y12.9300 z-0.1000
G1 x91.7390 y13.0200 z-0.1000
G1 x91.6490 y13.1100 z-0.1000
G1 x91.5590 y13.2000 z-0.1000
G1 x91.4690 y13.2900 z-0.1000
G1 x91.3790 y13.3800 z-0.1000
G1 x91.2890 y13.4700 z-0.1000
G1 x91.1990 y13.5600 z-0.1000
G1 x91.1090 y13.6500 z-0.1000
G1 x91.0190 y13.7400 z-0.1000
G1 x90.9290 y13.8300 z-0.1000
G1 x90.8390 y13.9200 z-0.1000
G1 x90.7890 y14.0400 z-0.1000
G1 x90.7890 y14.1700 z-0.1000
G1 x90.7890 y14.3000 z-0.1000
G1 x90.7890 y14.4300 z-0.1000
G1 x90.7890 y14.5600 z-0.1000
G1 x90.7890 y14.6900 z-0.1000
G1 x90.7890 y14.8200 z-0.1000
G1 x90.7890 y14.9500 z-0.1000
G1 x90.7890 y15.0800 z-0.1000
G1 x90.7890 y15.2100 z-0.1000
G1 x90.7890 y15.3400 z-0.1000
G1 x90.7890 y15.4700 z-0.1000
G1 x90.9090 y15.5100 z-0.1000
G1 x91.0390 y15.5100 z-0.1000
G1 x91.1690 y15.5100 z-0.1000
G1 x91.2790 y15.5700 z-0.1000
G1 x91.2990 y15.7000 z-0.1000
G1 x91.2990 y15.8300 z-0.1000
G1 x91.2990 y15.9600 z-0.1000
G1 x91.2990 y16.0900 z-0.1000
G1 x91.2990 y16.2200 z-0.1000
G1 x91.2990 y16.3500 z-0.1000
G1 x91.2990 y16.4800 z-0.1000
G1 x91.2990 y16.6100 z-0.1000
G1 x91.2990 y16.7400 z-0.1000
G1 x91.2990 y16.8700 z-0.1000
G1 x91.2990 y17.0000 z-0.1000
G1 x91.2990 y17.1300 z-0.1000
G1 x91.2490 y17.2500 z-0.1000
G1 x91.1190 y17.2700 z-0.1000
G1 x90.9890 y17.2700 z-0.1000
G1 x90.8590 y17.2700 z-0.1000
G1 x90.7290 y17.2700 z-0.1000
G1 x90.5990 y17.2700 z-0.1000
G1 x90.4690 y17.2700 z-0.1000
G1 x90.3390 y17.2700 z-0.1000
G1 x90.2090 y17.2700 z-0.1000
G1 x90.0790 y17.2700 z-0.1000
G1 x89.9490 y17.2700 z-0.1000
G1 x89.8190 y17.2700 z-0.1000
G1 x89.6890 y17.2700 z-0.1000
G1 x89.5590 y17.2700 z-0.1000
G1 x89.4290 y17.2700 z-0.1000
G1 x89.2990 y17.2700 z-0.1000
G1 x89.1690 y17.2700 z-0.1000
G1 x89.0490 y17.2200 z-0.1000
G0 z1.0000


G0 x89.0290 y22.7680
G0 z0.0000
F120.0000
G1 z-0.1000
F300.0000
G1 x89.0290 y22.6380 z-0.1000
G1 x89.0290 y22.5080 z-0.1000
G1 x89.0290 y22.3780 z-0.1000
G1 x89.0290 y22.2480 z-0.1000
G1 x89.0290 y22.1180 z-0.1000
G1 x89.0290 y21.9880 z-0.1000
G1 x89.0290 y21.8580 z-0.1000
G1 x89.0290 y21.7280 z-0.1000
G1 x89.0290 y21.5980 z-0.1000
G1 x89.0290 y21.4680 z-0.1000
G1 x89.0290 y21.3380 z-0.1000
G1 x89.0290 y21.2080 z-0.1000
G1 x89.1090 y21.1080 z-0.1000
G1 x89.2390 y21.0980 z-0.1000
G1 x89.3690 y21.0980 z-0.1000
G1 x89.4990 y21.0980 z-0.1000
G1 x89.5490 y20.9780 z-0.1000
G1 x89.5490 y20.8480 z-0.1000
G1 x89.5490 y20.7180 z-0.1000
G1 x89.5490 y20.5880 z-0.1000
G1 x89.4190 y20.5680 z-0.1000
G1 x89.2890 y20.5680 z-0.1000
G1 x89.1590 y20.5680 z-0.1000
G1 x89.0490 y20.5080 z-0.1000
G1 x89.0290 y20.3780 z-0.1000
G1 x89.0290 y20.2480 z-0.1000
G1 x89.0290 y20.1180 z-0.1000
G1 x89.0290 y19.9880 z-0.1000
G1 x89.0290 y19.8580 z-0.1000
G1 x89.0290 y19.7280 z-0.1000
G1 x89.0290 y19.5980 z-0.1000
G1 x89.0290 y19.4680 z-0.1000
G1 x89.0290 y19.3380 z-0.1000
G1 x89.0290 y19.2080 z-0.1000
G1 x89.0290 y19.0780 z-0.1000
G1 x89.0290 y18.9480 z-0.1000
G1 x89.0790 y18.8280 z-0.1000
G1 x89.2090 y18.8080 z-0.1000
G1 x89.3390 y18.8080 z-0.1000
G1 x89.4690 y18.8080 z-0.1000
G1 x89.5990 y18.8080 z-0.1000
G1 x89.7290 y18.8080 z-0.1000
G1 x89.8590 y18.8080 z-0.1000
G1 x89.9890 y18.8080 z-0.1000
G1 x90.1190 y18.8080 z-0.1000
G1 x90.2490 y18.8080 z-0.1000
G1 x90.3790 y18.8080 z-0.1000
G1 x90.5090 y18.8080 z-0.1000
G1 x90.6390 y18.8080 z-0.1000
G1 x90.7690 y18.8080 z-0.1000
G1 x90.8990 y18.8080 z-0.1000
G1 x91.0290 y18.8080 z-0.1000
G1 x91.1590 y18.8080 z-0.1000
G1 x91.2790 y18.8580 z-0.1000
G1 x91.2990 y18.9880 z-0.1000
G1 x91.2990 y19.1180 z-0.1000
G1 x91.2990 y19.2480 z-0.1000
G1 x91.2990 y19.3780 z-0.1000
G1 x91.2990 y19.5080 z-0.1000
G1 x91.2990 y19.6380 z-0.1000
G1 x91.2990 y19.7680 z-0.1000
G1 x91.2990 y19.8980 z-0.1000
G1 x91.2990 y20.0280 z-0.1000
G1 x91.2990 y20.1580 z-0.1000
G1 x91.2990 y20.2880 z-0.1000
G1 x91.2990 y20.4180 z-0.1000
G1 x91.2590 y20.5380 z-0.1000
G1 x91.1290 y20.5680 z-0.1000
G1 x90.9990 y20.5680 z-0.1000
G1 x90.8690 y20.5680 z-0.1000
G1 x90.7890 y20.6680 z-0.1000
G1 x90.7890 y20.7980 z-0.1000
G1 x90.7890 y20.9280 z-0.1000
G1 x90.7890 y21.0580 z-0.1000
G1 x90.9090 y21.0980 z-0.1000
G1 x91.0390 y21.0980 z-0.1000
G1 x91.1690 y21.0980 z-0.1000
G1 x91.2790 y21.1580 z-0.1000
G1 x91.2990 y21.2880 z-0.1000
G1 x91.2990 y21.4180 z-0.1000
G1 x91.2990 y21.5480 z-0.1000
G1 x91.2990 y21.6780 z-0.1000
G1 x91.2990 y21.8080 z-0.1000
G1 x91.2990 y21.9380 z-0.1000
G1 x91.2990 y22.0680 z-0.1000
G1 x91.2990 y22.1980 z-0.1000
G1 x91.2990 y22.3280 z-0.1000
G1 x91.2990 y22.4580 z-0.1000
G1 x91.2990 y22.5880 z-0.1000
G1 x91.2990 y22.7180 z-0.1000
G1 x91.2490 y22.8380 z-0.1000
G1 x91.1190 y22.8580 z-0.1000
G1 x90.9890 y22.8580 z-0.1000
G1 x90.8590 y22.8580 z-0.1000
G1 x90.7290 y22.8580 z-0.1000
G1 x90.5990 y22.8580 z-0.1000
G1 x90.4690 y22.8580 z-0.1000
G1 x90.3390 y22.8580 z-0.1000
G1 x90.2090 y22.8580 z-0.1000
G1 x90.0790 y22.8580 z-0.1000
G1 x89.9490 y22.8580 z-0.1000
G1 x89.8190 y22.8580 z-0.1000
G1 x89.6890 y22.8580 z-0.1000
G1 x89.5590 y22.8580 z-0.1000
G1 x89.4290 y22.8580 z-0.1000
G1 x89.2990 y22.8580 z-0.1000
G1 x89.1690 y22.8580 z-0.1000
G1 x89.0490 y22.8080 z-0.1000
G0 z1.0000


G0 x91.6211 y24.5828
G0 z0.0000
F120.0000
G1 z-0.1000
F300.0000
G1 x91.6211 y24.4528 z-0.1000
G1 x91.6211 y24.3228 z-0.1000
G1 x91.6211 y24.1928 z-0.1000
G1 x91.6211 y24.0628 z-0.1000
G1 x91.6211 y23.9328 z-0.1000
G1 x91.6211 y23.8028 z-0.1000
G1 x91.6211 y23.6728 z-0.1000
G1 x91.6211 y23.5428 z-0.1000
G1 x91.6211 y23.4128 z-0.1000
G1 x91.6211 y23.2828 z-0.1000
G1 x91.6211 y23.1528 z-0.1000
G1 x91.6211 y23.0228 z-0.1000
G1 x91.7111 y22.9328 z-0.1000
G1 x91.8411 y22.9328 z-0.1000
G1 x91.9711 y22.9328 z-0.1000
G1 x92.0811 y22.8728 z-0.1000
G1 x92.0811 y22.7428 z-0.1000
G1 x92.0811 y22.6128 z-0.1000
G1 x92.0811 y22.4828 z-0.1000
G1 x92.0811 y22.3528 z-0.1000
G1 x92.0811 y22.2228 z-0.1000
G1 x92.0811 y22.0928 z-0.1000
G1 x92.0811 y21.9628 z-0.1000
G1 x92.0811 y21.8328 z-0.1000
G1 x92.0811 y21.7028 z-0.1000
G1 x92.0811 y21.5728 z-0.1000
G1 x92.0811 y21.4428 z-0.1000
G1 x92.0811 y21.3128 z-0.1000
G1 x92.0811 y21.1828 z-0.1000
G1 x92.0811 y21.0528 z-0.1000
G1 x92.0811 y20.9228 z-0.1000
G1 x92.0811 y20.7928 z-0.1000
G1 x92.0811 y20.6628 z-0.1000
G1 x92.0811 y20.5328 z-0.1000
G1 x92.0811 y20.4028 z-0.1000
G1 x92.0811 y20.2728 z-0.1000
G1 x92.0811 y20.1428 z-0.1000
G1 x92.0811 y20.0128 z-0.1000
G1 x92.0811 y19.8828 z-0.1000
G1 x92.0811 y19.7528 z-0.1000
G1 x92.0811 y19.6228 z-0.1000
G1 x92.0811 y19.4928 z-0.1000
G1 x92.0811 y19.3628 z-0.1000
G1 x92.0811 y19.2328 z-0.1000
G1 x92.0811 y19.1028 z-0.1000
G1 x92.0811 y18.9728 z-0.1000
G1 x92.0811 y18.8428 z-0.1000
G1 x92.0811 y18.7128 z-0.1000
G1 x92.0811 y18.5828 z-0.1000
G1 x92.0811 y18.4528 z-0.1000
G1 x92.0811 y18.3228 z-0.1000
G1 x92.0811 y18.1928 z-0.1000
G1 x92.0811 y18.0628 z-0.1000
G1 x92.0811 y17.9328 z-0.1000
G1 x92.0811 y17.8028 z-0.1000
G1 x92.0811 y17.6728 z-0.1000
G1 x92.0811 y17.5428 z-0.1000
G1 x92.0811 y17.4128 z-0.1000
G1 x92.0811 y17.2828 z-0.1000
G1 x92.0811 y17.1528 z-0.1000
G1 x92.0811 y17.0228 z-0.1000
G1 x92.0811 y16.8928 z-0.1000
G1 x92.0811 y16.7628 z-0.1000
G1 x92.0811 y16.6328 z-0.1000
G1 x92.0811 y16.5028 z-0.1000
G1 x92.0811 y16.3728 z-0.1000
G1 x92.0811 y16.2428 z-0.1000
G1 x92.0811 y16.1128 z-0.1000
G1 x92.0811 y15.9828 z-0.1000
G1 x92.0811 y15.8528 z-0.1000
G1 x92.0811 y15.7228 z-0.1000
G1 x92.0811 y15.5928 z-0.1000
G1 x92.0811 y15.4628 z-0.1000
G1 x92.0811 y15.3328 z-0.1000
G1 x92.0811 y15.2028 z-0.1000
G1 x92.0811 y15.0728 z-0.1000
G1 x92.0811 y14.9428 z-0.1000
G1 x92.0811 y14.8128 z-0.1000
G1 x92.0811 y14.6828 z-0.1000
G1 x92.0811 y14.5528 z-0.1000
G1 x92.0811 y14.4228 z-0.1000
G1 x92.0411 y14.3028 z-0.1000
G1 x91.9611 y14.1928 z-0.1000
G1 x91.9011 y14.0828 z-0.1000
G1 x91.8511 y13.9628 z-0.1000
G1 x91.8311 y13.8328 z-0.1000
G1 x91.8211 y13.7028 z-0.1000
G1 x91.8311 y13.5728 z-0.1000
G1 x91.8611 y13.4428 z-0.1000
G1 x91.9211 y13.3228 z-0.1000
G1 x91.9811 y13.2128 z-0.1000
G1 x92.0611 y13.1128 z-0.1000
G1 x92.1611 y13.0228 z-0.1000
G1 x92.2711 y12.9528 z-0.1000
G1 x92.3911 y12.8928 z-0.1000
G1 x92.5111 y12.8528 z-0.1000
G1 x92.6411 y12.8428 z-0.1000
G1 x92.7711 y12.8428 z-0.1000
G1 x92.9011 y12.8528 z-0.1000
G1 x93.0211 y12.8928 z-0.1000
G1 x93.1411 y12.9528 z-0.1000
G1 x93.2511 y13.0228 z-0.1000
G1 x93.3511 y13.1128 z-0.1000
G1 x93.4311 y13.2128 z-0.1000
G1 x93.4911 y13.3228 z-0.1000
G1 x93.5511 y13.4428 z-0.1000
G1 x93.5811 y13.5728 z-0.1000
G1 x93.5911 y13.7028 z-0.1000
G1 x93.5811 y13.8328 z-0.1000
G1 x93.5611 y13.9628 z-0.1000
G1 x93.5111 y14.0828 z-0.1000
G1 x93.4511 y14.1928 z-0.1000
G1 x93.3711 y14.3028 z-0.1000
G1 x93.3211 y14.4228 z-0.1000
G1 x93.3211 y14.5528 z-0.1000
G1 x93.3211 y14.6828 z-0.1000
G1 x93.3211 y14.8128 z-0.1000
G1 x93.3211 y14.9428 z-0.1000
G1 x93.3211 y15.0728 z-0.1000
G1 x93.3211 y15.2028 z-0.1000
G1 x93.3211 y15.3328 z-0.1000
G1 x93.3211 y15.4628 z-0.1000
G1 x93.3211 y15.5928 z-0.1000
G1 x93.3211 y15.7228 z-0.1000
G1 x93.3211 y15.8528 z-0.1000
G1 x93.3211 y15.9828 z-0.1000
G1 x93.3211 y16.1128 z-0.1000
G1 x93.3211 y16.2428 z-0.1000
G1 x93.3211 y16.3728 z-0.1000
G1 x93.3211 y16.5028 z-0.1000
G1 x93.3211 y16.6328 z-0.1000
G1 x93.3211 y16.7628 z-0.1000
G1 x93.3211 y16.8928 z-0.1000
G1 x93.3211 y17.0228 z-0.1000
G1 x93.3211 y17.1528 z-0.1000
G1 x93.3211 y17.2828 z-0.1000
G1 x93.3211 y17.4128 z-0.1000
G1 x93.3211 y17.5428 z-0.1000
G1 x93.3211 y17.6728 z-0.1000
G1 x93.3211 y17.8028 z-0.1000
G1 x93.3211 y17.9328 z-0.1000
G1 x93.3211 y18.0628 z-0.1000
G1 x93.3211 y18.1928 z-0.1000
G1 x93.3211 y18.3228 z-0.1000
G1 x93.3211 y18.4528 z-0.1000
G1 x93.3211 y18.5828 z-0.1000
G1 x93.3211 y18.7128 z-0.1000
G1 x93.3211 y18.8428 z-0.1000
G1 x93.3211 y18.9728 z-0.1000
G1 x93.3211 y19.1028 z-0.1000
G1 x93.3211 y19.2328 z-0.1000
G1 x93.3211 y19.3628 z-0.1000
G1 x93.3211 y19.4928 z-0.1000
G1 x93.3211 y19.6228 z-0.1000
G1 x93.3211 y19.7528 z-0.1000
G1 x93.3211 y19.8828 z-0.1000
G1 x93.3211 y20.0128 z-0.1000
G1 x93.3211 y20.1428 z-0.1000
G1 x93.3211 y20.2728 z-0.1000
G1 x93.3211 y20.4028 z-0.1000
G1 x93.3211 y20.5328 z-0.1000
G1 x93.3211 y20.6628 z-0.1000
G1 x93.3211 y20.7928 z-0.1000
G1 x93.3211 y20.9228 z-0.1000
G1 x93.3211 y21.0528 z-0.1000
G1 x93.3211 y21.1828 z-0.1000
G1 x93.3211 y21.3128 z-0.1000
G1 x93.3211 y21.4428 z-0.1000
G1 x93.3211 y21.5728 z-0.1000
G1 x93.3211 y21.7028 z-0.1000
G1 x93.3211 y21.8328 z-0.1000
G1 x93.3211 y21.9628 z-0.1000
G1 x93.3211 y22.0928 z-0.1000
G1 x93.3211 y22.2228 z-0.1000
G1 x93.3211 y22.3528 z-0.1000
G1 x93.3211 y22.4828 z-0.1000
G1 x93.3211 y22.6128 z-0.1000
G1 x93.3211 y22.7428 z-0.1000
G1 x93.3211 y22.8728 z-0.1000
G1 x93.4311 y22.9328 z-0.1000
G1 x93.5611 y22.9328 z-0.1000
G1 x93.6611 y23.0228 z-0.1000
G1 x93.6611 y23.1528 z-0.1000
G1 x93.6611 y23.2828 z-0.1000
G1 x93.6611 y23.4128 z-0.1000
G1 x93.6611 y23.5428 z-0.1000
G1 x93.6611 y23.6728 z-0.1000
G1 x93.6611 y23.8028 z-0.1000
G1 x93.6611 y23.9328 z-0.1000
G1 x93.6611 y24.0628 z-0.1000
G1 x93.6611 y24.1928 z-0.1000
G1 x93.6611 y24.3228 z-0.1000
G1 x93.6611 y24.4528 z-0.1000
G1 x93.6611 y24.5828 z-0.1000
G1 x93.5711 y24.6728 z-0.1000
G1 x93.4411 y24.6728 z-0.1000
G1 x93.3111 y24.6728 z-0.1000
G1 x93.1811 y24.6728 z-0.1000
G1 x93.0511 y24.6728 z-0.1000
G1 x92.9211 y24.6728 z-0.1000
G1 x92.7911 y24.6728 z-0.1000
G1 x92.6611 y24.6728 z-0.1000
G1 x92.5311 y24.6728 z-0.1000
G1 x92.4011 y24.6728 z-0.1000
G1 x92.2711 y24.6728 z-0.1000
G1 x92.1411 y24.6728 z-0.1000
G1 x92.0111 y24.6728 z-0.1000
G1 x91.8811 y24.6728 z-0.1000
G1 x91.7511 y24.6728 z-0.1000
G1 x91.6411 y24.6128 z-0.1000
G0 z1.0000


G0 x94.1090 y22.7680
G0 z0.0000
F120.0000
G1 z-0.1000
F300.0000
G1 x94.1090 y22.6380 z-0.1000
G1 x94.1090 y22.5080 z-0.1000
G1 x94.1090 y22.3780 z-0.1000
G1 x94.1090 y22.2480 z-0.1000
G1 x94.1090 y22.1180 z-0.1000
G1 x94.1090 y21.9880 z-0.1000
G1 x94.1090 y21.8580 z-0.1000
G1 x94.1090 y21.7280 z-0.1000
G1 x94.1090 y21.5980 z-0.1000
G1 x94.1090 y21.4680 z-0.1000
G1 x94.1090 y21.3380 z-0.1000
G1 x94.1090 y21.2080 z-0.1000
G1 x94.1890 y21.1080 z-0.1000
G1 x94.3190 y21.0980 z-0.1000
G1 x94.4490 y21.0980 z-0.1000
G1 x94.5790 y21.0980 z-0.1000
G1 x94.6290 y20.9780 z-0.1000
G1 x94.6290 y20.8480 z-0.1000
G1 x94.6290 y20.7180 z-0.1000
G1 x94.6290 y20.5880 z-0.1000
G1 x94.4990 y20.5680 z-0.1000
G1 x94.3690 y20.5680 z-0.1000
G1 x94.2390 y20.5680 z-0.1000
G1 x94.1290 y20.5080 z-0.1000
G1 x94.1090 y20.3780 z-0.1000
G1 x94.1090 y20.2480 z-0.1000
G1 x94.1090 y20.1180 z-0.1000
G1 x94.1090 y19.9880 z-0.1000
G1 x94.1090 y19.8580 z-0.1000
G1 x94.1090 y19.7280 z-0.1000
G1 x94.1090 y19.5980 z-0.1000
G1 x94.1090 y19.4680 z-0.1000
G1 x94.1090 y19.3380 z-0.1000
G1 x94.1090 y19.2080 z-0.1000
G1 x94.1090 y19.0780 z-0.1000
G1 x94.1090 y18.9480 z-0.1000
G1 x94.1590 y18.8280 z-0.1000
G1 x94.2890 y18.8080 z-0.1000
G1 x94.4190 y18.8080 z-0.1000
G1 x94.5490 y18.8080 z-0.1000
G1 x94.6790 y18.8080 z-0.1000
G1 x94.8090 y18.8080 z-0.1000
G1 x94.9390 y18.8080 z-0.1000
G1 x95.0690 y18.8080 z-0.1000
G1 x95.1990 y18.8080 z-0.1000
G1 x95.3290 y18.8080 z-0.1000
G1 x95.4590 y18.8080 z-0.1000
G1 x95.5890 y18.8080 z-0.1000
G1 x95.7190 y18.8080 z-0.1000
G1 x95.8490 y18.8080 z-0.1000
G1 x95.9790 y18.8080 z-0.1000
G1 x96.1090 y18.8080 z-0.1000
G1 x96.2390 y18.8080 z-0.1000
G1 x96.3590 y18.8580 z-0.1000
G1 x96.3790 y18.9880 z-0.1000
G1 x96.3790 y19.1180 z-0.1000
G1 x96.3790 y19.2480 z-0.1000
G1 x96.3790 y19.3780 z-0.1000
G1 x96.3790 y19.5080 z-0.1000
G1 x96.3790 y19.6380 z-0.1000
G1 x96.3790 y19.7680 z-0.1000
G1 x96.3790 y19.8980 z-0.1000
G1 x96.3790 y20.0280 z-0.1000
G1 x96.3790 y20.1580 z-0.1000
G1 x96.3790 y20.2880 z-0.1000
G1 x96.3790 y20.4180 z-0.1000
G1 x96.3390 y20.5380 z-0.1000
G1 x96.2090 y20.5680 z-0.1000
G1 x96.0790 y20.5680 z-0.1000
G1 x95.9490 y20.5680 z-0.1000
G1 x95.8690 y20.6680 z-0.1000
G1 x95.8690 y20.7980 z-0.1000
G1 x95.8690 y20.9280 z-0.1000
G1 x95.8690 y21.0580 z-0.1000
G1 x95.9890 y21.0980 z-0.1000
G1 x96.1190 y21.0980 z-0.1000
G1 x96.2490 y21.0980 z-0.1000
G1 x96.3590 y21.1580 z-0.1000
G1 x96.3790 y21.2880 z-0.1000
G1 x96.3790 y21.4180 z-0.1000
G1 x96.3790 y21.5480 z-0.1000
G1 x96.3790 y21.6780 z-0.1000
G1 x96.3790 y21.8080 z-0.1000
G1 x96.3790 y21.9380 z-0.1000
G1 x96.3790 y22.0680 z-0.1000
G1 x96.3790 y22.1980 z-0.1000
G1 x96.3790 y22.3280 z-0.1000
G1 x96.3790 y22.4580 z-0.1000
G1 x96.3790 y22.5880 z-0.1000
G1 x96.3790 y22.7180 z-0.1000
G1 x96.3290 y22.8380 z-0.1000
G1 x96.1990 y22.8580 z-0.1000
G1 x96.0690 y22.8580 z-0.1000
G1 x95.9390 y22.8580 z-0.1000
G1 x95.8090 y22.8580 z-0.1000
G1 x95.6790 y22.8580 z-0.1000
G1 x95.5490 y22.8580 z-0.1000
G1 x95.4190 y22.8580 z-0.1000
G1 x95.2890 y22.8580 z-0.1000
G1 x95.1590 y22.8580 z-0.1000
G1 x95.0290 y22.8580 z-0.1000
G1 x94.8990 y22.8580 z-0.1000
G1 x94.7690 y22.8580 z-0.1000
G1 x94.6390 y22.8580 z-0.1000
G1 x94.5090 y22.8580 z-0.1000
G1 x94.3790 y22.8580 z-0.1000
G1 x94.2490 y22.8580 z-0.1000
G1 x94.1290 y22.8080 z-0.1000
G0 z1.0000


G0 x96.6490 y22.7680
G0 z0.0000
F120.0000
G1 z-0.1000
F300.0000
G1 x96.6490 y22.6380 z-0.1000
G1 x96.6490 y22.5080 z-0.1000
G1 x96.6490 y22.3780 z-0.1000
G1 x96.6490 y22.2480 z-0.1000
G1 x96.6490 y22.1180 z-0.1000
G1 x96.6490 y21.9880 z-0.1000
G1 x96.6490 y21.8580 z-0.1000
G1 x96.6490 y21.7280 z-0.1000
G1 x96.6490 y21.5980 z-0.1000
G1 x96.6490 y21.4680 z-0.1000
G1 x96.6490 y21.3380 z-0.1000
G1 x96.6490 y21.2080 z-0.1000
G1 x96.7290 y21.1080 z-0.1000
G1 x96.8590 y21.0980 z-0.1000
G1 x96.9890 y21.0980 z-0.1000
G1 x97.1190 y21.0980 z-0.1000
G1 x97.1690 y20.9780 z-0.1000
G1 x97.1690 y20.8480 z-0.1000
G1 x97.1690 y20.7180 z-0.1000
G1 x97.1690 y20.5880 z-0.1000
G1 x97.0390 y20.5680 z-0.1000
G1 x96.9090 y20.5680 z-0.1000
G1 x96.7790 y20.5680 z-0.1000
G1 x96.6690 y20.5080 z-0.1000
G1 x96.6490 y20.3780 z-0.1000
G1 x96.6490 y20.2480 z-0.1000
G1 x96.6490 y20.1180 z-0.1000
G1 x96.6490 y19.9880 z-0.1000
G1 x96.6490 y19.8580 z-0.1000
