(G-Code for Milling a PCB)
(Generated with CopperField)
(Date: 04.02.2015    Time: 10:41:34)

(All units in Millimeters)

(Cutter Diameter: 0.25 mm)
(Cutter z-Depth: -0.1 mm)
(Cutter z-Clearance: 1 mm)
(Mill Feedrate: 5 mm/s)
(Plunge Feedrate: 2 mm/s)



G0 x24.9301 y7.7292
G0 z0.0000
F120.0000
G1 z-0.1000
F300.0000
G1 x26.2865 y8.5268 z-0.1000
G0 z1.0000


G0 x19.0415 y21.7715
G0 z0.0000
F120.0000
G1 z-0.1000
F300.0000
G1 x19.0415 y21.5015 z-0.1000
G1 x19.0415 y21.2315 z-0.1000
G1 x19.0415 y20.9615 z-0.1000
G1 x19.0415 y20.6915 z-0.1000
G1 x19.0415 y20.4215 z-0.1000
G1 x19.0415 y20.1515 z-0.1000
G1 x19.2215 y19.9415 z-0.1000
G1 x19.4915 y19.9315 z-0.1000
G1 x19.7615 y19.9315 z-0.1000
G1 x20.0315 y19.9315 z-0.1000
G1 x20.3015 y19.9315 z-0.1000
G1 x20.5715 y19.9315 z-0.1000
G1 x20.8415 y19.9315 z-0.1000
G1 x21.1115 y19.9315 z-0.1000
G1 x21.3815 y19.9315 z-0.1000
G1 x21.5815 y20.1115 z-0.1000
G1 x21.5915 y20.3815 z-0.1000
G1 x21.5915 y20.6515 z-0.1000
G1 x21.5915 y20.9215 z-0.1000
G1 x21.5915 y21.1915 z-0.1000
G1 x21.5915 y21.4615 z-0.1000
G1 x21.5915 y21.7315 z-0.1000
G1 x21.5215 y21.9915 z-0.1000
G1 x21.5215 y22.2615 z-0.1000
G1 x21.5915 y22.5215 z-0.1000
G1 x21.5915 y22.7915 z-0.1000
G1 x21.5915 y23.0615 z-0.1000
G1 x21.5915 y23.3315 z-0.1000
G1 x21.5915 y23.6015 z-0.1000
G1 x21.5615 y23.8715 z-0.1000
G1 x21.3315 y24.0115 z-0.1000
G1 x21.0615 y24.0115 z-0.1000
G1 x20.7915 y23.9715 z-0.1000
G1 x20.6715 y23.7315 z-0.1000
G1 x20.6715 y23.4615 z-0.1000
G1 x20.6715 y23.1915 z-0.1000
G1 x20.6715 y22.9215 z-0.1000
G1 x20.6715 y22.6515 z-0.1000
G1 x20.6915 y22.3815 z-0.1000
G1 x20.7515 y22.1215 z-0.1000
G1 x20.5215 y21.9815 z-0.1000
G1 x20.2515 y21.9815 z-0.1000
G1 x19.9815 y21.9815 z-0.1000
G1 x19.7115 y21.9815 z-0.1000
G1 x19.4415 y21.9815 z-0.1000
G1 x19.1715 y21.9515 z-0.1000
G0 z1.0000


G0 x20.0575 y30.9135
G0 z0.0000
F120.0000
G1 z-0.1000
F300.0000
G1 x20.0575 y30.6435 z-0.1000
G1 x20.0575 y30.3735 z-0.1000
G1 x20.0575 y30.1035 z-0.1000
G1 x20.0575 y29.8335 z-0.1000
G1 x20.0575 y29.5635 z-0.1000
G1 x20.2175 y29.3535 z-0.1000
G1 x20.4875 y29.3335 z-0.1000
G1 x20.7575 y29.3335 z-0.1000
G1 x20.9675 y29.4935 z-0.1000
G1 x20.9875 y29.7635 z-0.1000
G1 x20.9875 y30.0335 z-0.1000
G1 x20.9875 y30.3035 z-0.1000
G1 x20.9875 y30.5735 z-0.1000
G1 x20.9875 y30.8435 z-0.1000
G1 x20.8675 y31.0835 z-0.1000
G1 x20.6075 y31.1235 z-0.1000
G1 x20.3375 y31.1235 z-0.1000
G1 x20.0975 y31.0035 z-0.1000
G0 z1.0000


G0 x61.1048 y4.5745
G0 z0.0000
F120.0000
G1 z-0.1000
F300.0000
G1 x61.1048 y6.6065 z-0.1000
G0 z1.0000


G0 x57.6533 y17.8538
G0 z0.0000
F120.0000
G1 z-0.1000
F300.0000
G1 x57.6933 y17.5938 z-0.1000
G1 x57.8433 y17.3738 z-0.1000
G1 x58.0333 y17.1838 z-0.1000
G1 x58.2233 y16.9938 z-0.1000
G1 x58.4133 y16.8038 z-0.1000
G1 x58.6033 y16.6138 z-0.1000
G1 x58.7933 y16.4238 z-0.1000
G1 x58.9833 y16.2338 z-0.1000
G1 x59.1733 y16.0438 z-0.1000
G1 x59.3633 y15.8538 z-0.1000
G1 x59.5533 y15.6638 z-0.1000
G1 x59.7433 y15.4738 z-0.1000
G1 x59.9333 y15.2838 z-0.1000
G1 x60.1233 y15.0938 z-0.1000
G1 x60.3133 y14.9038 z-0.1000
G1 x60.5333 y14.7538 z-0.1000
G1 x60.8033 y14.7338 z-0.1000
G1 x61.0733 y14.7338 z-0.1000
G1 x61.3433 y14.7338 z-0.1000
G1 x61.6133 y14.7338 z-0.1000
G1 x61.8833 y14.7338 z-0.1000
G1 x62.1533 y14.7338 z-0.1000
G1 x62.4233 y14.7338 z-0.1000
G1 x62.6933 y14.7338 z-0.1000
G1 x62.9633 y14.7338 z-0.1000
G1 x63.2333 y14.7338 z-0.1000
G1 x63.5033 y14.7338 z-0.1000
G1 x63.7733 y14.7338 z-0.1000
G1 x64.0433 y14.7338 z-0.1000
G1 x64.3133 y14.7338 z-0.1000
G1 x64.5833 y14.7338 z-0.1000
G1 x64.8533 y14.7338 z-0.1000
G1 x65.1233 y14.7338 z-0.1000
G1 x65.3933 y14.7338 z-0.1000
G1 x65.6633 y14.7338 z-0.1000
G1 x65.9333 y14.7338 z-0.1000
G1 x66.2033 y14.7338 z-0.1000
G1 x66.4733 y14.7338 z-0.1000
G1 x66.7433 y14.7338 z-0.1000
G1 x67.0133 y14.7338 z-0.1000
G1 x67.2833 y14.7338 z-0.1000
G1 x67.5533 y14.7338 z-0.1000
G1 x67.8233 y14.7338 z-0.1000
G1 x68.0933 y14.7338 z-0.1000
G1 x68.3633 y14.7338 z-0.1000
G1 x68.6333 y14.7338 z-0.1000
G1 x68.9033 y14.7338 z-0.1000
G1 x69.1733 y14.7338 z-0.1000
G1 x69.4433 y14.7338 z-0.1000
G1 x69.7133 y14.7338 z-0.1000
G1 x69.9833 y14.7338 z-0.1000
G1 x70.2533 y14.7338 z-0.1000
G1 x70.5233 y14.7338 z-0.1000
G1 x70.7833 y14.8238 z-0.1000
G1 x70.9833 y15.0138 z-0.1000
G1 x71.1733 y15.2038 z-0.1000
G1 x71.3633 y15.3938 z-0.1000
G1 x71.5533 y15.5838 z-0.1000
G1 x71.7433 y15.7738 z-0.1000
G1 x71.9333 y15.9638 z-0.1000
G1 x72.1233 y16.1538 z-0.1000
G1 x72.3133 y16.3438 z-0.1000
G1 x72.5033 y16.5338 z-0.1000
G1 x72.6933 y16.7238 z-0.1000
G1 x72.8833 y16.9138 z-0.1000
G1 x73.0733 y17.1038 z-0.1000
G1 x73.3233 y17.2038 z-0.1000
G1 x73.5933 y17.2038 z-0.1000
G1 x73.8633 y17.2038 z-0.1000
G1 x74.1333 y17.2038 z-0.1000
G1 x74.4033 y17.2038 z-0.1000
G1 x74.6733 y17.2038 z-0.1000
G1 x74.9433 y17.2038 z-0.1000
G1 x75.2133 y17.2038 z-0.1000
G1 x75.4833 y17.2038 z-0.1000
G1 x75.7533 y17.2038 z-0.1000
G1 x76.0233 y17.2038 z-0.1000
G1 x76.2933 y17.2338 z-0.1000
G1 x76.5233 y17.3838 z-0.1000
G1 x76.7133 y17.5738 z-0.1000
G1 x76.9033 y17.7638 z-0.1000
G1 x77.0933 y17.9538 z-0.1000
G1 x77.2833 y18.1438 z-0.1000
G1 x77.4733 y18.3338 z-0.1000
G1 x77.6633 y18.5238 z-0.1000
G1 x77.8533 y18.7138 z-0.1000
G1 x78.0433 y18.9038 z-0.1000
G1 x78.2333 y19.0938 z-0.1000
G1 x78.4233 y19.2838 z-0.1000
G1 x78.6133 y19.4738 z-0.1000
G1 x78.8033 y19.6638 z-0.1000
G1 x78.9533 y19.8938 z-0.1000
G1 x78.9733 y20.1638 z-0.1000
G1 x78.9733 y20.4338 z-0.1000
G1 x78.9733 y20.7038 z-0.1000
G1 x78.9733 y20.9738 z-0.1000
G1 x78.9733 y21.2438 z-0.1000
G1 x78.9733 y21.5138 z-0.1000
G1 x78.9733 y21.7838 z-0.1000
G1 x78.9733 y22.0538 z-0.1000
G1 x78.9433 y22.3238 z-0.1000
G1 x78.9433 y22.5938 z-0.1000
G1 x78.9433 y22.8638 z-0.1000
G1 x78.9233 y23.1338 z-0.1000
G1 x78.7033 y23.2838 z-0.1000
G1 x78.4333 y23.2838 z-0.1000
G1 x78.1633 y23.2738 z-0.1000
G1 x77.9733 y23.0738 z-0.1000
G1 x77.9733 y22.8038 z-0.1000
G1 x77.9733 y22.5338 z-0.1000
G1 x77.9733 y22.2638 z-0.1000
G1 x77.9533 y21.9938 z-0.1000
G1 x77.9533 y21.7238 z-0.1000
G1 x77.9533 y21.4538 z-0.1000
G1 x77.9533 y21.1838 z-0.1000
G1 x77.9533 y20.9138 z-0.1000
G1 x77.9533 y20.6438 z-0.1000
G1 x77.9533 y20.3738 z-0.1000
G1 x77.8333 y20.1338 z-0.1000
G1 x77.6433 y19.9438 z-0.1000
G1 x77.4533 y19.7538 z-0.1000
G1 x77.2633 y19.5638 z-0.1000
G1 x77.0733 y19.3738 z-0.1000
G1 x76.8833 y19.1838 z-0.1000
G1 x76.6933 y18.9938 z-0.1000
G1 x76.5033 y18.8038 z-0.1000
G1 x76.3133 y18.6138 z-0.1000
G1 x76.1233 y18.4238 z-0.1000
G1 x75.9333 y18.2338 z-0.1000
G1 x75.6633 y18.2238 z-0.1000
G1 x75.3933 y18.2238 z-0.1000
G1 x75.1233 y18.2238 z-0.1000
G1 x74.8533 y18.2238 z-0.1000
G1 x74.5833 y18.2238 z-0.1000
G1 x74.3133 y18.2238 z-0.1000
G1 x74.0433 y18.2238 z-0.1000
G1 x73.7733 y18.2238 z-0.1000
G1 x73.5033 y18.2238 z-0.1000
G1 x73.2333 y18.2238 z-0.1000
G1 x72.9633 y18.2238 z-0.1000
G1 x72.7033 y18.1638 z-0.1000
G1 x72.5033 y17.9838 z-0.1000
G1 x72.3133 y17.7938 z-0.1000
G1 x72.1233 y17.6038 z-0.1000
G1 x71.9333 y17.4138 z-0.1000
G1 x71.7433 y17.2238 z-0.1000
G1 x71.5533 y17.0338 z-0.1000
G1 x71.3633 y16.8438 z-0.1000
G1 x71.1733 y16.6538 z-0.1000
G1 x70.9833 y16.4638 z-0.1000
G1 x70.7933 y16.2738 z-0.1000
G1 x70.6033 y16.0838 z-0.1000
G1 x70.4133 y15.8938 z-0.1000
G1 x70.1833 y15.7538 z-0.1000
G1 x69.9133 y15.7538 z-0.1000
G1 x69.6433 y15.7538 z-0.1000
G1 x69.3733 y15.7538 z-0.1000
G1 x69.1033 y15.7538 z-0.1000
G1 x68.8333 y15.7538 z-0.1000
G1 x68.5633 y15.7538 z-0.1000
G1 x68.2933 y15.7538 z-0.1000
G1 x68.0233 y15.7538 z-0.1000
G1 x67.7533 y15.7538 z-0.1000
G1 x67.4833 y15.7538 z-0.1000
G1 x67.2133 y15.7538 z-0.1000
G1 x66.9433 y15.7538 z-0.1000
G1 x66.6733 y15.7538 z-0.1000
G1 x66.4033 y15.7538 z-0.1000
G1 x66.1333 y15.7538 z-0.1000
G1 x65.8633 y15.7538 z-0.1000
G1 x65.5933 y15.7538 z-0.1000
G1 x65.3233 y15.7538 z-0.1000
G1 x65.0533 y15.7538 z-0.1000
G1 x64.7833 y15.7538 z-0.1000
G1 x64.5133 y15.7538 z-0.1000
G1 x64.2433 y15.7538 z-0.1000
G1 x63.9733 y15.7538 z-0.1000
G1 x63.7033 y15.7538 z-0.1000
G1 x63.4333 y15.7538 z-0.1000
G1 x63.1633 y15.7538 z-0.1000
G1 x62.8933 y15.7538 z-0.1000
G1 x62.6233 y15.7538 z-0.1000
G1 x62.3533 y15.7538 z-0.1000
G1 x62.0833 y15.7538 z-0.1000
G1 x61.8133 y15.7538 z-0.1000
G1 x61.5433 y15.7538 z-0.1000
G1 x61.2733 y15.7538 z-0.1000
G1 x61.0033 y15.7538 z-0.1000
G1 x60.7733 y15.8938 z-0.1000
G1 x60.5833 y16.0838 z-0.1000
G1 x60.3933 y16.2738 z-0.1000
G1 x60.2033 y16.4638 z-0.1000
G1 x60.0133 y16.6538 z-0.1000
G1 x59.8233 y16.8438 z-0.1000
G1 x59.6333 y17.0338 z-0.1000
G1 x59.4433 y17.2238 z-0.1000
G1 x59.2533 y17.4138 z-0.1000
G1 x59.0633 y17.6038 z-0.1000
G1 x58.8733 y17.7938 z-0.1000
G1 x58.6833 y17.9838 z-0.1000
G1 x58.4933 y18.1738 z-0.1000
G1 x58.2533 y18.2838 z-0.1000
G1 x57.9833 y18.2538 z-0.1000
G1 x57.7633 y18.0938 z-0.1000
G1 x57.6533 y17.8538 z-0.1000
G0 z1.0000


G0 x60.4321 y30.2859
G0 z0.0000
F120.0000
G1 z-0.1000
F300.0000
G1 x60.4321 y30.0159 z-0.1000
G1 x60.4321 y29.7459 z-0.1000
G1 x60.4321 y29.4759 z-0.1000
G1 x60.4321 y29.2059 z-0.1000
G1 x60.4321 y28.9359 z-0.1000
G1 x60.4321 y28.6659 z-0.1000
G1 x60.5521 y28.4259 z-0.1000
G1 x60.8121 y28.3859 z-0.1000
G1 x60.9621 y28.1659 z-0.1000
G1 x60.9621 y27.8959 z-0.1000
G1 x60.9621 y27.6259 z-0.1000
G1 x60.7521 y27.4559 z-0.1000
G1 x60.7021 y27.1959 z-0.1000
G1 x60.7021 y26.9259 z-0.1000
G1 x60.7021 y26.6559 z-0.1000
G1 x60.7021 y26.3859 z-0.1000
G1 x60.7021 y26.1159 z-0.1000
G1 x60.7021 y25.8459 z-0.1000
G1 x60.7021 y25.5759 z-0.1000
G1 x60.7021 y25.3059 z-0.1000
G1 x60.8121 y25.0659 z-0.1000
G1 x60.9621 y24.8459 z-0.1000
G1 x60.9621 y24.5759 z-0.1000
G1 x60.9621 y24.3059 z-0.1000
G1 x60.9621 y24.0359 z-0.1000
G1 x60.9621 y23.7659 z-0.1000
G1 x60.9621 y23.4959 z-0.1000
G1 x60.9621 y23.2259 z-0.1000
G1 x60.8721 y22.9759 z-0.1000
G1 x60.7021 y22.7659 z-0.1000
G1 x60.7021 y22.4959 z-0.1000
G1 x60.7021 y22.2259 z-0.1000
G1 x60.7021 y21.9559 z-0.1000
G1 x60.7021 y21.6859 z-0.1000
G1 x60.7021 y21.4159 z-0.1000
G1 x60.7021 y21.1459 z-0.1000
G1 x60.7021 y20.8759 z-0.1000
G1 x60.7221 y20.6059 z-0.1000
G1 x60.9321 y20.4459 z-0.1000
G1 x61.2021 y20.4459 z-0.1000
G1 x61.4721 y20.4459 z-0.1000
G1 x61.7421 y20.4459 z-0.1000
G1 x62.0121 y20.4459 z-0.1000
G1 x62.2821 y20.4459 z-0.1000
G1 x62.5521 y20.4559 z-0.1000
G1 x62.7421 y20.6559 z-0.1000
G1 x62.7421 y20.9259 z-0.1000
G1 x62.7421 y21.1959 z-0.1000
G1 x62.7421 y21.4659 z-0.1000
G1 x62.7421 y21.7359 z-0.1000
G1 x62.7421 y22.0059 z-0.1000
G1 x62.7421 y22.2759 z-0.1000
G1 x62.7421 y22.5459 z-0.1000
G1 x62.7321 y22.8159 z-0.1000
G1 x62.5321 y22.9959 z-0.1000
G1 x62.4821 y23.2559 z-0.1000
G1 x62.4821 y23.5259 z-0.1000
G1 x62.4821 y23.7959 z-0.1000
G1 x62.4821 y24.0659 z-0.1000
G1 x62.4821 y24.3359 z-0.1000
G1 x62.4821 y24.6059 z-0.1000
G1 x62.4821 y24.8759 z-0.1000
G1 x62.6621 y25.0859 z-0.1000
G1 x62.7421 y25.3459 z-0.1000
G1 x62.7421 y25.6159 z-0.1000
G1 x62.7421 y25.8859 z-0.1000
G1 x62.7421 y26.1559 z-0.1000
G1 x62.8921 y26.3859 z-0.1000
G1 x63.0821 y26.5759 z-0.1000
G1 x63.2721 y26.7659 z-0.1000
G1 x63.4621 y26.9559 z-0.1000
G1 x63.6521 y27.1459 z-0.1000
G1 x63.8421 y27.3359 z-0.1000
G1 x64.0321 y27.5259 z-0.1000
G1 x64.2221 y27.7159 z-0.1000
G1 x64.4121 y27.9059 z-0.1000
G1 x64.6021 y28.0959 z-0.1000
G1 x64.7921 y28.2859 z-0.1000
G1 x64.9821 y28.4759 z-0.1000
G1 x65.1721 y28.6659 z-0.1000
G1 x65.3621 y28.8559 z-0.1000
G1 x65.5521 y29.0459 z-0.1000
G1 x65.7421 y29.2359 z-0.1000
G1 x65.9321 y29.4259 z-0.1000
G1 x66.1221 y29.6159 z-0.1000
G1 x66.3121 y29.8059 z-0.1000
G1 x66.5021 y29.9959 z-0.1000
G1 x66.6921 y30.1859 z-0.1000
G1 x66.8821 y30.3759 z-0.1000
G1 x67.0721 y30.5659 z-0.1000
G1 x67.2621 y30.7559 z-0.1000
G1 x67.4521 y30.9459 z-0.1000
G1 x67.6621 y31.1159 z-0.1000
G1 x67.9321 y31.1159 z-0.1000
G1 x68.2021 y31.1159 z-0.1000
G1 x68.4721 y31.1159 z-0.1000
G1 x68.7421 y31.1159 z-0.1000
G1 x69.0121 y31.1159 z-0.1000
G1 x69.2821 y31.1159 z-0.1000
G1 x69.5521 y31.1159 z-0.1000
G1 x69.8221 y31.1159 z-0.1000
G1 x70.0821 y31.0459 z-0.1000
G1 x70.2321 y30.8259 z-0.1000
G1 x70.2321 y30.5559 z-0.1000
G1 x70.2321 y30.2859 z-0.1000
G1 x70.2321 y30.0159 z-0.1000
G1 x70.2321 y29.7459 z-0.1000
G1 x70.2321 y29.4759 z-0.1000
G1 x70.2321 y29.2059 z-0.1000
G1 x70.2321 y28.9359 z-0.1000
G1 x70.2321 y28.6659 z-0.1000
G1 x70.2621 y28.3959 z-0.1000
G1 x70.4121 y28.1759 z-0.1000
G1 x70.6021 y27.9859 z-0.1000
G1 x70.7921 y27.7959 z-0.1000
G1 x70.9821 y27.6059 z-0.1000
G1 x70.9921 y27.3359 z-0.1000
G1 x70.9921 y27.0659 z-0.1000
G1 x70.9921 y26.7959 z-0.1000
G1 x70.9421 y26.5359 z-0.1000
G1 x71.0021 y26.2759 z-0.1000
G1 x71.1921 y26.0759 z-0.1000
G1 x71.4221 y25.9459 z-0.1000
G1 x71.6921 y25.9159 z-0.1000
G1 x71.9621 y25.9159 z-0.1000
G1 x72.2321 y25.9159 z-0.1000
G1 x72.5021 y25.9159 z-0.1000
G1 x72.7721 y25.9159 z-0.1000
G1 x73.0421 y25.9159 z-0.1000
G1 x73.3121 y25.9159 z-0.1000
G1 x73.5821 y25.9359 z-0.1000
G1 x73.8521 y25.9359 z-0.1000
G1 x74.1221 y25.9359 z-0.1000
G1 x74.3921 y25.9559 z-0.1000
G1 x74.5521 y26.1659 z-0.1000
G1 x74.5521 y26.4359 z-0.1000
G1 x74.5421 y26.7059 z-0.1000
G1 x74.3521 y26.8959 z-0.1000
G1 x74.0821 y26.9059 z-0.1000
G1 x73.8121 y26.9059 z-0.1000
G1 x73.5421 y26.9059 z-0.1000
G1 x73.2721 y26.9359 z-0.1000
G1 x73.0021 y26.9359 z-0.1000
G1 x72.7321 y26.9359 z-0.1000
G1 x72.4621 y26.9359 z-0.1000
G1 x72.1921 y26.9359 z-0.1000
G1 x72.0121 y27.1359 z-0.1000
G1 x72.0121 y27.4059 z-0.1000
G1 x72.2521 y27.5159 z-0.1000
G1 x72.5221 y27.5159 z-0.1000
G1 x72.7921 y27.5159 z-0.1000
G1 x73.0621 y27.5159 z-0.1000
G1 x73.3321 y27.5159 z-0.1000
G1 x73.6021 y27.5159 z-0.1000
G1 x73.8721 y27.5159 z-0.1000
G1 x74.1421 y27.5159 z-0.1000
G1 x74.4121 y27.5159 z-0.1000
G1 x74.6721 y27.4759 z-0.1000
G1 x74.8621 y27.2859 z-0.1000
G1 x75.0521 y27.0959 z-0.1000
G1 x75.2421 y26.9059 z-0.1000
G1 x75.4621 y26.7459 z-0.1000
G1 x75.7321 y26.7159 z-0.1000
G1 x76.0021 y26.7159 z-0.1000
G1 x76.2721 y26.7159 z-0.1000
G1 x76.5421 y26.7159 z-0.1000
G1 x76.8121 y26.7159 z-0.1000
G1 x77.0821 y26.7159 z-0.1000
G1 x77.3521 y26.7159 z-0.1000
G1 x77.6221 y26.7159 z-0.1000
G1 x77.8921 y26.7159 z-0.1000
G1 x78.1621 y26.7159 z-0.1000
G1 x78.4321 y26.7159 z-0.1000
G1 x78.7021 y26.7159 z-0.1000
G1 x78.9721 y26.7159 z-0.1000
G1 x79.2421 y26.7159 z-0.1000
G1 x79.5121 y26.7159 z-0.1000
G1 x79.7821 y26.7159 z-0.1000
G1 x80.0521 y26.7159 z-0.1000
G1 x80.3221 y26.7159 z-0.1000
G1 x80.5921 y26.7159 z-0.1000
G1 x80.8621 y26.7159 z-0.1000
G1 x81.1321 y26.7159 z-0.1000
G1 x81.4021 y26.7159 z-0.1000
G1 x81.6721 y26.7159 z-0.1000
G1 x81.9421 y26.7159 z-0.1000
G1 x82.2121 y26.7159 z-0.1000
G1 x82.4821 y26.7159 z-0.1000
G1 x82.7521 y26.7159 z-0.1000
G1 x83.0221 y26.7159 z-0.1000
G1 x83.2921 y26.7159 z-0.1000
G1 x83.5621 y26.7159 z-0.1000
G1 x83.8321 y26.7159 z-0.1000
G1 x84.1021 y26.7159 z-0.1000
G1 x84.3721 y26.7159 z-0.1000
G1 x84.6421 y26.7159 z-0.1000
G1 x84.9121 y26.7159 z-0.1000
G1 x85.1821 y26.7159 z-0.1000
G1 x85.4521 y26.7159 z-0.1000
G1 x85.7221 y26.7159 z-0.1000
G1 x85.9221 y26.5359 z-0.1000
G1 x86.1121 y26.3459 z-0.1000
G1 x86.3021 y26.1559 z-0.1000
G1 x86.4921 y25.9659 z-0.1000
G1 x86.6821 y25.7759 z-0.1000
G1 x86.8721 y25.5859 z-0.1000
G1 x87.0621 y25.3959 z-0.1000
G1 x87.2521 y25.2059 z-0.1000
G1 x87.4421 y25.0159 z-0.1000
G1 x87.6421 y24.8259 z-0.1000
G1 x87.8721 y24.6859 z-0.1000
G1 x88.1321 y24.6359 z-0.1000
G1 x88.3921 y24.6859 z-0.1000
G1 x88.6221 y24.8159 z-0.1000
G1 x88.8021 y25.0259 z-0.1000
G1 x88.8921 y25.2759 z-0.1000
G1 x88.8921 y25.5459 z-0.1000
G1 x88.7921 y25.7959 z-0.1000
G1 x88.6121 y26.0059 z-0.1000
G1 x88.4221 y26.1959 z-0.1000
G1 x88.2321 y26.3859 z-0.1000
G1 x88.0421 y26.5759 z-0.1000
G1 x87.8521 y26.7659 z-0.1000
G1 x87.6621 y26.9559 z-0.1000
G1 x87.4721 y27.1459 z-0.1000
G1 x87.2821 y27.3359 z-0.1000
G1 x87.0921 y27.5259 z-0.1000
G1 x86.9021 y27.7159 z-0.1000
G1 x86.6921 y27.8859 z-0.1000
G1 x86.4421 y27.9859 z-0.1000
G1 x86.1721 y27.9859 z-0.1000
G1 x85.9221 y27.8859 z-0.1000
G1 x85.7021 y27.7359 z-0.1000
G1 x85.4321 y27.7359 z-0.1000
G1 x85.1621 y27.7359 z-0.1000
G1 x84.8921 y27.7359 z-0.1000
G1 x84.6221 y27.7359 z-0.1000
G1 x84.3521 y27.7359 z-0.1000
G1 x84.0821 y27.7359 z-0.1000
G1 x83.8121 y27.7359 z-0.1000
G1 x83.5421 y27.7359 z-0.1000
G1 x83.2721 y27.7359 z-0.1000
G1 x83.0021 y27.7359 z-0.1000
G1 x82.7321 y27.7359 z-0.1000
G1 x82.4621 y27.7359 z-0.1000
G1 x82.1921 y27.7359 z-0.1000
G1 x81.9221 y27.7359 z-0.1000
G1 x81.6521 y27.7359 z-0.1000
G1 x81.3821 y27.7359 z-0.1000
G1 x81.1121 y27.7359 z-0.1000
G1 x80.8421 y27.7359 z-0.1000
G1 x80.5721 y27.7359 z-0.1000
G1 x80.3021 y27.7359 z-0.1000
G1 x80.0321 y27.7359 z-0.1000
G1 x79.7621 y27.7359 z-0.1000
G1 x79.4921 y27.7359 z-0.1000
G1 x79.2221 y27.7359 z-0.1000
G1 x78.9521 y27.7359 z-0.1000
G1 x78.6821 y27.7359 z-0.1000
G1 x78.4121 y27.7359 z-0.1000
G1 x78.1421 y27.7359 z-0.1000
G1 x77.8721 y27.7359 z-0.1000
G1 x77.6021 y27.7359 z-0.1000
G1 x77.3321 y27.7359 z-0.1000
G1 x77.0621 y27.7359 z-0.1000
G1 x76.7921 y27.7359 z-0.1000
G1 x76.5221 y27.7359 z-0.1000
G1 x76.2521 y27.7359 z-0.1000
G1 x75.9821 y27.7359 z-0.1000
G1 x75.7421 y27.8559 z-0.1000
G1 x75.5521 y28.0459 z-0.1000
G1 x75.3621 y28.2359 z-0.1000
G1 x75.1621 y28.4259 z-0.1000
G1 x74.9121 y28.5259 z-0.1000
G1 x74.6421 y28.5359 z-0.1000
G1 x74.3721 y28.5359 z-0.1000
G1 x74.1021 y28.5359 z-0.1000
G1 x73.8321 y28.5359 z-0.1000
G1 x73.5621 y28.5359 z-0.1000
G1 x73.2921 y28.5359 z-0.1000
G1 x73.0221 y28.5359 z-0.1000
G1 x72.7521 y28.5359 z-0.1000
G1 x72.4821 y28.5359 z-0.1000
G1 x72.2121 y28.5359 z-0.1000
G1 x71.9421 y28.5359 z-0.1000
G1 x71.6721 y28.5359 z-0.1000
G1 x71.4121 y28.6259 z-0.1000
G1 x71.2521 y28.8359 z-0.1000
G1 x71.2521 y29.1059 z-0.1000
G1 x71.2521 y29.3759 z-0.1000
G1 x71.2521 y29.6459 z-0.1000
G1 x71.2521 y29.9159 z-0.1000
G1 x71.2521 y30.1859 z-0.1000
G1 x71.2521 y30.4559 z-0.1000
G1 x71.2521 y30.7259 z-0.1000
G1 x71.2521 y30.9959 z-0.1000
G1 x71.2321 y31.2659 z-0.1000
G1 x71.0821 y31.4959 z-0.1000
G1 x70.8921 y31.6859 z-0.1000
G1 x70.7021 y31.8759 z-0.1000
G1 x70.5021 y32.0559 z-0.1000
G1 x70.2421 y32.1359 z-0.1000
G1 x69.9721 y32.1359 z-0.1000
G1 x69.7021 y32.1359 z-0.1000
G1 x69.4321 y32.1359 z-0.1000
G1 x69.1621 y32.1359 z-0.1000
G1 x68.8921 y32.1359 z-0.1000
G1 x68.6221 y32.1359 z-0.1000
G1 x68.3521 y32.1359 z-0.1000
G1 x68.0821 y32.1359 z-0.1000
G1 x67.8121 y32.1359 z-0.1000
G1 x67.5521 y32.1959 z-0.1000
G1 x67.3221 y32.3359 z-0.1000
G1 x67.0621 y32.3859 z-0.1000
G1 x66.8021 y32.3459 z-0.1000
G1 x66.5721 y32.2059 z-0.1000
G1 x66.3721 y32.0159 z-0.1000
G1 x66.1821 y31.8259 z-0.1000
G1 x65.9321 y31.9259 z-0.1000
G1 x65.6721 y32.0059 z-0.1000
G1 x65.4121 y31.9459 z-0.1000
G1 x65.2121 y31.7559 z-0.1000
G1 x65.1521 y31.4959 z-0.1000
G1 x65.2121 y31.2359 z-0.1000
G1 x65.3921 y31.0359 z-0.1000
G1 x65.2021 y30.8459 z-0.1000
G1 x65.0121 y30.6559 z-0.1000
G1 x64.8221 y30.4659 z-0.1000
G1 x64.6321 y30.2759 z-0.1000
G1 x64.4421 y30.0859 z-0.1000
G1 x64.2521 y29.8959 z-0.1000
G1 x64.0621 y29.7059 z-0.1000
G1 x63.8721 y29.5159 z-0.1000
G1 x63.6821 y29.3259 z-0.1000
G1 x63.4921 y29.1359 z-0.1000
G1 x63.3021 y28.9459 z-0.1000
G1 x63.1121 y28.7559 z-0.1000
G1 x62.9221 y28.5659 z-0.1000
G1 x62.7321 y28.3759 z-0.1000
G1 x62.5421 y28.1859 z-0.1000
G1 x62.6421 y28.4359 z-0.1000
G1 x62.7521 y28.6759 z-0.1000
G1 x62.7521 y28.9459 z-0.1000
G1 x62.7521 y29.2159 z-0.1000
G1 x62.7521 y29.4859 z-0.1000
G1 x62.7521 y29.7559 z-0.1000
G1 x62.7521 y30.0259 z-0.1000
G1 x62.7421 y30.2959 z-0.1000
G1 x62.5521 y30.4859 z-0.1000
G1 x62.2821 y30.4959 z-0.1000
G1 x62.0121 y30.4959 z-0.1000
G1 x61.7421 y30.4959 z-0.1000
G1 x61.4721 y30.4959 z-0.1000
G1 x61.2021 y30.4959 z-0.1000
G1 x60.9321 y30.4959 z-0.1000
G1 x60.6621 y30.4959 z-0.1000
G1 x60.4521 y30.3359 z-0.1000
G0 z1.0000


G0 x104.7598 y8.8925
G0 z0.0000
F120.0000
G1 z-0.1000
F300.0000
G1 x104.7598 y10.9245 z-0.1000
G1 x105.1230 y10.9245 z-0.1000
G1 x105.3389 y10.8280 z-0.1000
G1 x105.4862 y10.6350 z-0.1000
G1 x105.5573 y10.4419 z-0.1000
G1 x105.6310 y10.0533 z-0.1000
G1 x105.6310 y9.7638 z-0.1000
G1 x105.5573 y9.3777 z-0.1000
G1 x105.4862 y9.1821 z-0.1000
G1 x105.3389 y8.9891 z-0.1000
G1 x105.1230 y8.8925 z-0.1000
G1 x104.7598 y8.8925 z-0.1000
G0 z1.0000


G0 x102.8615 y19.4835
G0 z0.0000
F120.0000
G1 z-0.1000
F300.0000
G1 x102.8615 y19.2135 z-0.1000
G1 x102.8615 y18.9435 z-0.1000
G1 x102.8615 y18.6735 z-0.1000
G1 x102.8615 y18.4035 z-0.1000
G1 x102.8615 y18.1335 z-0.1000
G1 x102.8615 y17.8635 z-0.1000
G1 x103.0415 y17.6535 z-0.1000
G1 x103.3115 y17.6435 z-0.1000
G1 x103.5815 y17.6435 z-0.1000
G1 x103.8515 y17.6435 z-0.1000
G1 x104.1215 y17.6435 z-0.1000
G1 x104.3915 y17.6435 z-0.1000
G1 x104.6615 y17.6435 z-0.1000
G1 x104.9315 y17.6435 z-0.1000
G1 x105.2015 y17.6435 z-0.1000
G1 x105.4015 y17.8235 z-0.1000
G1 x105.6515 y17.9135 z-0.1000
G1 x105.9215 y17.9135 z-0.1000
G1 x106.1915 y17.9135 z-0.1000
G1 x106.4615 y17.9135 z-0.1000
G1 x106.7015 y17.7835 z-0.1000
G1 x106.9315 y17.6435 z-0.1000
G1 x107.1915 y17.6035 z-0.1000
G1 x107.1915 y17.3335 z-0.1000
G1 x107.1915 y17.0635 z-0.1000
G1 x107.1915 y16.7935 z-0.1000
G1 x107.1915 y16.5235 z-0.1000
G1 x107.2315 y16.2635 z-0.1000
G1 x107.3615 y16.0335 z-0.1000
G1 x107.5615 y15.8535 z-0.1000
G1 x107.8115 y15.7535 z-0.1000
G1 x108.0815 y15.7535 z-0.1000
G1 x108.3315 y15.8535 z-0.1000
G1 x108.5415 y16.0335 z-0.1000
G1 x108.6715 y16.2635 z-0.1000
G1 x108.7115 y16.5235 z-0.1000
G1 x108.7115 y16.7935 z-0.1000
G1 x108.7115 y17.0635 z-0.1000
G1 x108.7115 y17.3335 z-0.1000
G1 x108.7115 y17.6035 z-0.1000
G1 x108.9715 y17.6435 z-0.1000
G1 x109.2015 y17.7935 z-0.1000
G1 x109.2215 y18.0635 z-0.1000
G1 x109.2215 y18.3335 z-0.1000
G1 x109.2215 y18.6035 z-0.1000
G1 x109.2215 y18.8735 z-0.1000
G1 x109.2215 y19.1435 z-0.1000
G1 x109.2215 y19.4135 z-0.1000
G1 x109.1015 y19.6535 z-0.1000
G1 x108.8415 y19.6935 z-0.1000
G1 x108.5715 y19.6935 z-0.1000
G1 x108.3015 y19.6935 z-0.1000
G1 x108.0315 y19.6935 z-0.1000
G1 x107.7615 y19.6935 z-0.1000
G1 x107.4915 y19.6935 z-0.1000
G1 x107.2215 y19.6935 z-0.1000
G1 x106.9515 y19.6935 z-0.1000
G1 x106.7115 y19.5735 z-0.1000
G1 x106.4815 y19.4335 z-0.1000
G1 x106.2115 y19.4335 z-0.1000
G1 x105.9415 y19.4335 z-0.1000
G1 x105.6715 y19.4335 z-0.1000
G1 x105.4115 y19.4735 z-0.1000
G1 x105.2315 y19.6835 z-0.1000
G1 x104.9615 y19.6935 z-0.1000
G1 x104.6915 y19.6935 z-0.1000
G1 x104.4215 y19.6935 z-0.1000
G1 x104.1515 y19.6935 z-0.1000
G1 x103.8815 y19.6935 z-0.1000
G1 x103.6115 y19.6935 z-0.1000
G1 x103.3415 y19.6935 z-0.1000
G1 x103.0715 y19.6935 z-0.1000
G1 x102.8715 y19.5135 z-0.1000
G0 z1.0000


G0 x106.6715 y22.7829
G0 z0.0000
F120.0000
G1 z-0.1000
F300.0000
G1 x106.6715 y22.5129 z-0.1000
G1 x106.6715 y22.2429 z-0.1000
G1 x106.6715 y21.9729 z-0.1000
G1 x106.6715 y21.7029 z-0.1000
G1 x106.6715 y21.4329 z-0.1000
G1 x106.6715 y21.1629 z-0.1000
G1 x106.8515 y20.9629 z-0.1000
G1 x107.1215 y20.9529 z-0.1000
G1 x107.3915 y20.9529 z-0.1000
G1 x107.6615 y20.9529 z-0.1000
G1 x107.9315 y20.9529 z-0.1000
G1 x108.2015 y20.9529 z-0.1000
G1 x108.4715 y20.9529 z-0.1000
G1 x108.7415 y20.9529 z-0.1000
G1 x109.0115 y20.9529 z-0.1000
G1 x109.2115 y21.1329 z-0.1000
G1 x109.4715 y21.2129 z-0.1000
G1 x109.7415 y21.2229 z-0.1000
G1 x109.9915 y21.3129 z-0.1000
G1 x110.2015 y21.4929 z-0.1000
G1 x110.3915 y21.6829 z-0.1000
G1 x110.5815 y21.8729 z-0.1000
G1 x110.7715 y22.0629 z-0.1000
G1 x110.9615 y22.2529 z-0.1000
G1 x111.1415 y22.4629 z-0.1000
G1 x111.2415 y22.7129 z-0.1000
G1 x111.2415 y22.9829 z-0.1000
G1 x111.1515 y23.2329 z-0.1000
G1 x110.9815 y23.4429 z-0.1000
G1 x110.7515 y23.5729 z-0.1000
G1 x110.4915 y23.6229 z-0.1000
G1 x110.2315 y23.5829 z-0.1000
G1 x110.0015 y23.4429 z-0.1000
G1 x109.8015 y23.2529 z-0.1000
G1 x109.6115 y23.0629 z-0.1000
G1 x109.4215 y22.8729 z-0.1000
G1 x109.1515 y22.9129 z-0.1000
G1 x108.8915 y22.9929 z-0.1000
G1 x108.6215 y22.9929 z-0.1000
G1 x108.3515 y22.9929 z-0.1000
G1 x108.0815 y22.9929 z-0.1000
G1 x107.8115 y22.9929 z-0.1000
G1 x107.5415 y22.9929 z-0.1000
G1 x107.2715 y22.9929 z-0.1000
G1 x107.0015 y22.9929 z-0.1000
G1 x106.7415 y22.9129 z-0.1000
G0 z1.0000


G0 x112.0055 y28.7545
G0 z0.0000
F120.0000
G1 z-0.1000
F300.0000
G1 x112.0055 y28.4845 z-0.1000
G1 x112.0055 y28.2145 z-0.1000
G1 x112.0055 y27.9445 z-0.1000
G1 x112.0055 y27.6745 z-0.1000
G1 x112.0055 y27.4045 z-0.1000
G1 x112.0055 y27.1345 z-0.1000
G1 x112.1855 y26.9245 z-0.1000
G1 x112.4555 y26.9145 z-0.1000
G1 x112.7255 y26.9145 z-0.1000
G1 x112.9955 y26.9145 z-0.1000
G1 x113.2655 y26.9145 z-0.1000
G1 x113.5355 y26.9145 z-0.1000
G1 x113.8055 y26.9145 z-0.1000
G1 x114.0355 y27.0645 z-0.1000
G1 x114.0555 y27.3345 z-0.1000
G1 x114.0555 y27.6045 z-0.1000
G1 x114.0555 y27.8745 z-0.1000
G1 x114.0555 y28.1445 z-0.1000
G1 x114.0555 y28.4145 z-0.1000
G1 x114.0555 y28.6845 z-0.1000
G1 x113.9355 y28.9245 z-0.1000
G1 x113.6755 y28.9645 z-0.1000
G1 x113.4055 y28.9645 z-0.1000
G1 x113.1355 y28.9645 z-0.1000
G1 x112.8655 y28.9645 z-0.1000
G1 x112.5955 y28.9645 z-0.1000
G1 x112.3255 y28.9645 z-0.1000
G1 x112.0655 y28.8745 z-0.1000
G0 z1.0000


G0 x114.5455 y28.0345
G0 z0.0000
F120.0000
G1 z-0.1000
F300.0000
G1 x114.5555 y27.7645 z-0.1000
G1 x114.6455 y27.5045 z-0.1000
G1 x114.7955 y27.2745 z-0.1000
G1 x114.9955 y27.0945 z-0.1000
G1 x115.2355 y26.9745 z-0.1000
G1 x115.4955 y26.9145 z-0.1000
G1 x115.7655 y26.9345 z-0.1000
G1 x116.0255 y27.0245 z-0.1000
G1 x116.2455 y27.1745 z-0.1000
G1 x116.4255 y27.3745 z-0.1000
G1 x116.5455 y27.6145 z-0.1000
G1 x116.5955 y27.8745 z-0.1000
G1 x116.5755 y28.1445 z-0.1000
G1 x116.4855 y28.3945 z-0.1000
G1 x116.3355 y28.6145 z-0.1000
G1 x116.1355 y28.7945 z-0.1000
G1 x115.8955 y28.9145 z-0.1000
G1 x115.6355 y28.9645 z-0.1000
G1 x115.3655 y28.9445 z-0.1000
G1 x115.1155 y28.8545 z-0.1000
G1 x114.8855 y28.7045 z-0.1000
G1 x114.7055 y28.4945 z-0.1000
G1 x114.5955 y28.2545 z-0.1000
G0 z1.0000


G0 x106.9255 y14.7845
G0 z0.0000
F120.0000
G1 z-0.1000
F300.0000
G1 x106.9255 y14.5145 z-0.1000
G1 x106.9255 y14.2445 z-0.1000
G1 x106.9255 y13.9745 z-0.1000
G1 x106.9255 y13.7045 z-0.1000
G1 x106.9255 y13.4345 z-0.1000
G1 x106.9255 y13.1645 z-0.1000
G1 x107.1055 y12.9545 z-0.1000
G1 x107.3755 y12.9445 z-0.1000
G1 x107.6455 y12.9445 z-0.1000
G1 x107.9155 y12.9445 z-0.1000
G1 x108.1855 y12.9445 z-0.1000
G1 x108.4555 y12.9445 z-0.1000
G1 x108.7255 y12.9445 z-0.1000
G1 x108.9555 y13.0945 z-0.1000
G1 x108.9755 y13.3645 z-0.1000
G1 x108.9755 y13.6345 z-0.1000
G1 x108.9755 y13.9045 z-0.1000
G1 x108.9755 y14.1745 z-0.1000
G1 x108.9755 y14.4445 z-0.1000
G1 x108.9755 y14.7145 z-0.1000
G1 x108.8555 y14.9545 z-0.1000
G1 x108.5955 y14.9945 z-0.1000
G1 x108.3255 y14.9945 z-0.1000
G1 x108.0555 y14.9945 z-0.1000
G1 x107.7855 y14.9945 z-0.1000
G1 x107.5155 y14.9945 z-0.1000
G1 x107.2455 y14.9945 z-0.1000
G1 x106.9855 y14.9045 z-0.1000
G0 z1.0000


G0 x104.3855 y14.0645
G0 z0.0000
F120.0000
G1 z-0.1000
F300.0000
G1 x104.3955 y13.7945 z-0.1000
G1 x104.4855 y13.5345 z-0.1000
G1 x104.6355 y13.3045 z-0.1000
G1 x104.8355 y13.1245 z-0.1000
G1 x105.0755 y13.0045 z-0.1000
G1 x105.3355 y12.9445 z-0.1000
G1 x105.6055 y12.9645 z-0.1000
G1 x105.8655 y13.0545 z-0.1000
G1 x106.0855 y13.2045 z-0.1000
G1 x106.2655 y13.4045 z-0.1000
G1 x106.3855 y13.6445 z-0.1000
G1 x106.4355 y13.9045 z-0.1000
G1 x106.4155 y14.1745 z-0.1000
G1 x106.3255 y14.4245 z-0.1000
G1 x106.1755 y14.6445 z-0.1000
G1 x105.9755 y14.8245 z-0.1000
G1 x105.7355 y14.9445 z-0.1000
G1 x105.4755 y14.9945 z-0.1000
G1 x105.2055 y14.9745 z-0.1000
G1 x104.9555 y14.8845 z-0.1000
G1 x104.7255 y14.7345 z-0.1000
G1 x104.5455 y14.5245 z-0.1000
G1 x104.4355 y14.2845 z-0.1000
G0 z1.0000


G0 x100.7034 y12.9565
G0 z0.0000
F120.0000
G1 z-0.1000
F300.0000
G1 x99.8322 y12.9565 z-0.1000
G0 z1.0000


G0 x100.2690 y12.9565
G0 z0.0000
F120.0000
G1 z-0.1000
F300.0000
G1 x100.2690 y14.9885 z-0.1000
G1 x100.1243 y14.6990 z-0.1000
G1 x99.9769 y14.5059 z-0.1000
G1 x99.8322 y14.4094 z-0.1000
G0 z1.0000


G0 x96.7655 y14.5305
G0 z0.0000
F120.0000
G1 z-0.1000
F300.0000
G1 x96.7655 y14.2605 z-0.1000
G1 x96.7655 y13.9905 z-0.1000
G1 x96.7655 y13.7205 z-0.1000
G1 x96.7655 y13.4505 z-0.1000
G1 x96.7655 y13.1805 z-0.1000
G1 x96.7655 y12.9105 z-0.1000
G1 x96.9455 y12.7005 z-0.1000
G1 x97.2155 y12.6905 z-0.1000
G1 x97.4855 y12.6905 z-0.1000
G1 x97.7555 y12.6905 z-0.1000
G1 x98.0255 y12.6905 z-0.1000
G1 x98.2955 y12.6905 z-0.1000
G1 x98.5655 y12.6905 z-0.1000
G1 x98.7955 y12.8405 z-0.1000
G1 x98.8155 y13.1105 z-0.1000
G1 x98.8155 y13.3805 z-0.1000
G1 x98.8155 y13.6505 z-0.1000
G1 x98.8155 y13.9205 z-0.1000
G1 x98.8155 y14.1905 z-0.1000
G1 x98.8155 y14.4605 z-0.1000
G1 x98.6955 y14.7005 z-0.1000
G1 x98.4355 y14.7405 z-0.1000
G1 x98.1655 y14.7405 z-0.1000
G1 x97.8955 y14.7405 z-0.1000
G1 x97.6255 y14.7405 z-0.1000
G1 x97.3555 y14.7405 z-0.1000
G1 x97.0855 y14.7405 z-0.1000
G1 x96.8255 y14.6505 z-0.1000
G0 z1.0000


G0 x94.2255 y13.8105
G0 z0.0000
F120.0000
G1 z-0.1000
F300.0000
G1 x94.2355 y13.5405 z-0.1000
G1 x94.3255 y13.2805 z-0.1000
G1 x94.4755 y13.0505 z-0.1000
G1 x94.6755 y12.8705 z-0.1000
G1 x94.9155 y12.7505 z-0.1000
G1 x95.1755 y12.6905 z-0.1000
G1 x95.4455 y12.7105 z-0.1000
G1 x95.7055 y12.8005 z-0.1000
G1 x95.9255 y12.9505 z-0.1000
G1 x96.1055 y13.1505 z-0.1000
G1 x96.2255 y13.3905 z-0.1000
G1 x96.2755 y13.6505 z-0.1000
G1 x96.2555 y13.9205 z-0.1000
G1 x96.1655 y14.1705 z-0.1000
G1 x96.0155 y14.3905 z-0.1000
G1 x95.8155 y14.5705 z-0.1000
G1 x95.5755 y14.6905 z-0.1000
G1 x95.3155 y14.7405 z-0.1000
G1 x95.0455 y14.7205 z-0.1000
G1 x94.7955 y14.6305 z-0.1000
G1 x94.5655 y14.4805 z-0.1000
G1 x94.3855 y14.2705 z-0.1000
G1 x94.2755 y14.0305 z-0.1000
G0 z1.0000


G0 x91.6855 y13.8105
G0 z0.0000
F120.0000
G1 z-0.1000
F300.0000
G1 x91.6955 y13.5405 z-0.1000
G1 x91.7855 y13.2805 z-0.1000
G1 x91.9355 y13.0505 z-0.1000
G1 x92.1355 y12.8705 z-0.1000
G1 x92.3755 y12.7505 z-0.1000
G1 x92.6355 y12.6905 z-0.1000
G1 x92.9055 y12.7105 z-0.1000
G1 x93.1655 y12.8005 z-0.1000
G1 x93.3855 y12.9505 z-0.1000
G1 x93.5655 y13.1505 z-0.1000
G1 x93.6855 y13.3905 z-0.1000
G1 x93.7355 y13.6505 z-0.1000
G1 x93.7155 y13.9205 z-0.1000
G1 x93.6255 y14.1705 z-0.1000
G1 x93.4755 y14.3905 z-0.1000
G1 x93.2755 y14.5705 z-0.1000
G1 x93.0355 y14.6905 z-0.1000
G1 x92.7755 y14.7405 z-0.1000
G1 x92.5055 y14.7205 z-0.1000
G1 x92.2555 y14.6305 z-0.1000
G1 x92.0255 y14.4805 z-0.1000
G1 x91.8455 y14.2705 z-0.1000
G1 x91.7355 y14.0305 z-0.1000
G0 z1.0000


G0 x91.6855 y11.2705
G0 z0.0000
F120.0000
G1 z-0.1000
F300.0000
G1 x91.6955 y11.0005 z-0.1000
G1 x91.7855 y10.7405 z-0.1000
G1 x91.9355 y10.5105 z-0.1000
G1 x92.1355 y10.3305 z-0.1000
G1 x92.3755 y10.2105 z-0.1000
G1 x92.6355 y10.1505 z-0.1000
G1 x92.9055 y10.1705 z-0.1000
G1 x93.1655 y10.2605 z-0.1000
G1 x93.3855 y10.4105 z-0.1000
G1 x93.5655 y10.6105 z-0.1000
G1 x93.6855 y10.8505 z-0.1000
G1 x93.7355 y11.1105 z-0.1000
G1 x93.7155 y11.3805 z-0.1000
G1 x93.6255 y11.6305 z-0.1000
G1 x93.4755 y11.8505 z-0.1000
G1 x93.2755 y12.0305 z-0.1000
G1 x93.0355 y12.1505 z-0.1000
G1 x92.7755 y12.2005 z-0.1000
G1 x92.5055 y12.1805 z-0.1000
G1 x92.2555 y12.0905 z-0.1000
G1 x92.0255 y11.9405 z-0.1000
G1 x91.8455 y11.7305 z-0.1000
G1 x91.7355 y11.4905 z-0.1000
G0 z1.0000


G0 x94.2255 y11.2705
G0 z0.0000
F120.0000
G1 z-0.1000
F300.0000
G1 x94.2355 y11.0005 z-0.1000
G1 x94.3255 y10.7405 z-0.1000
G1 x94.4755 y10.5105 z-0.1000
G1 x94.6755 y10.3305 z-0.1000
G1 x94.9155 y10.2105 z-0.1000
G1 x95.1755 y10.1505 z-0.1000
G1 x95.4455 y10.1705 z-0.1000
G1 x95.7055 y10.2605 z-0.1000
G1 x95.9255 y10.4105 z-0.1000
G1 x96.1055 y10.6105 z-0.1000
G1 x96.2255 y10.8505 z-0.1000
G1 x96.2755 y11.1105 z-0.1000
G1 x96.2555 y11.3805 z-0.1000
G1 x96.1655 y11.6305 z-0.1000
G1 x96.0155 y11.8505 z-0.1000
G1 x95.8155 y12.0305 z-0.1000
G1 x95.5755 y12.1505 z-0.1000
G1 x95.3155 y12.2005 z-0.1000
G1 x95.0455 y12.1805 z-0.1000
G1 x94.7955 y12.0905 z-0.1000
G1 x94.5655 y11.9405 z-0.1000
G1 x94.3855 y11.7305 z-0.1000
G1 x94.2755 y11.4905 z-0.1000
G0 z1.0000


G0 x96.7655 y11.2705
G0 z0.0000
F120.0000
G1 z-0.1000
F300.0000
G1 x96.7755 y11.0005 z-0.1000
G1 x96.8655 y10.7405 z-0.1000
G1 x97.0155 y10.5105 z-0.1000
G1 x97.2155 y10.3305 z-0.1000
G1 x97.4555 y10.2105 z-0.1000
G1 x97.7155 y10.1505 z-0.1000
G1 x97.9855 y10.1705 z-0.1000
G1 x98.2455 y10.2605 z-0.1000
G1 x98.4655 y10.4105 z-0.1000
G1 x98.6455 y10.6105 z-0.1000
G1 x98.7655 y10.8505 z-0.1000
G1 x98.8155 y11.1105 z-0.1000
G1 x98.7955 y11.3805 z-0.1000
G1 x98.7055 y11.6305 z-0.1000
G1 x98.5555 y11.8505 z-0.1000
G1 x98.3555 y12.0305 z-0.1000
G1 x98.1155 y12.1505 z-0.1000
G1 x97.8555 y12.2005 z-0.1000
G1 x97.5855 y12.1805 z-0.1000
G1 x97.3355 y12.0905 z-0.1000
G1 x97.1055 y11.9405 z-0.1000
G1 x96.9255 y11.7305 z-0.1000
G1 x96.8155 y11.4905 z-0.1000
G0 z1.0000


G0 x100.1141 y8.8925
G0 z0.0000
F120.0000
G1 z-0.1000
F300.0000
G1 x100.1141 y10.9245 z-0.1000
G1 x100.4773 y10.9245 z-0.1000
G1 x100.6932 y10.8280 z-0.1000
G1 x100.8405 y10.6350 z-0.1000
G1 x100.9117 y10.4419 z-0.1000
G1 x100.9853 y10.0533 z-0.1000
G1 x100.9853 y9.7638 z-0.1000
G1 x100.9117 y9.3777 z-0.1000
G1 x100.8405 y9.1821 z-0.1000
G1 x100.6932 y8.9891 z-0.1000
G1 x100.4773 y8.8925 z-0.1000
G1 x100.1141 y8.8925 z-0.1000
G0 z1.0000


G0 x102.4357 y10.8280
G0 z0.0000
F120.0000
G1 z-0.1000
F300.0000
G1 x102.2909 y10.9245 z-0.1000
G1 x102.0724 y10.9245 z-0.1000
G1 x101.8565 y10.8280 z-0.1000
G1 x101.7092 y10.6350 z-0.1000
G1 x101.6381 y10.4419 z-0.1000
G1 x101.5644 y10.0533 z-0.1000
G1 x101.5644 y9.7638 z-0.1000
G1 x101.6381 y9.3777 z-0.1000
G1 x101.7092 y9.1821 z-0.1000
G1 x101.8565 y8.9891 z-0.1000
G1 x102.0724 y8.8925 z-0.1000
G1 x102.2172 y8.8925 z-0.1000
G1 x102.4357 y8.9891 z-0.1000
G1 x102.5093 y9.0856 z-0.1000
G1 x102.5093 y9.7638 z-0.1000
G1 x102.2172 y9.7638 z-0.1000
G0 z1.0000


G0 x103.1621 y8.8925
G0 z0.0000
F120.0000
G1 z-0.1000
F300.0000
G1 x103.1621 y10.9245 z-0.1000
G1 x104.0333 y8.8925 z-0.1000
G1 x104.0333 y10.9245 z-0.1000
G0 z1.0000


G0 x106.6470 y8.2169
G0 z0.0000
F120.0000
G1 z-0.1000
F300.0000
G1 x106.6470 y11.1176 z-0.1000
G0 z1.0000


G0 x109.0397 y10.9245
G0 z0.0000
F120.0000
G1 z-0.1000
F300.0000
G1 x109.5477 y8.8925 z-0.1000
G1 x110.0557 y10.9245 z-0.1000
G0 z1.0000


G0 x110.5637 y9.6672
G0 z0.0000
F120.0000
G1 z-0.1000
F300.0000
G1 x111.7244 y9.6672 z-0.1000
G0 z1.0000


G0 x111.1428 y8.8925
G0 z0.0000
F120.0000
G1 z-0.1000
F300.0000
G1 x111.1428 y10.4419 z-0.1000
G0 z1.0000


G0 x107.7341 y8.8925
G0 z0.0000
F120.0000
G1 z-0.1000
F300.0000
G1 x107.7341 y10.9245 z-0.1000
G1 x108.0973 y10.9245 z-0.1000
G1 x108.3132 y10.8280 z-0.1000
G1 x108.4605 y10.6350 z-0.1000
G1 x108.5317 y10.4419 z-0.1000
G1 x108.6053 y10.0533 z-0.1000
G1 x108.6053 y9.7638 z-0.1000
G1 x108.5317 y9.3777 z-0.1000
G1 x108.4605 y9.1821 z-0.1000
G1 x108.3132 y8.9891 z-0.1000
G1 x108.0973 y8.8925 z-0.1000
G1 x107.7341 y8.8925 z-0.1000
G0 z1.0000


G0 x98.4606 y6.2255
G0 z0.0000
F120.0000
G1 z-0.1000
F300.0000
G1 x98.4606 y8.2575 z-0.1000
G1 x99.0397 y8.2575 z-0.1000
G1 x99.1870 y8.1610 z-0.1000
G1 x99.2581 y8.0645 z-0.1000
G1 x99.3318 y7.8715 z-0.1000
G1 x99.3318 y7.5819 z-0.1000
G1 x99.2581 y7.3863 z-0.1000
G1 x99.1870 y7.2898 z-0.1000
G1 x99.0397 y7.1933 z-0.1000
G1 x98.4606 y7.1933 z-0.1000
G0 z1.0000


G0 x96.9366 y6.3221
G0 z0.0000
F120.0000
G1 z-0.1000
F300.0000
G1 x97.1550 y6.2255 z-0.1000
G1 x97.5182 y6.2255 z-0.1000
G1 x97.6630 y6.3221 z-0.1000
G1 x97.7367 y6.4186 z-0.1000
G1 x97.8078 y6.6142 z-0.1000
G1 x97.8078 y6.8072 z-0.1000
G1 x97.7367 y7.0002 z-0.1000
G1 x97.6630 y7.0968 z-0.1000
G1 x97.5182 y7.1933 z-0.1000
G1 x97.2287 y7.2898 z-0.1000
G1 x97.0813 y7.3863 z-0.1000
G1 x97.0102 y7.4828 z-0.1000
G1 x96.9366 y7.6784 z-0.1000
G1 x96.9366 y7.8715 z-0.1000
G1 x97.0102 y8.0645 z-0.1000
G1 x97.0813 y8.1610 z-0.1000
G1 x97.2287 y8.2575 z-0.1000
G1 x97.5893 y8.2575 z-0.1000
G1 x97.8078 y8.1610 z-0.1000
G0 z1.0000


G0 x96.2838 y6.2255
G0 z0.0000
F120.0000
G1 z-0.1000
F300.0000
G1 x96.2838 y8.2575 z-0.1000
G0 z1.0000


G0 x94.4702 y6.2255
G0 z0.0000
F120.0000
G1 z-0.1000
F300.0000
G1 x93.9622 y7.1933 z-0.1000
G0 z1.0000


G0 x93.5990 y6.2255
G0 z0.0000
F120.0000
G1 z-0.1000
F300.0000
G1 x93.5990 y8.2575 z-0.1000
G1 x94.1781 y8.2575 z-0.1000
G1 x94.3254 y8.1610 z-0.1000
G1 x94.3966 y8.0645 z-0.1000
G1 x94.4702 y7.8715 z-0.1000
G1 x94.4702 y7.5819 z-0.1000
G1 x94.3966 y7.3863 z-0.1000
G1 x94.3254 y7.2898 z-0.1000
G1 x94.1781 y7.1933 z-0.1000
G1 x93.5990 y7.1933 z-0.1000
G0 z1.0000


G0 x92.0750 y8.2575
G0 z0.0000
F120.0000
G1 z-0.1000
F300.0000
G1 x92.5830 y6.2255 z-0.1000
G1 x93.0910 y8.2575 z-0.1000
G0 z1.0000


G0 x90.9142 y6.8072
G0 z0.0000
F120.0000
G1 z-0.1000
F300.0000
G1 x91.6407 y6.8072 z-0.1000
G0 z1.0000


G0 x90.7694 y6.2255
G0 z0.0000
F120.0000
G1 z-0.1000
F300.0000
G1 x91.2774 y8.2575 z-0.1000
G1 x91.7854 y6.2255 z-0.1000
G0 z1.0000


G0 x86.0603 y3.3071
G0 z0.0000
F120.0000
G1 z-0.1000
F300.0000
G1 x85.9866 y3.2106 z-0.1000
G1 x85.7682 y3.1140 z-0.1000
G1 x85.6234 y3.1140 z-0.1000
G1 x85.4075 y3.2106 z-0.1000
G1 x85.2602 y3.4036 z-0.1000
G1 x85.1891 y3.5992 z-0.1000
G1 x85.1154 y3.9853 z-0.1000
G1 x85.1154 y4.2748 z-0.1000
G1 x85.1891 y4.6634 z-0.1000
G1 x85.2602 y4.8565 z-0.1000
G1 x85.4075 y5.0495 z-0.1000
G1 x85.6234 y5.1460 z-0.1000
G1 x85.7682 y5.1460 z-0.1000
G1 x85.9866 y5.0495 z-0.1000
G1 x86.0603 y4.9530 z-0.1000
G0 z1.0000


G0 x83.6651 y3.1140
G0 z0.0000
F120.0000
G1 z-0.1000
F300.0000
G1 x83.6651 y5.1460 z-0.1000
G1 x84.0283 y5.1460 z-0.1000
G1 x84.2442 y5.0495 z-0.1000
G1 x84.3915 y4.8565 z-0.1000
G1 x84.4626 y4.6634 z-0.1000
G1 x84.5363 y4.2748 z-0.1000
G1 x84.5363 y3.9853 z-0.1000
G1 x84.4626 y3.5992 z-0.1000
G1 x84.3915 y3.4036 z-0.1000
G1 x84.2442 y3.2106 z-0.1000
G1 x84.0283 y3.1140 z-0.1000
G1 x83.6651 y3.1140 z-0.1000
G0 z1.0000


G0 x82.2858 y3.6957
G0 z0.0000
F120.0000
G1 z-0.1000
F300.0000
G1 x83.0123 y3.6957 z-0.1000
G0 z1.0000


G0 x82.1411 y3.1140
G0 z0.0000
F120.0000
G1 z-0.1000
F300.0000
G1 x82.6491 y5.1460 z-0.1000
G1 x83.1571 y3.1140 z-0.1000
G0 z1.0000


G0 x80.1091 y4.4704
G0 z0.0000
F120.0000
G1 z-0.1000
F300.0000
G1 x80.6907 y4.4704 z-0.1000
G0 z1.0000


G0 x80.3275 y5.1460
G0 z0.0000
F120.0000
G1 z-0.1000
F300.0000
G1 x80.3275 y3.4036 z-0.1000
G1 x80.3986 y3.2106 z-0.1000
G1 x80.5459 y3.1140 z-0.1000
G1 x80.6907 y3.1140 z-0.1000
G0 z1.0000


G0 x79.6011 y3.1140
G0 z0.0000
F120.0000
G1 z-0.1000
F300.0000
G1 x79.6011 y4.4704 z-0.1000
G0 z1.0000


G0 x79.6011 y5.1460
G0 z0.0000
F120.0000
G1 z-0.1000
F300.0000
G1 x79.5274 y5.0495 z-0.1000
G1 x79.6011 y4.9530 z-0.1000
G1 x79.6722 y5.0495 z-0.1000
G1 x79.6011 y5.1460 z-0.1000
G1 x79.6011 y4.9530 z-0.1000
G0 z1.0000


G0 x78.5851 y4.1783
G0 z0.0000
F120.0000
G1 z-0.1000
F300.0000
G1 x78.8035 y4.0818 z-0.1000
G1 x78.8746 y3.9853 z-0.1000
G1 x78.9483 y3.7922 z-0.1000
G1 x78.9483 y3.5027 z-0.1000
G1 x78.8746 y3.3071 z-0.1000
G1 x78.8035 y3.2106 z-0.1000
G1 x78.6562 y3.1140 z-0.1000
G1 x78.0771 y3.1140 z-0.1000
G1 x78.0771 y5.1460 z-0.1000
G1 x78.5851 y5.1460 z-0.1000
G1 x78.7298 y5.0495 z-0.1000
G1 x78.8035 y4.9530 z-0.1000
G1 x78.8746 y4.7600 z-0.1000
G1 x78.8746 y4.5669 z-0.1000
G1 x78.8035 y4.3713 z-0.1000
G1 x78.7298 y4.2748 z-0.1000
G1 x78.5851 y4.1783 z-0.1000
G1 x78.0771 y4.1783 z-0.1000
G0 z1.0000


G0 x77.4243 y3.1140
G0 z0.0000
F120.0000
G1 z-0.1000
F300.0000
G1 x76.5531 y3.1140 z-0.1000
G0 z1.0000


G0 x76.9899 y3.1140
G0 z0.0000
F120.0000
G1 z-0.1000
F300.0000
G1 x76.9899 y5.1460 z-0.1000
G1 x76.8452 y4.8565 z-0.1000
G1 x76.6978 y4.6634 z-0.1000
G1 x76.5531 y4.5669 z-0.1000
G0 z1.0000


G0 x75.0316 y5.1460
G0 z0.0000
F120.0000
G1 z-0.1000
F300.0000
G1 x75.9739 y5.1460 z-0.1000
G1 x75.4659 y4.3713 z-0.1000
G1 x75.6844 y4.3713 z-0.1000
G1 x75.8292 y4.2748 z-0.1000
G1 x75.9028 y4.1783 z-0.1000
G1 x75.9739 y3.9853 z-0.1000
G1 x75.9739 y3.5027 z-0.1000
G1 x75.9028 y3.3071 z-0.1000
G1 x75.8292 y3.2106 z-0.1000
G1 x75.6844 y3.1140 z-0.1000
G1 x75.2475 y3.1140 z-0.1000
G1 x75.1027 y3.2106 z-0.1000
G1 x75.0316 y3.3071 z-0.1000
G0 z1.0000


G0 x71.9201 y4.7676
G0 z0.0000
F120.0000
G1 z-0.1000
F300.0000
G1 x71.9912 y4.6711 z-0.1000
G1 x71.9201 y4.5745 z-0.1000
G1 x71.8464 y4.6711 z-0.1000
G1 x71.9201 y4.7676 z-0.1000
G1 x71.9201 y4.5745 z-0.1000
G0 z1.0000


G0 x71.2673 y4.5745
G0 z0.0000
F120.0000
G1 z-0.1000
F300.0000
G1 x70.7593 y5.5423 z-0.1000
G0 z1.0000


G0 x70.3961 y4.5745
G0 z0.0000
F120.0000
G1 z-0.1000
F300.0000
G1 x70.3961 y6.6065 z-0.1000
G1 x70.9752 y6.6065 z-0.1000
G1 x71.1225 y6.5100 z-0.1000
G1 x71.1937 y6.4135 z-0.1000
G1 x71.2673 y6.2205 z-0.1000
G1 x71.2673 y5.9309 z-0.1000
G1 x71.1937 y5.7353 z-0.1000
G1 x71.1225 y5.6388 z-0.1000
G1 x70.9752 y5.5423 z-0.1000
G1 x70.3961 y5.5423 z-0.1000
G0 z1.0000


G0 x69.7433 y4.5745
G0 z0.0000
F120.0000
G1 z-0.1000
F300.0000
G1 x69.0169 y4.5745 z-0.1000
G1 x69.0169 y6.6065 z-0.1000
G1 x69.7433 y6.6065 z-0.1000
G0 z1.0000


G0 x69.0169 y5.6388
G0 z0.0000
F120.0000
G1 z-0.1000
F300.0000
G1 x69.5249 y5.6388 z-0.1000
G0 z1.0000


G0 x67.4929 y4.5745
G0 z0.0000
F120.0000
G1 z-0.1000
F300.0000
G1 x67.4929 y6.6065 z-0.1000
G1 x68.0720 y6.6065 z-0.1000
G1 x68.2193 y6.5100 z-0.1000
G1 x68.2904 y6.4135 z-0.1000
G1 x68.3641 y6.2205 z-0.1000
G1 x68.3641 y5.9309 z-0.1000
G1 x68.2904 y5.7353 z-0.1000
G1 x68.2193 y5.6388 z-0.1000
G1 x68.0720 y5.5423 z-0.1000
G1 x67.4929 y5.5423 z-0.1000
G0 z1.0000


G0 x65.7504 y4.5745
G0 z0.0000
F120.0000
G1 z-0.1000
F300.0000
G1 x65.7504 y6.6065 z-0.1000
G1 x66.2584 y5.1562 z-0.1000
G1 x66.7664 y6.6065 z-0.1000
G1 x66.7664 y4.5745 z-0.1000
G0 z1.0000


G0 x64.1528 y6.6065
G0 z0.0000
F120.0000
G1 z-0.1000
F300.0000
G1 x64.1528 y4.9632 z-0.1000
G1 x64.2239 y4.7676 z-0.1000
G1 x64.2976 y4.6711 z-0.1000
G1 x64.4423 y4.5745 z-0.1000
G1 x64.7319 y4.5745 z-0.1000
G1 x64.8792 y4.6711 z-0.1000
G1 x64.9503 y4.7676 z-0.1000
G1 x65.0240 y4.9632 z-0.1000
G1 x65.0240 y6.6065 z-0.1000
G0 z1.0000


G0 x63.4263 y6.6065
G0 z0.0000
F120.0000
G1 z-0.1000
F300.0000
G1 x63.4263 y5.1562 z-0.1000
G1 x63.3552 y4.8641 z-0.1000
G1 x63.2104 y4.6711 z-0.1000
G1 x62.9920 y4.5745 z-0.1000
G1 x62.8472 y4.5745 z-0.1000
G0 z1.0000


G0 x59.5808 y4.5745
G0 z0.0000
F120.0000
G1 z-0.1000
F300.0000
G1 x59.5808 y6.6065 z-0.1000
G1 x60.1599 y6.6065 z-0.1000
G1 x60.3072 y6.5100 z-0.1000
G1 x60.3783 y6.4135 z-0.1000
G1 x60.4520 y6.2205 z-0.1000
G1 x60.4520 y5.9309 z-0.1000
G1 x60.3783 y5.7353 z-0.1000
G1 x60.3072 y5.6388 z-0.1000
G1 x60.1599 y5.5423 z-0.1000
G1 x59.5808 y5.5423 z-0.1000
G0 z1.0000


G0 x58.0568 y4.6711
G0 z0.0000
F120.0000
G1 z-0.1000
F300.0000
G1 x58.2752 y4.5745 z-0.1000
G1 x58.6384 y4.5745 z-0.1000
G1 x58.7832 y4.6711 z-0.1000
G1 x58.8569 y4.7676 z-0.1000
G1 x58.9280 y4.9632 z-0.1000
G1 x58.9280 y5.1562 z-0.1000
G1 x58.8569 y5.3492 z-0.1000
G1 x58.7832 y5.4458 z-0.1000
G1 x58.6384 y5.5423 z-0.1000
G1 x58.3489 y5.6388 z-0.1000
G1 x58.2016 y5.7353 z-0.1000
G1 x58.1304 y5.8318 z-0.1000
G1 x58.0568 y6.0274 z-0.1000
G1 x58.0568 y6.2205 z-0.1000
G1 x58.1304 y6.4135 z-0.1000
G1 x58.2016 y6.5100 z-0.1000
G1 x58.3489 y6.6065 z-0.1000
G1 x58.7096 y6.6065 z-0.1000
G1 x58.9280 y6.5100 z-0.1000
G0 z1.0000


G0 x51.3182 y4.4348
G0 z0.0000
F120.0000
G1 z-0.1000
F300.0000
G1 x50.4469 y3.2741 z-0.1000
G0 z1.0000


G0 x50.4469 y2.4028
G0 z0.0000
F120.0000
G1 z-0.1000
F300.0000
G1 x50.4469 y4.4348 z-0.1000
G0 z1.0000


G0 x49.0677 y3.4671
G0 z0.0000
F120.0000
G1 z-0.1000
F300.0000
G1 x49.1414 y3.6601 z-0.1000
G1 x49.2862 y3.7592 z-0.1000
G1 x49.5021 y3.7592 z-0.1000
G1 x49.6494 y3.6601 z-0.1000
G1 x49.7205 y3.4671 z-0.1000
G1 x49.7205 y2.4028 z-0.1000
G0 z1.0000


G0 x48.4149 y2.4028
G0 z0.0000
F120.0000
G1 z-0.1000
F300.0000
G1 x48.4149 y3.7592 z-0.1000
G0 z1.0000


G0 x48.4149 y3.5636
G0 z0.0000
F120.0000
G1 z-0.1000
F300.0000
G1 x48.4861 y3.6601 z-0.1000
G1 x48.6334 y3.7592 z-0.1000
G1 x48.8493 y3.7592 z-0.1000
G1 x48.9941 y3.6601 z-0.1000
G1 x49.0677 y3.4671 z-0.1000
G1 x49.0677 y2.4028 z-0.1000
G0 z1.0000


G0 x47.7622 y2.4028
G0 z0.0000
F120.0000
G1 z-0.1000
F300.0000
G1 x46.8909 y2.4028 z-0.1000
G0 z1.0000


G0 x47.3278 y2.4028
G0 z0.0000
F120.0000
G1 z-0.1000
F300.0000
G1 x47.3278 y4.4348 z-0.1000
G1 x47.1830 y4.1453 z-0.1000
G1 x47.0357 y3.9522 z-0.1000
G1 x46.8909 y3.8557 z-0.1000
G0 z1.0000


G0 x45.0774 y3.6601
G0 z0.0000
F120.0000
G1 z-0.1000
F300.0000
G1 x45.1485 y3.5636 z-0.1000
G1 x45.0774 y3.4671 z-0.1000
G1 x45.0037 y3.5636 z-0.1000
G1 x45.0774 y3.6601 z-0.1000
G1 x45.0774 y3.4671 z-0.1000
G0 z1.0000


G0 x45.0774 y2.5959
G0 z0.0000
F120.0000
G1 z-0.1000
F300.0000
G1 x45.1485 y2.4994 z-0.1000
G1 x45.0774 y2.4028 z-0.1000
G1 x45.0037 y2.4994 z-0.1000
G1 x45.0774 y2.5959 z-0.1000
G1 x45.0774 y2.4028 z-0.1000
G0 z1.0000


G0 x44.4246 y2.4028
G0 z0.0000
F120.0000
G1 z-0.1000
F300.0000
G1 x43.6982 y2.4028 z-0.1000
G1 x43.6982 y4.4348 z-0.1000
G1 x44.4246 y4.4348 z-0.1000
G0 z1.0000


G0 x43.6982 y3.4671
G0 z0.0000
F120.0000
G1 z-0.1000
F300.0000
G1 x44.2062 y3.4671 z-0.1000
G0 z1.0000


G0 x43.0454 y2.4028
G0 z0.0000
F120.0000
G1 z-0.1000
F300.0000
G1 x42.5374 y3.3706 z-0.1000
G0 z1.0000


G0 x42.1742 y2.4028
G0 z0.0000
F120.0000
G1 z-0.1000
F300.0000
G1 x42.1742 y4.4348 z-0.1000
G1 x42.7533 y4.4348 z-0.1000
G1 x42.9006 y4.3383 z-0.1000
G1 x42.9717 y4.2418 z-0.1000
G1 x43.0454 y4.0488 z-0.1000
G1 x43.0454 y3.7592 z-0.1000
G1 x42.9717 y3.5636 z-0.1000
G1 x42.9006 y3.4671 z-0.1000
G1 x42.7533 y3.3706 z-0.1000
G1 x42.1742 y3.3706 z-0.1000
G0 z1.0000


G0 x40.5765 y4.4348
G0 z0.0000
F120.0000
G1 z-0.1000
F300.0000
G1 x40.5765 y2.7915 z-0.1000
G1 x40.6476 y2.5959 z-0.1000
G1 x40.7213 y2.4994 z-0.1000
G1 x40.8661 y2.4028 z-0.1000
G1 x41.1556 y2.4028 z-0.1000
G1 x41.3029 y2.4994 z-0.1000
G1 x41.3741 y2.5959 z-0.1000
G1 x41.4477 y2.7915 z-0.1000
G1 x41.4477 y4.4348 z-0.1000
G0 z1.0000


G0 x40.9778 y5.7455
G0 z0.0000
F120.0000
G1 z-0.1000
F300.0000
G1 x41.0489 y5.6490 z-0.1000
G1 x40.9778 y5.5524 z-0.1000
G1 x40.9042 y5.6490 z-0.1000
G1 x40.9778 y5.7455 z-0.1000
G1 x40.9778 y5.5524 z-0.1000
G0 z1.0000


G0 x40.0355 y5.5524
G0 z0.0000
F120.0000
G1 z-0.1000
F300.0000
G1 x40.0355 y7.5844 z-0.1000
G0 z1.0000


G0 x39.5986 y7.5844
G0 z0.0000
F120.0000
G1 z-0.1000
F300.0000
G1 x40.4698 y7.5844 z-0.1000
G0 z1.0000


G0 x40.9778 y6.8097
G0 z0.0000
F120.0000
G1 z-0.1000
F300.0000
G1 x41.0489 y6.7132 z-0.1000
G1 x40.9778 y6.6167 z-0.1000
G1 x40.9042 y6.7132 z-0.1000
G1 x40.9778 y6.8097 z-0.1000
G1 x40.9778 y6.6167 z-0.1000
G0 z1.0000


G0 x41.0870 y8.7020
G0 z0.0000
F120.0000
G1 z-0.1000
F300.0000
G1 x41.0870 y10.7340 z-0.1000
G0 z1.0000


G0 x40.6502 y10.7340
G0 z0.0000
F120.0000
G1 z-0.1000
F300.0000
G1 x41.5214 y10.7340 z-0.1000
G0 z1.0000


G0 x43.0454 y10.7340
G0 z0.0000
F120.0000
G1 z-0.1000
F300.0000
G1 x43.3349 y10.7340 z-0.1000
G1 x43.4823 y10.6375 z-0.1000
G1 x43.6270 y10.4445 z-0.1000
G1 x43.6982 y10.0584 z-0.1000
G1 x43.6982 y9.3802 z-0.1000
G1 x43.6270 y8.9916 z-0.1000
G1 x43.4823 y8.7986 z-0.1000
G1 x43.3349 y8.7020 z-0.1000
G1 x43.0454 y8.7020 z-0.1000
G1 x42.9006 y8.7986 z-0.1000
G1 x42.7558 y8.9916 z-0.1000
G1 x42.6822 y9.3802 z-0.1000
G1 x42.6822 y10.0584 z-0.1000
G1 x42.7558 y10.4445 z-0.1000
G1 x42.9006 y10.6375 z-0.1000
G1 x43.0454 y10.7340 z-0.1000
G0 z1.0000


G0 x42.0294 y8.7020
G0 z0.0000
F120.0000
G1 z-0.1000
F300.0000
G1 x42.0294 y10.7340 z-0.1000
G0 z1.0000


G0 x39.2709 y10.7340
G0 z0.0000
F120.0000
G1 z-0.1000
F300.0000
G1 x39.2709 y9.0907 z-0.1000
G1 x39.3421 y8.8951 z-0.1000
G1 x39.4157 y8.7986 z-0.1000
G1 x39.5605 y8.7020 z-0.1000
G1 x39.8501 y8.7020 z-0.1000
G1 x39.9974 y8.7986 z-0.1000
G1 x40.0685 y8.8951 z-0.1000
G1 x40.1422 y9.0907 z-0.1000
G1 x40.1422 y10.7340 z-0.1000
G0 z1.0000


G0 x38.7629 y8.7020
G0 z0.0000
F120.0000
G1 z-0.1000
F300.0000
G1 x38.0365 y8.7020 z-0.1000
G1 x38.0365 y10.7340 z-0.1000
G0 z1.0000


G0 x36.7284 y10.7340
G0 z0.0000
F120.0000
G1 z-0.1000
F300.0000
G1 x37.0180 y10.7340 z-0.1000
G1 x37.1653 y10.6375 z-0.1000
G1 x37.3101 y10.4445 z-0.1000
G1 x37.3812 y10.0584 z-0.1000
G1 x37.3812 y9.3802 z-0.1000
G1 x37.3101 y8.9916 z-0.1000
G1 x37.1653 y8.7986 z-0.1000
G1 x37.0180 y8.7020 z-0.1000
G1 x36.7284 y8.7020 z-0.1000
G1 x36.5836 y8.7986 z-0.1000
G1 x36.4388 y8.9916 z-0.1000
G1 x36.3652 y9.3802 z-0.1000
G1 x36.3652 y10.0584 z-0.1000
G1 x36.4388 y10.4445 z-0.1000
G1 x36.5836 y10.6375 z-0.1000
G1 x36.7284 y10.7340 z-0.1000
G0 z1.0000


G0 x34.9148 y8.7986
G0 z0.0000
F120.0000
G1 z-0.1000
F300.0000
G1 x35.1333 y8.7020 z-0.1000
G1 x35.4965 y8.7020 z-0.1000
G1 x35.6413 y8.7986 z-0.1000
G1 x35.7149 y8.8951 z-0.1000
G1 x35.7861 y9.0907 z-0.1000
G1 x35.7861 y9.2837 z-0.1000
G1 x35.7149 y9.4767 z-0.1000
G1 x35.6413 y9.5733 z-0.1000
G1 x35.4965 y9.6698 z-0.1000
G1 x35.2069 y9.7663 z-0.1000
G1 x35.0596 y9.8628 z-0.1000
G1 x34.9885 y9.9593 z-0.1000
G1 x34.9148 y10.1549 z-0.1000
G1 x34.9148 y10.3480 z-0.1000
G1 x34.9885 y10.5410 z-0.1000
G1 x35.0596 y10.6375 z-0.1000
G1 x35.2069 y10.7340 z-0.1000
G1 x35.5676 y10.7340 z-0.1000
G1 x35.7861 y10.6375 z-0.1000
G0 z1.0000


G0 x33.6093 y9.7663
G0 z0.0000
F120.0000
G1 z-0.1000
F300.0000
G1 x34.1173 y9.7663 z-0.1000
G0 z1.0000


G0 x34.3357 y8.7020
G0 z0.0000
F120.0000
G1 z-0.1000
F300.0000
G1 x33.6093 y8.7020 z-0.1000
G1 x33.6093 y10.7340 z-0.1000
G1 x34.3357 y10.7340 z-0.1000
G0 z1.0000


G0 x32.9565 y8.7020
G0 z0.0000
F120.0000
G1 z-0.1000
F300.0000
G1 x32.4485 y9.6698 z-0.1000
G0 z1.0000


G0 x32.0853 y8.7020
G0 z0.0000
F120.0000
G1 z-0.1000
F300.0000
G1 x32.0853 y10.7340 z-0.1000
G1 x32.6644 y10.7340 z-0.1000
G1 x32.8117 y10.6375 z-0.1000
G1 x32.8828 y10.5410 z-0.1000
G1 x32.9565 y10.3480 z-0.1000
G1 x32.9565 y10.0584 z-0.1000
G1 x32.8828 y9.8628 z-0.1000
G1 x32.8117 y9.7663 z-0.1000
G1 x32.6644 y9.6698 z-0.1000
G1 x32.0853 y9.6698 z-0.1000
G0 z1.0000


G0 x32.7025 y7.5844
G0 z0.0000
F120.0000
G1 z-0.1000
F300.0000
G1 x33.0657 y5.5524 z-0.1000
G1 x33.3553 y7.0053 z-0.1000
G1 x33.6448 y5.5524 z-0.1000
G1 x34.0081 y7.5844 z-0.1000
G0 z1.0000


G0 x34.5897 y6.6167
G0 z0.0000
F120.0000
G1 z-0.1000
F300.0000
G1 x35.0977 y6.6167 z-0.1000
G0 z1.0000


G0 x35.3162 y5.5524
G0 z0.0000
F120.0000
G1 z-0.1000
F300.0000
G1 x34.5897 y5.5524 z-0.1000
G1 x34.5897 y7.5844 z-0.1000
G1 x35.3162 y7.5844 z-0.1000
G0 z1.0000


G0 x35.9689 y5.5524
G0 z0.0000
F120.0000
G1 z-0.1000
F300.0000
G1 x35.9689 y7.5844 z-0.1000
G0 z1.0000


G0 x37.4929 y7.4879
G0 z0.0000
F120.0000
G1 z-0.1000
F300.0000
G1 x37.3482 y7.5844 z-0.1000
G1 x37.1297 y7.5844 z-0.1000
G1 x36.9138 y7.4879 z-0.1000
G1 x36.7665 y7.2949 z-0.1000
G1 x36.6954 y7.1018 z-0.1000
G1 x36.6217 y6.7132 z-0.1000
G1 x36.6217 y6.4237 z-0.1000
G1 x36.6954 y6.0376 z-0.1000
G1 x36.7665 y5.8420 z-0.1000
G1 x36.9138 y5.6490 z-0.1000
G1 x37.1297 y5.5524 z-0.1000
G1 x37.2745 y5.5524 z-0.1000
G1 x37.4929 y5.6490 z-0.1000
G1 x37.5666 y5.7455 z-0.1000
G1 x37.5666 y6.4237 z-0.1000
G1 x37.2745 y6.4237 z-0.1000
G0 z1.0000


G0 x38.2194 y6.6167
G0 z0.0000
F120.0000
G1 z-0.1000
F300.0000
G1 x39.0906 y6.6167 z-0.1000
G0 z1.0000


G0 x39.0906 y5.5524
G0 z0.0000
F120.0000
G1 z-0.1000
F300.0000
G1 x39.0906 y7.5844 z-0.1000
G0 z1.0000


G0 x38.2194 y5.5524
G0 z0.0000
F120.0000
G1 z-0.1000
F300.0000
G1 x38.2194 y7.5844 z-0.1000
G0 z1.0000


G0 x39.1973 y4.4348
G0 z0.0000
F120.0000
G1 z-0.1000
F300.0000
G1 x40.0685 y4.4348 z-0.1000
G0 z1.0000


G0 x39.6342 y2.4028
G0 z0.0000
F120.0000
G1 z-0.1000
F300.0000
G1 x39.6342 y4.4348 z-0.1000
G0 z1.0000


G0 x38.0365 y2.9845
G0 z0.0000
F120.0000
G1 z-0.1000
F300.0000
G1 x38.7629 y2.9845 z-0.1000
G0 z1.0000


G0 x37.8917 y2.4028
G0 z0.0000
F120.0000
G1 z-0.1000
F300.0000
G1 x38.3997 y4.4348 z-0.1000
G1 x38.9077 y2.4028 z-0.1000
G0 z1.0000


G0 x37.4574 y2.4028
G0 z0.0000
F120.0000
G1 z-0.1000
F300.0000
G1 x36.9494 y3.3706 z-0.1000
G0 z1.0000


G0 x36.5862 y2.4028
G0 z0.0000
F120.0000
G1 z-0.1000
F300.0000
G1 x36.5862 y4.4348 z-0.1000
G1 x37.1653 y4.4348 z-0.1000
G1 x37.3126 y4.3383 z-0.1000
G1 x37.3837 y4.2418 z-0.1000
G1 x37.4574 y4.0488 z-0.1000
G1 x37.4574 y3.7592 z-0.1000
G1 x37.3837 y3.5636 z-0.1000
G1 x37.3126 y3.4671 z-0.1000
G1 x37.1653 y3.3706 z-0.1000
G1 x36.5862 y3.3706 z-0.1000
G0 z1.0000


G0 x35.9334 y2.4028
G0 z0.0000
F120.0000
G1 z-0.1000
F300.0000
G1 x35.2069 y2.4028 z-0.1000
G1 x35.2069 y4.4348 z-0.1000
G1 x35.9334 y4.4348 z-0.1000
G0 z1.0000


G0 x35.2069 y3.4671
G0 z0.0000
F120.0000
G1 z-0.1000
F300.0000
G1 x35.7149 y3.4671 z-0.1000
G0 z1.0000


G0 x33.6829 y2.4028
G0 z0.0000
F120.0000
G1 z-0.1000
F300.0000
G1 x33.6829 y4.4348 z-0.1000
G1 x34.2621 y4.4348 z-0.1000
G1 x34.4094 y4.3383 z-0.1000
G1 x34.4805 y4.2418 z-0.1000
G1 x34.5542 y4.0488 z-0.1000
G1 x34.5542 y3.7592 z-0.1000
G1 x34.4805 y3.5636 z-0.1000
G1 x34.4094 y3.4671 z-0.1000
G1 x34.2621 y3.3706 z-0.1000
G1 x33.6829 y3.3706 z-0.1000
G0 z1.0000


G0 x31.9405 y2.4028
G0 z0.0000
F120.0000
G1 z-0.1000
F300.0000
G1 x31.9405 y4.4348 z-0.1000
G1 x32.4485 y2.9845 z-0.1000
G1 x32.9565 y4.4348 z-0.1000
G1 x32.9565 y2.4028 z-0.1000
G0 z1.0000


G0 x31.2877 y2.4028
G0 z0.0000
F120.0000
G1 z-0.1000
F300.0000
G1 x30.5613 y2.4028 z-0.1000
G1 x30.5613 y4.4348 z-0.1000
G1 x31.2877 y4.4348 z-0.1000
G0 z1.0000


G0 x30.5613 y3.4671
G0 z0.0000
F120.0000
G1 z-0.1000
F300.0000
G1 x31.0693 y3.4671 z-0.1000
G0 z1.0000


G0 x29.6189 y2.4028
G0 z0.0000
F120.0000
G1 z-0.1000
F300.0000
G1 x29.6189 y4.4348 z-0.1000
G0 z1.0000


G0 x29.1821 y4.4348
G0 z0.0000
F120.0000
G1 z-0.1000
F300.0000
G1 x30.0533 y4.4348 z-0.1000
G0 z1.0000


G0 x29.2075 y6.8148
G0 z0.0000
F120.0000
G1 z-0.1000
F300.0000
G1 x27.1755 y6.8148 z-0.1000
G0 z1.0000


G0 x27.1755 y6.3779
G0 z0.0000
F120.0000
G1 z-0.1000
F300.0000
G1 x27.1755 y7.2492 z-0.1000
G0 z1.0000


G0 x27.8511 y7.6124
G0 z0.0000
F120.0000
G1 z-0.1000
F300.0000
G1 x29.2075 y8.4099 z-0.1000
G0 z1.0000


G0 x29.2075 y8.9916
G0 z0.0000
F120.0000
G1 z-0.1000
F300.0000
G1 x27.1755 y8.9916 z-0.1000
G1 x27.1755 y9.3548 z-0.1000
G1 x27.2720 y9.5707 z-0.1000
G1 x27.4650 y9.7180 z-0.1000
G1 x27.6581 y9.7892 z-0.1000
G1 x28.0467 y9.8628 z-0.1000
G1 x28.3362 y9.8628 z-0.1000
G1 x28.7223 y9.7892 z-0.1000
G1 x28.9179 y9.7180 z-0.1000
G1 x29.1109 y9.5707 z-0.1000
G1 x29.2075 y9.3548 z-0.1000
G1 x29.2075 y8.9916 z-0.1000
G0 z1.0000


G0 x29.2075 y7.6124
G0 z0.0000
F120.0000
G1 z-0.1000
F300.0000
G1 x27.8511 y8.4099 z-0.1000
G0 z1.0000


G0 x26.2865 y7.7292
G0 z0.0000
F120.0000
G1 z-0.1000
F300.0000
G1 x24.9301 y8.5268 z-0.1000
G0 z1.0000


G0 x26.2865 y9.1084
G0 z0.0000
F120.0000
G1 z-0.1000
F300.0000
G1 x24.2545 y9.1084 z-0.1000
G1 x24.2545 y9.4717 z-0.1000
G1 x24.3510 y9.6876 z-0.1000
G1 x24.5440 y9.8349 z-0.1000
G1 x24.7371 y9.9060 z-0.1000
G1 x25.1257 y9.9797 z-0.1000
G1 x25.4152 y9.9797 z-0.1000
G1 x25.8013 y9.9060 z-0.1000
G1 x25.9969 y9.8349 z-0.1000
G1 x26.1899 y9.6876 z-0.1000
G1 x26.2865 y9.4717 z-0.1000
G1 x26.2865 y9.1084 z-0.1000
G0 z1.0000


G0 x26.2865 y7.2212
G0 z0.0000
F120.0000
G1 z-0.1000
F300.0000
G1 x25.3187 y6.7132 z-0.1000
G0 z1.0000


G0 x26.2865 y6.3500
G0 z0.0000
F120.0000
G1 z-0.1000
F300.0000
G1 x24.2545 y6.3500 z-0.1000
G1 x24.2545 y6.9291 z-0.1000
G1 x24.3510 y7.0764 z-0.1000
G1 x24.4475 y7.1476 z-0.1000
G1 x24.6405 y7.2212 z-0.1000
G1 x24.9301 y7.2212 z-0.1000
G1 x25.1257 y7.1476 z-0.1000
G1 x25.2222 y7.0764 z-0.1000
G1 x25.3187 y6.9291 z-0.1000
G1 x25.3187 y6.3500 z-0.1000
G0 z1.0000


G0 x24.1215 y15.9275
G0 z0.0000
F120.0000
G1 z-0.1000
F300.0000
G1 x24.1215 y15.6575 z-0.1000
G1 x24.1215 y15.3875 z-0.1000
G1 x24.1215 y15.1175 z-0.1000
G1 x24.1215 y14.8475 z-0.1000
G1 x24.1215 y14.5775 z-0.1000
G1 x24.1215 y14.3075 z-0.1000
G1 x24.3015 y14.0975 z-0.1000
G1 x24.5715 y14.0875 z-0.1000
G1 x24.8415 y14.0875 z-0.1000
G1 x25.1115 y14.0875 z-0.1000
G1 x25.3815 y14.0875 z-0.1000
G1 x25.6515 y14.0875 z-0.1000
G1 x25.9215 y14.0875 z-0.1000
G1 x26.1915 y14.0875 z-0.1000
G1 x26.4615 y14.0875 z-0.1000
G1 x26.6615 y14.2675 z-0.1000
G1 x26.6715 y14.5375 z-0.1000
G1 x26.6715 y14.8075 z-0.1000
G1 x26.6715 y15.0775 z-0.1000
G1 x26.6715 y15.3475 z-0.1000
G1 x26.6715 y15.6175 z-0.1000
G1 x26.6715 y15.8875 z-0.1000
G1 x26.5215 y16.1175 z-0.1000
G1 x26.2515 y16.1375 z-0.1000
G1 x25.9815 y16.1375 z-0.1000
G1 x26.1815 y16.3175 z-0.1000
G1 x26.4415 y16.3575 z-0.1000
G1 x26.5615 y16.5975 z-0.1000
G1 x26.5615 y16.8675 z-0.1000
G1 x26.5615 y17.1375 z-0.1000
G1 x26.5615 y17.4075 z-0.1000
G1 x26.5615 y17.6775 z-0.1000
G1 x26.5615 y17.9475 z-0.1000
G1 x26.5615 y18.2175 z-0.1000
G1 x26.3815 y18.4275 z-0.1000
G1 x26.1115 y18.4375 z-0.1000
G1 x25.8415 y18.4375 z-0.1000
G1 x25.5715 y18.4375 z-0.1000
G1 x25.3015 y18.4375 z-0.1000
G1 x25.0315 y18.4375 z-0.1000
G1 x24.7615 y18.4375 z-0.1000
G1 x24.4915 y18.4375 z-0.1000
G1 x24.2615 y18.2875 z-0.1000
G1 x24.2415 y18.0175 z-0.1000
G1 x24.2415 y17.7475 z-0.1000
G1 x24.2415 y17.4775 z-0.1000
G1 x24.2415 y17.2075 z-0.1000
G1 x24.2415 y16.9375 z-0.1000
G1 x24.2415 y16.6675 z-0.1000
G1 x24.3015 y16.4075 z-0.1000
G1 x24.5515 y16.3175 z-0.1000
G1 x24.8215 y16.3175 z-0.1000
G1 x24.6215 y16.1375 z-0.1000
G1 x24.3515 y16.1375 z-0.1000
G1 x24.1415 y15.9775 z-0.1000
G0 z1.0000


G0 x26.5231 y18.2275
G0 z0.0000
F120.0000
G1 z-0.1000
F300.0000
G1 x26.5231 y17.9575 z-0.1000
G1 x26.5231 y17.6875 z-0.1000
G1 x26.5231 y17.4175 z-0.1000
G1 x26.5231 y17.1475 z-0.1000
G1 x26.5231 y16.8775 z-0.1000
G1 x26.5231 y16.6075 z-0.1000
G1 x26.6331 y16.3675 z-0.1000
G1 x26.8931 y16.3175 z-0.1000
G1 x27.1631 y16.3175 z-0.1000
G1 x27.4331 y16.3175 z-0.1000
G1 x27.6831 y16.2275 z-0.1000
G1 x27.4331 y16.1375 z-0.1000
G1 x27.1631 y16.1375 z-0.1000
G1 x26.9331 y15.9875 z-0.1000
G1 x26.9131 y15.7175 z-0.1000
G1 x26.9131 y15.4475 z-0.1000
G1 x26.9131 y15.1775 z-0.1000
G1 x26.9131 y14.9075 z-0.1000
G1 x26.9131 y14.6375 z-0.1000
G1 x26.9131 y14.3675 z-0.1000
G1 x27.0331 y14.1275 z-0.1000
G1 x27.2931 y14.0875 z-0.1000
G1 x27.5631 y14.0875 z-0.1000
G1 x27.8331 y14.0875 z-0.1000
G1 x28.1031 y14.0875 z-0.1000
G1 x28.3731 y14.0875 z-0.1000
G1 x28.6431 y14.0875 z-0.1000
G1 x28.9131 y14.0875 z-0.1000
G1 x29.1831 y14.0875 z-0.1000
G1 x29.4231 y14.1975 z-0.1000
G1 x29.4731 y14.4575 z-0.1000
G1 x29.4731 y14.7275 z-0.1000
G1 x29.4731 y14.9975 z-0.1000
G1 x29.4731 y15.2675 z-0.1000
G1 x29.4731 y15.5375 z-0.1000
G1 x29.4731 y15.8075 z-0.1000
G1 x29.3931 y16.0675 z-0.1000
G1 x29.1331 y16.1375 z-0.1000
G1 x28.8631 y16.1375 z-0.1000
G1 x28.7331 y16.3675 z-0.1000
G1 x28.8431 y16.6075 z-0.1000
G1 x28.8431 y16.8775 z-0.1000
G1 x28.8431 y17.1475 z-0.1000
G1 x28.8431 y17.4175 z-0.1000
G1 x28.8431 y17.6875 z-0.1000
G1 x28.8431 y17.9575 z-0.1000
G1 x28.8431 y18.2275 z-0.1000
G1 x28.6631 y18.4275 z-0.1000
G1 x28.3931 y18.4375 z-0.1000
G1 x28.1231 y18.4375 z-0.1000
G1 x27.8531 y18.4375 z-0.1000
G1 x27.5831 y18.4375 z-0.1000
G1 x27.3131 y18.4375 z-0.1000
G1 x27.0431 y18.4375 z-0.1000
G1 x26.7731 y18.4375 z-0.1000
G1 x26.5431 y18.2875 z-0.1000
G0 z1.0000


G0 x27.2203 y23.8015
G0 z0.0000
F120.0000
G1 z-0.1000
F300.0000
G1 x27.2203 y23.5315 z-0.1000
G1 x27.2203 y23.2615 z-0.1000
G1 x27.2203 y22.9915 z-0.1000
G1 x27.2203 y22.7215 z-0.1000
G1 x27.2203 y22.4515 z-0.1000
G1 x27.3803 y22.2415 z-0.1000
G1 x27.6503 y22.2215 z-0.1000
G1 x27.9203 y22.2215 z-0.1000
G1 x28.1303 y22.3815 z-0.1000
G1 x28.1503 y22.6515 z-0.1000
G1 x28.1503 y22.9215 z-0.1000
G1 x28.1503 y23.1915 z-0.1000
G1 x28.1503 y23.4615 z-0.1000
G1 x28.1503 y23.7315 z-0.1000
G1 x28.0303 y23.9715 z-0.1000
G1 x27.7703 y24.0115 z-0.1000
G1 x27.5003 y24.0115 z-0.1000
G1 x27.2603 y23.8915 z-0.1000
G0 z1.0000


G0 x27.8553 y23.8015
G0 z0.0000
F120.0000
G1 z-0.1000
F300.0000
G1 x27.8553 y23.5315 z-0.1000
G1 x27.8553 y23.2615 z-0.1000
G1 x27.8553 y22.9915 z-0.1000
G1 x27.8553 y22.7215 z-0.1000
G1 x27.8553 y22.4515 z-0.1000
G1 x28.0153 y22.2415 z-0.1000
G1 x28.2853 y22.2215 z-0.1000
G1 x28.5553 y22.2215 z-0.1000
G1 x28.7653 y22.3815 z-0.1000
G1 x28.7853 y22.6515 z-0.1000
G1 x28.7853 y22.9215 z-0.1000
G1 x28.7853 y23.1915 z-0.1000
G1 x28.7853 y23.4615 z-0.1000
G1 x28.7853 y23.7315 z-0.1000
G1 x28.6653 y23.9715 z-0.1000
G1 x28.4053 y24.0115 z-0.1000
G1 x28.1353 y24.0115 z-0.1000
G1 x27.8953 y23.8915 z-0.1000
G0 z1.0000


G0 x25.2645 y23.8015
G0 z0.0000
F120.0000
G1 z-0.1000
F300.0000
G1 x25.2645 y23.5315 z-0.1000
G1 x25.2645 y23.2615 z-0.1000
G1 x25.2645 y22.9915 z-0.1000
G1 x25.2645 y22.7215 z-0.1000
G1 x25.2645 y22.4515 z-0.1000
G1 x25.4245 y22.2415 z-0.1000
G1 x25.6945 y22.2215 z-0.1000
G1 x25.9645 y22.2215 z-0.1000
G1 x26.1745 y22.3815 z-0.1000
G1 x26.1945 y22.6515 z-0.1000
G1 x26.1945 y22.9215 z-0.1000
G1 x26.1945 y23.1915 z-0.1000
G1 x26.1945 y23.4615 z-0.1000
G1 x26.1945 y23.7315 z-0.1000
G1 x26.0745 y23.9715 z-0.1000
G1 x25.8145 y24.0115 z-0.1000
G1 x25.5445 y24.0115 z-0.1000
G1 x25.3045 y23.8915 z-0.1000
G0 z1.0000


G0 x24.6041 y23.8015
G0 z0.0000
F120.0000
G1 z-0.1000
F300.0000
G1 x24.6041 y23.5315 z-0.1000
G1 x24.6041 y23.2615 z-0.1000
G1 x24.6041 y22.9915 z-0.1000
G1 x24.6041 y22.7215 z-0.1000
G1 x24.6041 y22.4515 z-0.1000
G1 x24.6341 y22.1815 z-0.1000
G1 x24.7441 y21.9415 z-0.1000
G1 x24.9341 y21.7515 z-0.1000
G1 x25.1241 y21.5615 z-0.1000
G1 x25.3141 y21.3715 z-0.1000
G1 x25.5241 y21.2015 z-0.1000
G1 x25.7741 y21.0915 z-0.1000
G1 x26.0441 y21.0815 z-0.1000
G1 x26.3141 y21.0815 z-0.1000
G1 x26.5241 y20.9215 z-0.1000
G1 x26.5241 y20.6515 z-0.1000
G1 x26.5241 y20.3815 z-0.1000
G1 x26.5241 y20.1115 z-0.1000
G1 x26.5241 y19.8415 z-0.1000
G1 x26.5241 y19.5715 z-0.1000
G1 x26.5541 y19.3015 z-0.1000
G1 x26.7841 y19.1615 z-0.1000
G1 x27.0541 y19.1615 z-0.1000
G1 x27.3241 y19.1615 z-0.1000
G1 x27.5941 y19.1615 z-0.1000
G1 x27.8641 y19.1615 z-0.1000
G1 x28.1341 y19.1615 z-0.1000
G1 x28.4041 y19.1615 z-0.1000
G1 x28.6741 y19.1815 z-0.1000
G1 x28.8441 y19.3915 z-0.1000
G1 x28.8441 y19.6615 z-0.1000
G1 x28.8441 y19.9315 z-0.1000
G1 x28.8441 y20.2015 z-0.1000
G1 x28.8441 y20.4715 z-0.1000
G1 x28.8441 y20.7415 z-0.1000
G1 x28.8441 y21.0115 z-0.1000
G1 x28.7141 y21.2415 z-0.1000
G1 x28.4441 y21.2715 z-0.1000
G1 x28.1941 y21.3615 z-0.1000
G1 x28.1141 y21.6215 z-0.1000
G1 x27.9241 y21.8215 z-0.1000
G1 x27.7241 y22.0115 z-0.1000
G1 x27.4741 y22.1015 z-0.1000
G1 x27.2041 y22.1015 z-0.1000
G1 x26.9341 y22.1015 z-0.1000
G1 x26.6641 y22.1015 z-0.1000
G1 x26.3941 y22.1015 z-0.1000
G1 x26.1241 y22.1015 z-0.1000
G1 x25.8541 y22.1015 z-0.1000
G1 x25.6441 y22.2815 z-0.1000
G1 x25.5341 y22.5215 z-0.1000
G1 x25.5341 y22.7915 z-0.1000
G1 x25.5341 y23.0615 z-0.1000
G1 x25.5341 y23.3315 z-0.1000
G1 x25.5341 y23.6015 z-0.1000
G1 x25.5041 y23.8715 z-0.1000
G1 x25.2741 y24.0115 z-0.1000
G1 x25.0041 y24.0115 z-0.1000
G1 x24.7341 y23.9815 z-0.1000
G0 z1.0000


G0 x23.9437 y23.8015
G0 z0.0000
F120.0000
G1 z-0.1000
F300.0000
G1 x23.9437 y23.5315 z-0.1000
G1 x23.9437 y23.2615 z-0.1000
G1 x23.9437 y22.9915 z-0.1000
G1 x23.9437 y22.7215 z-0.1000
G1 x23.9437 y22.4515 z-0.1000
G1 x23.9737 y22.1815 z-0.1000
G1 x23.9737 y21.9115 z-0.1000
G1 x24.1037 y21.6715 z-0.1000
G1 x24.2937 y21.4815 z-0.1000
G1 x24.4837 y21.2915 z-0.1000
G1 x24.2737 y21.1315 z-0.1000
G1 x24.2437 y20.8615 z-0.1000
G1 x24.2437 y20.5915 z-0.1000
G1 x24.2437 y20.3215 z-0.1000
G1 x24.2437 y20.0515 z-0.1000
G1 x24.2437 y19.7815 z-0.1000
G1 x24.2437 y19.5115 z-0.1000
G1 x24.3037 y19.2515 z-0.1000
G1 x24.5537 y19.1615 z-0.1000
G1 x24.8237 y19.1615 z-0.1000
G1 x25.0937 y19.1615 z-0.1000
G1 x25.3637 y19.1615 z-0.1000
G1 x25.6337 y19.1615 z-0.1000
G1 x25.9037 y19.1615 z-0.1000
G1 x26.1737 y19.1615 z-0.1000
G1 x26.4437 y19.2015 z-0.1000
G1 x26.5637 y19.4415 z-0.1000
G1 x26.5637 y19.7115 z-0.1000
G1 x26.5637 y19.9815 z-0.1000
G1 x26.5637 y20.2515 z-0.1000
G1 x26.5637 y20.5215 z-0.1000
G1 x26.5637 y20.7915 z-0.1000
G1 x26.5637 y21.0615 z-0.1000
G1 x26.3837 y21.2615 z-0.1000
G1 x26.1137 y21.2715 z-0.1000
G1 x25.8437 y21.2715 z-0.1000
G1 x25.6037 y21.4015 z-0.1000
G1 x25.4137 y21.5915 z-0.1000
G1 x25.2237 y21.7815 z-0.1000
G1 x25.0337 y21.9715 z-0.1000
G1 x24.8437 y22.1615 z-0.1000
G1 x24.8737 y22.4315 z-0.1000
G1 x24.8737 y22.7015 z-0.1000
G1 x24.8737 y22.9715 z-0.1000
G1 x24.8737 y23.2415 z-0.1000
G1 x24.8737 y23.5115 z-0.1000
G1 x24.8737 y23.7815 z-0.1000
G1 x24.7137 y23.9915 z-0.1000
G1 x24.4437 y24.0115 z-0.1000
G1 x24.1737 y24.0115 z-0.1000
G1 x23.9637 y23.8515 z-0.1000
G0 z1.0000


G0 x22.0133 y23.8015
G0 z0.0000
F120.0000
G1 z-0.1000
F300.0000
G1 x22.0133 y23.5315 z-0.1000
G1 x22.0133 y23.2615 z-0.1000
G1 x22.0133 y22.9915 z-0.1000
G1 x22.0133 y22.7215 z-0.1000
G1 x22.0133 y22.4515 z-0.1000
G1 x22.1733 y22.2415 z-0.1000
G1 x22.4433 y22.2215 z-0.1000
G1 x22.7133 y22.2215 z-0.1000
G1 x22.9233 y22.3815 z-0.1000
G1 x22.9433 y22.6515 z-0.1000
G1 x22.9433 y22.9215 z-0.1000
G1 x22.9433 y23.1915 z-0.1000
G1 x22.9433 y23.4615 z-0.1000
G1 x22.9433 y23.7315 z-0.1000
G1 x22.8233 y23.9715 z-0.1000
G1 x22.5633 y24.0115 z-0.1000
G1 x22.2933 y24.0115 z-0.1000
G1 x22.0533 y23.8915 z-0.1000
G0 z1.0000


G0 x22.0133 y30.9135
G0 z0.0000
F120.0000
G1 z-0.1000
F300.0000
G1 x22.0133 y30.6435 z-0.1000
G1 x22.0133 y30.3735 z-0.1000
G1 x22.0133 y30.1035 z-0.1000
G1 x22.0133 y29.8335 z-0.1000
G1 x22.0133 y29.5635 z-0.1000
G1 x22.1733 y29.3535 z-0.1000
G1 x22.4433 y29.3335 z-0.1000
G1 x22.7133 y29.3335 z-0.1000
G1 x22.9233 y29.4935 z-0.1000
G1 x22.9433 y29.7635 z-0.1000
G1 x22.9433 y30.0335 z-0.1000
G1 x22.9433 y30.3035 z-0.1000
G1 x22.9433 y30.5735 z-0.1000
G1 x22.9433 y30.8435 z-0.1000
G1 x22.8233 y31.0835 z-0.1000
G1 x22.5633 y31.1235 z-0.1000
G1 x22.2933 y31.1235 z-0.1000
G1 x22.0533 y31.0035 z-0.1000
G0 z1.0000


G0 x22.6483 y30.9135
G0 z0.0000
F120.0000
G1 z-0.1000
F300.0000
G1 x22.6483 y30.6435 z-0.1000
G1 x22.6483 y30.3735 z-0.1000
G1 x22.6483 y30.1035 z-0.1000
G1 x22.6483 y29.8335 z-0.1000
G1 x22.6483 y29.5635 z-0.1000
G1 x22.8083 y29.3535 z-0.1000
G1 x23.0783 y29.3335 z-0.1000
G1 x23.3483 y29.3335 z-0.1000
G1 x23.5583 y29.4935 z-0.1000
G1 x23.5783 y29.7635 z-0.1000
G1 x23.5783 y30.0335 z-0.1000
G1 x23.5783 y30.3035 z-0.1000
G1 x23.5783 y30.5735 z-0.1000
G1 x23.5783 y30.8435 z-0.1000
G1 x23.4583 y31.0835 z-0.1000
G1 x23.1983 y31.1235 z-0.1000
G1 x22.9283 y31.1235 z-0.1000
G1 x22.6883 y31.0035 z-0.1000
G0 z1.0000


G0 x23.3087 y30.9135
G0 z0.0000
F120.0000
G1 z-0.1000
F300.0000
G1 x23.3087 y30.6435 z-0.1000
G1 x23.3087 y30.3735 z-0.1000
G1 x23.3087 y30.1035 z-0.1000
G1 x23.3087 y29.8335 z-0.1000
G1 x23.3087 y29.5635 z-0.1000
G1 x23.4687 y29.3535 z-0.1000
G1 x23.7387 y29.3335 z-0.1000
G1 x24.0087 y29.3335 z-0.1000
G1 x24.2187 y29.4935 z-0.1000
G1 x24.2387 y29.7635 z-0.1000
G1 x24.2387 y30.0335 z-0.1000
G1 x24.2387 y30.3035 z-0.1000
G1 x24.2387 y30.5735 z-0.1000
G1 x24.2387 y30.8435 z-0.1000
G1 x24.1187 y31.0835 z-0.1000
G1 x23.8587 y31.1235 z-0.1000
G1 x23.5887 y31.1235 z-0.1000
G1 x23.3487 y31.0035 z-0.1000
G0 z1.0000


G0 x24.6041 y30.9135
G0 z0.0000
F120.0000
G1 z-0.1000
F300.0000
G1 x24.6041 y30.6435 z-0.1000
G1 x24.6041 y30.3735 z-0.1000
G1 x24.6041 y30.1035 z-0.1000
G1 x24.6041 y29.8335 z-0.1000
G1 x24.6041 y29.5635 z-0.1000
G1 x24.7641 y29.3535 z-0.1000
G1 x25.0341 y29.3335 z-0.1000
G1 x25.3041 y29.3335 z-0.1000
G1 x25.5141 y29.4935 z-0.1000
G1 x25.5341 y29.7635 z-0.1000
G1 x25.5341 y30.0335 z-0.1000
G1 x25.5341 y30.3035 z-0.1000
G1 x25.5341 y30.5735 z-0.1000
G1 x25.5341 y30.8435 z-0.1000
G1 x25.4141 y31.0835 z-0.1000
G1 x25.1541 y31.1235 z-0.1000
G1 x24.8841 y31.1235 z-0.1000
G1 x24.6441 y31.0035 z-0.1000
G0 z1.0000


G0 x25.2175 y31.3927
G0 z0.0000
F120.0000
G1 z-0.1000
F300.0000
G1 x25.2575 y31.1327 z-0.1000
G1 x25.2675 y30.8627 z-0.1000
G1 x25.2675 y30.5927 z-0.1000
G1 x25.2675 y30.3227 z-0.1000
G1 x25.2675 y30.0527 z-0.1000
G1 x25.2675 y29.7827 z-0.1000
G1 x25.2775 y29.5127 z-0.1000
G1 x25.4775 y29.3327 z-0.1000
G1 x25.7475 y29.3327 z-0.1000
G1 x26.0175 y29.3427 z-0.1000
G1 x26.1975 y29.5427 z-0.1000
G1 x26.1975 y29.8127 z-0.1000
G1 x26.1975 y30.0827 z-0.1000
G1 x26.1975 y30.3527 z-0.1000
G1 x26.1975 y30.6227 z-0.1000
G1 x26.1975 y30.8927 z-0.1000
G1 x26.2875 y31.1527 z-0.1000
G1 x26.5375 y31.2427 z-0.1000
G1 x26.8075 y31.2427 z-0.1000
G1 x27.0775 y31.2427 z-0.1000
G1 x27.3475 y31.2427 z-0.1000
G1 x27.6175 y31.2427 z-0.1000
G1 x27.8875 y31.2427 z-0.1000
G1 x28.1575 y31.2427 z-0.1000
G1 x28.4275 y31.2427 z-0.1000
G1 x28.6475 y31.0827 z-0.1000
G1 x28.8375 y30.8927 z-0.1000
G1 x29.0275 y30.7027 z-0.1000
G1 x29.2175 y30.5127 z-0.1000
G1 x29.4075 y30.3227 z-0.1000
G1 x29.5575 y30.1027 z-0.1000
G1 x29.7775 y29.9527 z-0.1000
G1 x30.0475 y29.9227 z-0.1000
G1 x30.2975 y30.0227 z-0.1000
G1 x30.4775 y30.2327 z-0.1000
G1 x30.5275 y30.4927 z-0.1000
G1 x30.4675 y30.7527 z-0.1000
G1 x30.2775 y30.9527 z-0.1000
G1 x30.0675 y31.1127 z-0.1000
G1 x29.8775 y31.3027 z-0.1000
G1 x29.6875 y31.4927 z-0.1000
G1 x29.4975 y31.6827 z-0.1000
G1 x29.3075 y31.8727 z-0.1000
G1 x29.1175 y32.0627 z-0.1000
G1 x28.9075 y32.2227 z-0.1000
G1 x28.6475 y32.2627 z-0.1000
G1 x28.3775 y32.2627 z-0.1000
G1 x28.1075 y32.2627 z-0.1000
G1 x27.8375 y32.2627 z-0.1000
G1 x27.5675 y32.2627 z-0.1000
G1 x27.2975 y32.2627 z-0.1000
G1 x27.0275 y32.2627 z-0.1000
G1 x26.7575 y32.2627 z-0.1000
G1 x26.4875 y32.2627 z-0.1000
G1 x26.2175 y32.2627 z-0.1000
G1 x25.9575 y32.2227 z-0.1000
G1 x25.7475 y32.0627 z-0.1000
G1 x25.5575 y31.8727 z-0.1000
G1 x25.3675 y31.6827 z-0.1000
G1 x25.2375 y31.4527 z-0.1000
G0 z1.0000


G0 x26.5599 y30.9135
G0 z0.0000
F120.0000
G1 z-0.1000
F300.0000
G1 x26.5599 y30.6435 z-0.1000
G1 x26.5599 y30.3735 z-0.1000
G1 x26.5599 y30.1035 z-0.1000
G1 x26.5599 y29.8335 z-0.1000
G1 x26.5599 y29.5635 z-0.1000
G1 x26.7199 y29.3535 z-0.1000
G1 x26.9899 y29.3335 z-0.1000
G1 x27.2599 y29.3335 z-0.1000
G1 x27.4699 y29.4935 z-0.1000
G1 x27.4899 y29.7635 z-0.1000
G1 x27.4899 y30.0335 z-0.1000
G1 x27.4899 y30.3035 z-0.1000
G1 x27.4899 y30.5735 z-0.1000
G1 x27.4899 y30.8435 z-0.1000
G1 x27.3699 y31.0835 z-0.1000
G1 x27.1099 y31.1235 z-0.1000
G1 x26.8399 y31.1235 z-0.1000
G1 x26.5999 y31.0035 z-0.1000
G0 z1.0000


G0 x27.2203 y30.9135
G0 z0.0000
F120.0000
G1 z-0.1000
F300.0000
G1 x27.2203 y30.6435 z-0.1000
G1 x27.2203 y30.3735 z-0.1000
G1 x27.2203 y30.1035 z-0.1000
G1 x27.2203 y29.8335 z-0.1000
G1 x27.2203 y29.5635 z-0.1000
G1 x27.3803 y29.3535 z-0.1000
G1 x27.6503 y29.3335 z-0.1000
G1 x27.9203 y29.3335 z-0.1000
G1 x28.1303 y29.4935 z-0.1000
G1 x28.1503 y29.7635 z-0.1000
G1 x28.1503 y30.0335 z-0.1000
G1 x28.1503 y30.3035 z-0.1000
G1 x28.1503 y30.5735 z-0.1000
G1 x28.1503 y30.8435 z-0.1000
G1 x28.0303 y31.0835 z-0.1000
G1 x27.7703 y31.1235 z-0.1000
G1 x27.5003 y31.1235 z-0.1000
G1 x27.2603 y31.0035 z-0.1000
G0 z1.0000


G0 x27.8553 y30.9135
G0 z0.0000
F120.0000
G1 z-0.1000
F300.0000
G1 x27.8553 y30.6435 z-0.1000
G1 x27.8553 y30.3735 z-0.1000
G1 x27.8553 y30.1035 z-0.1000
G1 x27.8553 y29.8335 z-0.1000
G1 x27.8553 y29.5635 z-0.1000
G1 x27.9753 y29.3235 z-0.1000
G1 x28.1653 y29.1335 z-0.1000
G1 x28.3553 y28.9435 z-0.1000
G1 x28.5453 y28.7535 z-0.1000
G1 x28.7353 y28.5635 z-0.1000
G1 x28.9253 y28.3735 z-0.1000
G1 x29.1153 y28.1835 z-0.1000
G1 x29.3053 y27.9935 z-0.1000
G1 x29.4353 y27.7635 z-0.1000
G1 x29.5853 y27.5335 z-0.1000
G1 x29.8153 y27.4035 z-0.1000
G1 x30.0853 y27.3835 z-0.1000
G1 x30.3253 y27.5035 z-0.1000
G1 x30.4853 y27.7135 z-0.1000
G1 x30.5353 y27.9735 z-0.1000
G1 x30.4553 y28.2335 z-0.1000
G1 x30.2653 y28.4235 z-0.1000
G1 x30.0153 y28.5135 z-0.1000
G1 x29.8253 y28.7035 z-0.1000
G1 x29.6353 y28.8935 z-0.1000
G1 x29.4453 y29.0835 z-0.1000
G1 x29.2553 y29.2735 z-0.1000
G1 x29.0653 y29.4635 z-0.1000
G1 x28.8753 y29.6535 z-0.1000
G1 x28.7853 y29.9035 z-0.1000
G1 x28.7853 y30.1735 z-0.1000
G1 x28.7853 y30.4435 z-0.1000
G1 x28.7853 y30.7135 z-0.1000
G1 x28.7553 y30.9835 z-0.1000
G1 x28.5253 y31.1235 z-0.1000
G1 x28.2553 y31.1235 z-0.1000
G1 x27.9853 y31.0935 z-0.1000
G0 z1.0000


G0 x30.9795 y30.5745
G0 z0.0000
F120.0000
G1 z-0.1000
F300.0000
G1 x30.9895 y30.3045 z-0.1000
G1 x31.0795 y30.0445 z-0.1000
G1 x31.2295 y29.8145 z-0.1000
G1 x31.4295 y29.6345 z-0.1000
G1 x31.6695 y29.5145 z-0.1000
G1 x31.9295 y29.4545 z-0.1000
G1 x32.1995 y29.4745 z-0.1000
G1 x32.4595 y29.5645 z-0.1000
G1 x32.6795 y29.7145 z-0.1000
G1 x32.8595 y29.9145 z-0.1000
G1 x32.9795 y30.1545 z-0.1000
G1 x33.0295 y30.4145 z-0.1000
G1 x33.0095 y30.6845 z-0.1000
G1 x32.9195 y30.9345 z-0.1000
G1 x32.7695 y31.1545 z-0.1000
G1 x32.5695 y31.3345 z-0.1000
G1 x32.3295 y31.4545 z-0.1000
G1 x32.0695 y31.5045 z-0.1000
G1 x31.7995 y31.4845 z-0.1000
G1 x31.5495 y31.3945 z-0.1000
G1 x31.3195 y31.2445 z-0.1000
G1 x31.1395 y31.0345 z-0.1000
G1 x31.0295 y30.7945 z-0.1000
G0 z1.0000


G0 x33.5195 y30.5745
G0 z0.0000
F120.0000
G1 z-0.1000
F300.0000
G1 x33.5295 y30.3045 z-0.1000
G1 x33.6195 y30.0445 z-0.1000
G1 x33.7695 y29.8145 z-0.1000
G1 x33.9695 y29.6345 z-0.1000
G1 x34.2095 y29.5145 z-0.1000
G1 x34.4695 y29.4545 z-0.1000
G1 x34.7395 y29.4745 z-0.1000
G1 x34.9995 y29.5645 z-0.1000
G1 x35.2195 y29.7145 z-0.1000
G1 x35.3995 y29.9145 z-0.1000
G1 x35.5195 y30.1545 z-0.1000
G1 x35.5695 y30.4145 z-0.1000
G1 x35.5495 y30.6845 z-0.1000
G1 x35.4595 y30.9345 z-0.1000
G1 x35.3095 y31.1545 z-0.1000
G1 x35.1095 y31.3345 z-0.1000
G1 x34.8695 y31.4545 z-0.1000
G1 x34.6095 y31.5045 z-0.1000
G1 x34.3395 y31.4845 z-0.1000
G1 x34.0895 y31.3945 z-0.1000
G1 x33.8595 y31.2445 z-0.1000
G1 x33.6795 y31.0345 z-0.1000
G1 x33.5695 y30.7945 z-0.1000
G0 z1.0000


G0 x33.5195 y28.0345
G0 z0.0000
F120.0000
G1 z-0.1000
F300.0000
G1 x33.5295 y27.7645 z-0.1000
G1 x33.6195 y27.5045 z-0.1000
G1 x33.7695 y27.2745 z-0.1000
G1 x33.9695 y27.0945 z-0.1000
G1 x34.2095 y26.9745 z-0.1000
G1 x34.4695 y26.9145 z-0.1000
G1 x34.7395 y26.9345 z-0.1000
G1 x34.9995 y27.0245 z-0.1000
G1 x35.2195 y27.1745 z-0.1000
G1 x35.3995 y27.3745 z-0.1000
G1 x35.5195 y27.6145 z-0.1000
G1 x35.5695 y27.8745 z-0.1000
G1 x35.5495 y28.1445 z-0.1000
G1 x35.4595 y28.3945 z-0.1000
G1 x35.3095 y28.6145 z-0.1000
G1 x35.1095 y28.7945 z-0.1000
G1 x34.8695 y28.9145 z-0.1000
G1 x34.6095 y28.9645 z-0.1000
G1 x34.3395 y28.9445 z-0.1000
G1 x34.0895 y28.8545 z-0.1000
G1 x33.8595 y28.7045 z-0.1000
G1 x33.6795 y28.4945 z-0.1000
G1 x33.5695 y28.2545 z-0.1000
G0 z1.0000


G0 x30.9795 y28.0345
G0 z0.0000
F120.0000
G1 z-0.1000
F300.0000
G1 x30.9895 y27.7645 z-0.1000
G1 x31.0795 y27.5045 z-0.1000
G1 x31.2295 y27.2745 z-0.1000
G1 x31.4295 y27.0945 z-0.1000
G1 x31.6695 y26.9745 z-0.1000
G1 x31.9295 y26.9145 z-0.1000
G1 x32.1995 y26.9345 z-0.1000
G1 x32.4595 y27.0245 z-0.1000
G1 x32.6795 y27.1745 z-0.1000
G1 x32.8595 y27.3745 z-0.1000
G1 x32.9795 y27.6145 z-0.1000
G1 x33.0295 y27.8745 z-0.1000
G1 x33.0095 y28.1445 z-0.1000
G1 x32.9195 y28.3945 z-0.1000
G1 x32.7695 y28.6145 z-0.1000
G1 x32.5695 y28.7945 z-0.1000
G1 x32.3295 y28.9145 z-0.1000
G1 x32.0695 y28.9645 z-0.1000
G1 x31.7995 y28.9445 z-0.1000
G1 x31.5495 y28.8545 z-0.1000
G1 x31.3195 y28.7045 z-0.1000
G1 x31.1395 y28.4945 z-0.1000
G1 x31.0295 y28.2545 z-0.1000
G0 z1.0000


G0 x30.9795 y25.4945
G0 z0.0000
F120.0000
G1 z-0.1000
F300.0000
G1 x30.9895 y25.2245 z-0.1000
G1 x31.0795 y24.9645 z-0.1000
G1 x31.2295 y24.7345 z-0.1000
G1 x31.4295 y24.5545 z-0.1000
G1 x31.6695 y24.4345 z-0.1000
G1 x31.9295 y24.3745 z-0.1000
G1 x32.1995 y24.3945 z-0.1000
G1 x32.4595 y24.4845 z-0.1000
G1 x32.6795 y24.6345 z-0.1000
G1 x32.8595 y24.8345 z-0.1000
G1 x32.9795 y25.0745 z-0.1000
G1 x33.0295 y25.3345 z-0.1000
G1 x33.0095 y25.6045 z-0.1000
G1 x32.9195 y25.8545 z-0.1000
G1 x32.7695 y26.0745 z-0.1000
G1 x32.5695 y26.2545 z-0.1000
G1 x32.3295 y26.3745 z-0.1000
G1 x32.0695 y26.4245 z-0.1000
G1 x31.7995 y26.4045 z-0.1000
G1 x31.5495 y26.3145 z-0.1000
G1 x31.3195 y26.1645 z-0.1000
G1 x31.1395 y25.9545 z-0.1000
G1 x31.0295 y25.7145 z-0.1000
G0 z1.0000


G0 x33.5195 y25.4945
G0 z0.0000
F120.0000
G1 z-0.1000
F300.0000
G1 x33.5295 y25.2245 z-0.1000
G1 x33.6195 y24.9645 z-0.1000
G1 x33.7695 y24.7345 z-0.1000
G1 x33.9695 y24.5545 z-0.1000
G1 x34.2095 y24.4345 z-0.1000
G1 x34.4695 y24.3745 z-0.1000
G1 x34.7395 y24.3945 z-0.1000
G1 x34.9995 y24.4845 z-0.1000
G1 x35.2195 y24.6345 z-0.1000
G1 x35.3995 y24.8345 z-0.1000
G1 x35.5195 y25.0745 z-0.1000
G1 x35.5695 y25.3345 z-0.1000
G1 x35.5495 y25.6045 z-0.1000
G1 x35.4595 y25.8545 z-0.1000
G1 x35.3095 y26.0745 z-0.1000
G1 x35.1095 y26.2545 z-0.1000
G1 x34.8695 y26.3745 z-0.1000
G1 x34.6095 y26.4245 z-0.1000
G1 x34.3395 y26.4045 z-0.1000
G1 x34.0895 y26.3145 z-0.1000
G1 x33.8595 y26.1645 z-0.1000
G1 x33.6795 y25.9545 z-0.1000
G1 x33.5695 y25.7145 z-0.1000
G0 z1.0000


G0 x33.5195 y23.6745
G0 z0.0000
F120.0000
G1 z-0.1000
F300.0000
G1 x33.5195 y23.4045 z-0.1000
G1 x33.5195 y23.1345 z-0.1000
G1 x33.5195 y22.8645 z-0.1000
G1 x33.5195 y22.5945 z-0.1000
G1 x33.5195 y22.3245 z-0.1000
G1 x33.5195 y22.0545 z-0.1000
G1 x33.6995 y21.8445 z-0.1000
G1 x33.9695 y21.8345 z-0.1000
G1 x34.2395 y21.8345 z-0.1000
G1 x34.5095 y21.8345 z-0.1000
G1 x34.7795 y21.8345 z-0.1000
G1 x35.0495 y21.8345 z-0.1000
G1 x35.3195 y21.8345 z-0.1000
G1 x35.5495 y21.9845 z-0.1000
G1 x35.5695 y22.2545 z-0.1000
G1 x35.5695 y22.5245 z-0.1000
G1 x35.5695 y22.7945 z-0.1000
G1 x35.5695 y23.0645 z-0.1000
G1 x35.5695 y23.3345 z-0.1000
G1 x35.5695 y23.6045 z-0.1000
G1 x35.4495 y23.8445 z-0.1000
G1 x35.1895 y23.8845 z-0.1000
G1 x34.9195 y23.8845 z-0.1000
G1 x34.6495 y23.8845 z-0.1000
G1 x34.3795 y23.8845 z-0.1000
G1 x34.1095 y23.8845 z-0.1000
G1 x33.8395 y23.8845 z-0.1000
G1 x33.5795 y23.7945 z-0.1000
G0 z1.0000


G0 x35.7598 y22.9275
G0 z0.0000
F120.0000
G1 z-0.1000
F300.0000
G1 x35.7998 y22.6575 z-0.1000
G1 x35.9498 y22.4375 z-0.1000
G1 x36.1898 y22.3175 z-0.1000
G1 x36.4598 y22.3175 z-0.1000
G1 x36.6998 y22.4475 z-0.1000
G1 x36.8498 y22.6675 z-0.1000
G1 x36.8798 y22.9375 z-0.1000
G1 x36.8298 y23.1975 z-0.1000
G1 x36.8298 y23.4675 z-0.1000
G1 x36.8298 y23.7375 z-0.1000
G1 x36.9098 y23.9975 z-0.1000
G1 x37.0998 y24.1875 z-0.1000
G1 x37.2898 y24.3775 z-0.1000
G1 x37.4798 y24.5675 z-0.1000
G1 x37.6698 y24.7575 z-0.1000
G1 x37.8598 y24.9475 z-0.1000
G1 x38.0498 y25.1375 z-0.1000
G1 x38.2798 y25.2675 z-0.1000
G1 x38.5498 y25.2675 z-0.1000
G1 x38.7798 y25.1375 z-0.1000
G1 x38.9698 y24.9475 z-0.1000
G1 x39.1598 y24.7575 z-0.1000
G1 x39.3498 y24.5675 z-0.1000
G1 x39.5398 y24.3775 z-0.1000
G1 x39.7298 y24.1875 z-0.1000
G1 x39.8698 y23.9575 z-0.1000
G1 x39.8798 y23.6875 z-0.1000
G1 x40.0698 y23.4975 z-0.1000
G1 x40.3398 y23.4875 z-0.1000
G1 x40.6098 y23.4875 z-0.1000
G1 x40.8798 y23.4875 z-0.1000
G1 x41.1498 y23.4875 z-0.1000
G1 x41.4198 y23.4875 z-0.1000
G1 x41.6898 y23.4875 z-0.1000
G1 x41.9598 y23.4875 z-0.1000
G1 x42.2298 y23.4975 z-0.1000
G1 x42.4998 y23.4975 z-0.1000
G1 x42.7698 y23.4975 z-0.1000
G1 x43.0398 y23.4975 z-0.1000
G1 x43.3098 y23.4875 z-0.1000
G1 x43.5798 y23.4875 z-0.1000
G1 x43.8498 y23.4875 z-0.1000
G1 x44.1198 y23.4875 z-0.1000
G1 x44.3898 y23.4875 z-0.1000
G1 x44.6198 y23.6175 z-0.1000
G1 x44.6498 y23.8875 z-0.1000
G1 x44.6498 y24.1575 z-0.1000
G1 x44.5898 y24.4175 z-0.1000
G1 x44.3398 y24.5175 z-0.1000
G1 x44.0698 y24.5175 z-0.1000
G1 x43.7998 y24.5175 z-0.1000
G1 x43.5298 y24.5175 z-0.1000
G1 x43.2598 y24.5175 z-0.1000
G1 x42.9898 y24.5175 z-0.1000
G1 x42.7198 y24.5175 z-0.1000
G1 x42.4498 y24.5175 z-0.1000
G1 x42.4198 y24.7875 z-0.1000
G1 x42.4198 y25.0575 z-0.1000
G1 x42.4198 y25.3275 z-0.1000
G1 x42.2398 y25.5275 z-0.1000
G1 x41.9698 y25.5375 z-0.1000
G1 x41.6998 y25.5375 z-0.1000
G1 x41.4298 y25.5375 z-0.1000
G1 x41.1598 y25.5375 z-0.1000
G1 x40.8898 y25.5375 z-0.1000
G1 x40.6198 y25.5375 z-0.1000
G1 x40.3498 y25.5375 z-0.1000
G1 x40.0798 y25.5375 z-0.1000
G1 x39.8098 y25.5575 z-0.1000
G1 x39.6298 y25.7575 z-0.1000
G1 x39.6298 y26.0275 z-0.1000
G1 x39.6298 y26.2975 z-0.1000
G1 x39.6298 y26.5675 z-0.1000
G1 x39.6298 y26.8375 z-0.1000
G1 x39.8198 y27.0275 z-0.1000
G1 x40.0098 y27.2175 z-0.1000
G1 x40.1998 y27.4075 z-0.1000
G1 x40.3898 y27.5975 z-0.1000
G1 x40.5798 y27.7875 z-0.1000
G1 x40.7698 y27.9775 z-0.1000
G1 x41.0298 y28.0575 z-0.1000
G1 x41.2998 y28.0575 z-0.1000
G1 x41.5498 y27.9575 z-0.1000
G1 x41.7398 y27.7675 z-0.1000
G1 x41.9498 y27.5975 z-0.1000
G1 x42.2098 y27.5575 z-0.1000
G1 x42.4798 y27.5575 z-0.1000
G1 x42.7498 y27.5575 z-0.1000
G1 x43.0198 y27.5575 z-0.1000
G1 x43.2898 y27.5575 z-0.1000
G1 x43.5598 y27.5575 z-0.1000
G1 x43.8298 y27.5575 z-0.1000
G1 x44.0998 y27.5575 z-0.1000
G1 x44.3698 y27.5575 z-0.1000
G1 x44.6098 y27.6775 z-0.1000
G1 x44.6498 y27.9375 z-0.1000
G1 x44.6498 y28.2075 z-0.1000
G1 x44.5998 y28.4675 z-0.1000
G1 x44.3598 y28.5775 z-0.1000
G1 x44.0898 y28.5775 z-0.1000
G1 x43.8198 y28.5775 z-0.1000
G1 x43.5498 y28.5775 z-0.1000
G1 x43.2798 y28.5775 z-0.1000
G1 x43.0098 y28.5775 z-0.1000
G1 x42.7398 y28.5775 z-0.1000
G1 x42.4698 y28.5775 z-0.1000
G1 x42.4198 y28.8375 z-0.1000
G1 x42.4198 y29.1075 z-0.1000
G1 x42.4198 y29.3775 z-0.1000
G1 x42.4198 y29.6475 z-0.1000
G1 x42.4098 y29.9175 z-0.1000
G1 x42.2098 y30.1075 z-0.1000
G1 x41.9398 y30.1075 z-0.1000
G1 x41.6698 y30.1075 z-0.1000
G1 x41.3998 y30.1075 z-0.1000
G1 x41.1298 y30.1075 z-0.1000
G1 x40.8598 y30.1075 z-0.1000
G1 x40.5898 y30.1075 z-0.1000
G1 x40.3198 y30.1075 z-0.1000
G1 x40.0498 y30.0975 z-0.1000
G1 x39.8698 y29.8975 z-0.1000
G1 x39.8698 y29.6275 z-0.1000
G1 x39.8698 y29.3575 z-0.1000
G1 x39.8698 y29.0875 z-0.1000
G1 x39.8698 y28.8175 z-0.1000
G1 x39.8698 y28.5475 z-0.1000
G1 x39.6898 y28.3475 z-0.1000
G1 x39.4998 y28.1575 z-0.1000
G1 x39.3098 y27.9675 z-0.1000
G1 x39.1198 y27.7775 z-0.1000
G1 x38.9298 y27.5875 z-0.1000
G1 x38.7398 y27.3975 z-0.1000
G1 x38.4898 y27.3075 z-0.1000
G1 x38.2198 y27.3075 z-0.1000
G1 x37.9498 y27.3075 z-0.1000
G1 x37.6798 y27.3075 z-0.1000
G1 x37.4098 y27.3075 z-0.1000
G1 x37.1498 y27.2275 z-0.1000
G1 x37.0798 y26.9675 z-0.1000
G1 x37.0798 y26.6975 z-0.1000
G1 x37.0798 y26.4275 z-0.1000
G1 x37.0798 y26.1575 z-0.1000
G1 x37.0798 y25.8875 z-0.1000
G1 x37.0798 y25.6175 z-0.1000
G1 x36.8898 y25.4175 z-0.1000
G1 x36.6998 y25.2275 z-0.1000
G1 x36.5098 y25.0375 z-0.1000
G1 x36.3198 y24.8475 z-0.1000
G1 x36.1298 y24.6575 z-0.1000
G1 x35.9398 y24.4675 z-0.1000
G1 x35.8198 y24.2275 z-0.1000
G1 x35.8098 y23.9575 z-0.1000
G1 x35.8098 y23.6875 z-0.1000
G1 x35.8098 y23.4175 z-0.1000
G1 x35.8098 y23.1475 z-0.1000
G0 z1.0000


G0 x37.0755 y23.8002
G0 z0.0000
F120.0000
G1 z-0.1000
F300.0000
G1 x37.0755 y23.5302 z-0.1000
G1 x37.0755 y23.2602 z-0.1000
G1 x37.0755 y22.9902 z-0.1000
G1 x37.0755 y22.7202 z-0.1000
G1 x37.0755 y22.4502 z-0.1000
G1 x37.0755 y22.1802 z-0.1000
G1 x37.2555 y21.9702 z-0.1000
G1 x37.5255 y21.9602 z-0.1000
G1 x37.7955 y21.9602 z-0.1000
G1 x38.0655 y21.9602 z-0.1000
G1 x38.3355 y21.9602 z-0.1000
G1 x38.6055 y21.9602 z-0.1000
G1 x38.8755 y21.9602 z-0.1000
G1 x39.1455 y21.9602 z-0.1000
G1 x39.4155 y21.9602 z-0.1000
G1 x39.6155 y22.1402 z-0.1000
G1 x39.8755 y22.2202 z-0.1000
G1 x40.1455 y22.2202 z-0.1000
G1 x40.4155 y22.2202 z-0.1000
G1 x40.6855 y22.2202 z-0.1000
G1 x40.9555 y22.2202 z-0.1000
G1 x41.2255 y22.2202 z-0.1000
G1 x41.4955 y22.2202 z-0.1000
G1 x41.7655 y22.2202 z-0.1000
G1 x42.0355 y22.2202 z-0.1000
G1 x42.3055 y22.2202 z-0.1000
G1 x42.5755 y22.2202 z-0.1000
G1 x42.8455 y22.2202 z-0.1000
G1 x43.1155 y22.2202 z-0.1000
G1 x43.3855 y22.2202 z-0.1000
G1 x43.6555 y22.2202 z-0.1000
G1 x43.9255 y22.2202 z-0.1000
G1 x44.1955 y22.2202 z-0.1000
G1 x44.4655 y22.2302 z-0.1000
G1 x44.6455 y22.4302 z-0.1000
G1 x44.6455 y22.7002 z-0.1000
G1 x44.6455 y22.9702 z-0.1000
G1 x44.5255 y23.2102 z-0.1000
G1 x44.2655 y23.2502 z-0.1000
G1 x43.9955 y23.2502 z-0.1000
G1 x43.7255 y23.2502 z-0.1000
G1 x43.4555 y23.2502 z-0.1000
G1 x43.1855 y23.2402 z-0.1000
G1 x42.9155 y23.2402 z-0.1000
G1 x42.6455 y23.2402 z-0.1000
G1 x42.3755 y23.2402 z-0.1000
G1 x42.1055 y23.2402 z-0.1000
G1 x41.8355 y23.2402 z-0.1000
G1 x41.5655 y23.2402 z-0.1000
G1 x41.2955 y23.2402 z-0.1000
G1 x41.0255 y23.2402 z-0.1000
G1 x40.7555 y23.2402 z-0.1000
G1 x40.4855 y23.2402 z-0.1000
G1 x40.2155 y23.2402 z-0.1000
G1 x39.9455 y23.2402 z-0.1000
G1 x39.6755 y23.2402 z-0.1000
G1 x39.6255 y23.5002 z-0.1000
G1 x39.6255 y23.7702 z-0.1000
G1 x39.4755 y23.9902 z-0.1000
G1 x39.2055 y24.0102 z-0.1000
G1 x38.9355 y24.0102 z-0.1000
G1 x38.8655 y24.2702 z-0.1000
G1 x38.9055 y24.5302 z-0.1000
G1 x38.8955 y24.8002 z-0.1000
G1 x38.7555 y25.0302 z-0.1000
G1 x38.5255 y25.1702 z-0.1000
G1 x38.2555 y25.1902 z-0.1000
G1 x38.0055 y25.0802 z-0.1000
G1 x37.8355 y24.8702 z-0.1000
G1 x37.7955 y24.6102 z-0.1000
G1 x37.8455 y24.3502 z-0.1000
G1 x37.8455 y24.0802 z-0.1000
G1 x37.5855 y24.0102 z-0.1000
G1 x37.3155 y24.0102 z-0.1000
G1 x37.0955 y23.8602 z-0.1000
G0 z1.0000


G0 x38.2998 y21.4035
G0 z0.0000
F120.0000
G1 z-0.1000
F300.0000
G1 x38.3398 y21.1335 z-0.1000
G1 x38.4898 y20.9135 z-0.1000
G1 x38.7198 y20.7735 z-0.1000
G1 x38.9798 y20.7035 z-0.1000
G1 x39.2498 y20.7035 z-0.1000
G1 x39.5198 y20.7035 z-0.1000
G1 x39.7898 y20.7035 z-0.1000
G1 x39.8698 y20.4435 z-0.1000
G1 x39.9998 y20.2135 z-0.1000
G1 x40.2698 y20.1835 z-0.1000
G1 x40.5398 y20.1835 z-0.1000
G1 x40.8098 y20.1835 z-0.1000
G1 x41.0798 y20.1835 z-0.1000
G1 x41.3498 y20.1835 z-0.1000
G1 x41.5798 y20.0535 z-0.1000
G1 x41.7698 y19.8635 z-0.1000
G1 x41.9898 y19.7135 z-0.1000
G1 x42.2598 y19.6835 z-0.1000
G1 x42.5298 y19.6835 z-0.1000
G1 x42.7998 y19.6835 z-0.1000
G1 x43.0698 y19.6835 z-0.1000
G1 x43.3398 y19.6835 z-0.1000
G1 x43.6098 y19.6835 z-0.1000
G1 x43.8798 y19.6835 z-0.1000
G1 x44.1498 y19.6835 z-0.1000
G1 x44.4198 y19.6835 z-0.1000
G1 x44.6298 y19.8435 z-0.1000
G1 x44.6498 y20.1135 z-0.1000
G1 x44.6498 y20.3835 z-0.1000
G1 x44.5598 y20.6435 z-0.1000
G1 x44.2998 y20.7035 z-0.1000
G1 x44.0298 y20.7035 z-0.1000
G1 x43.7598 y20.7035 z-0.1000
G1 x43.4898 y20.7035 z-0.1000
G1 x43.2198 y20.7035 z-0.1000
G1 x42.9498 y20.7035 z-0.1000
G1 x42.6798 y20.7035 z-0.1000
G1 x42.4198 y20.7435 z-0.1000
G1 x42.4198 y21.0135 z-0.1000
G1 x42.4198 y21.2835 z-0.1000
G1 x42.4198 y21.5535 z-0.1000
G1 x42.4198 y21.8235 z-0.1000
G1 x42.3898 y22.0935 z-0.1000
G1 x42.1598 y22.2335 z-0.1000
G1 x41.8898 y22.2335 z-0.1000
G1 x41.6198 y22.2335 z-0.1000
G1 x41.3498 y22.2335 z-0.1000
G1 x41.0798 y22.2335 z-0.1000
G1 x40.8098 y22.2335 z-0.1000
G1 x40.5398 y22.2335 z-0.1000
G1 x40.2698 y22.2335 z-0.1000
G1 x39.9998 y22.2035 z-0.1000
G1 x39.8698 y21.9735 z-0.1000
G1 x39.7798 y21.7235 z-0.1000
G1 x39.5098 y21.7235 z-0.1000
G1 x39.2398 y21.7535 z-0.1000
G1 x38.9998 y21.8835 z-0.1000
G1 x38.7298 y21.8835 z-0.1000
G1 x38.4898 y21.7535 z-0.1000
G1 x38.3398 y21.5335 z-0.1000
G0 z1.0000


G0 x35.7480 y20.5664
G0 z0.0000
F120.0000
G1 z-0.1000
F300.0000
G1 x35.7480 y19.6952 z-0.1000
G0 z1.0000


G0 x35.7480 y20.1320
G0 z0.0000
F120.0000
G1 z-0.1000
F300.0000
G1 x33.7160 y20.1320 z-0.1000
G1 x34.0055 y19.9873 z-0.1000
G1 x34.1986 y19.8399 z-0.1000
G1 x34.2951 y19.6952 z-0.1000
G0 z1.0000


G0 x30.9795 y22.9545
G0 z0.0000
F120.0000
G1 z-0.1000
F300.0000
G1 x30.9895 y22.6845 z-0.1000
G1 x31.0795 y22.4245 z-0.1000
G1 x31.2295 y22.1945 z-0.1000
G1 x31.4295 y22.0145 z-0.1000
G1 x31.6695 y21.8945 z-0.1000
G1 x31.9295 y21.8345 z-0.1000
G1 x32.1995 y21.8545 z-0.1000
G1 x32.4595 y21.9445 z-0.1000
G1 x32.6795 y22.0945 z-0.1000
G1 x32.8595 y22.2945 z-0.1000
G1 x32.9795 y22.5345 z-0.1000
G1 x33.0295 y22.7945 z-0.1000
G1 x33.0095 y23.0645 z-0.1000
G1 x32.9195 y23.3145 z-0.1000
G1 x32.7695 y23.5345 z-0.1000
G1 x32.5695 y23.7145 z-0.1000
G1 x32.3295 y23.8345 z-0.1000
G1 x32.0695 y23.8845 z-0.1000
G1 x31.7995 y23.8645 z-0.1000
G1 x31.5495 y23.7745 z-0.1000
G1 x31.3195 y23.6245 z-0.1000
G1 x31.1395 y23.4145 z-0.1000
G1 x31.0295 y23.1745 z-0.1000
G0 z1.0000


G0 x36.5218 y30.8062
G0 z0.0000
F120.0000
G1 z-0.1000
F300.0000
G1 x36.5618 y30.5362 z-0.1000
G1 x36.7118 y30.3162 z-0.1000
G1 x36.9418 y30.1662 z-0.1000
G1 x37.2018 y30.0962 z-0.1000
G1 x37.4718 y30.0962 z-0.1000
G1 x37.7418 y30.0962 z-0.1000
G1 x38.0118 y30.0962 z-0.1000
G1 x38.2818 y30.0962 z-0.1000
G1 x38.5518 y30.0962 z-0.1000
G1 x38.8218 y30.0962 z-0.1000
G1 x39.0918 y30.0962 z-0.1000
G1 x39.3618 y30.0962 z-0.1000
G1 x39.6318 y30.0962 z-0.1000
G1 x39.9018 y30.0962 z-0.1000
G1 x40.1718 y30.0962 z-0.1000
G1 x40.4418 y30.0962 z-0.1000
G1 x40.7118 y30.0962 z-0.1000
G1 x40.9818 y30.0962 z-0.1000
G1 x41.2518 y30.0962 z-0.1000
G1 x41.5218 y30.0962 z-0.1000
G1 x41.7918 y30.0962 z-0.1000
G1 x42.0618 y30.0962 z-0.1000
G1 x42.3318 y30.0962 z-0.1000
G1 x42.6018 y30.0962 z-0.1000
G1 x42.8718 y30.0962 z-0.1000
G1 x43.1418 y30.0962 z-0.1000
G1 x43.4118 y30.0962 z-0.1000
G1 x43.6818 y30.0962 z-0.1000
G1 x43.9518 y30.0962 z-0.1000
G1 x44.2218 y30.0962 z-0.1000
G1 x44.4918 y30.1162 z-0.1000
G1 x44.6418 y30.3362 z-0.1000
G1 x44.6418 y30.6062 z-0.1000
G1 x44.6418 y30.8762 z-0.1000
G1 x44.4918 y31.0962 z-0.1000
G1 x44.2218 y31.1162 z-0.1000
G1 x43.9518 y31.1162 z-0.1000
G1 x43.6818 y31.1162 z-0.1000
G1 x43.4118 y31.1162 z-0.1000
G1 x43.1418 y31.1162 z-0.1000
G1 x42.8718 y31.1162 z-0.1000
G1 x42.6018 y31.1162 z-0.1000
G1 x42.3318 y31.1162 z-0.1000
G1 x42.0618 y31.1162 z-0.1000
G1 x41.7918 y31.1162 z-0.1000
G1 x41.5218 y31.1162 z-0.1000
G1 x41.2518 y31.1162 z-0.1000
G1 x40.9818 y31.1162 z-0.1000
G1 x40.7118 y31.1162 z-0.1000
G1 x40.4418 y31.1162 z-0.1000
G1 x40.1718 y31.1162 z-0.1000
G1 x39.9018 y31.1162 z-0.1000
G1 x39.6318 y31.1162 z-0.1000
G1 x39.3618 y31.1162 z-0.1000
G1 x39.0918 y31.1162 z-0.1000
G1 x38.8218 y31.1162 z-0.1000
G1 x38.5518 y31.1162 z-0.1000
G1 x38.2818 y31.1162 z-0.1000
G1 x38.0118 y31.1162 z-0.1000
G1 x37.7418 y31.1162 z-0.1000
G1 x37.4718 y31.1362 z-0.1000
G1 x37.2418 y31.2762 z-0.1000
G1 x36.9718 y31.2862 z-0.1000
G1 x36.7318 y31.1662 z-0.1000
G1 x36.5618 y30.9562 z-0.1000
G0 z1.0000


G0 x38.8078 y31.5682
G0 z0.0000
F120.0000
G1 z-0.1000
F300.0000
G1 x38.8478 y31.2982 z-0.1000
G1 x38.9978 y31.0782 z-0.1000
G1 x39.2278 y30.9482 z-0.1000
G1 x39.4978 y30.9482 z-0.1000
G1 x39.7378 y31.0682 z-0.1000
G1 x39.8878 y31.2882 z-0.1000
G1 x39.9278 y31.5482 z-0.1000
G1 x39.8378 y31.8082 z-0.1000
G1 x39.6378 y31.9882 z-0.1000
G1 x39.3778 y32.0582 z-0.1000
G1 x39.1178 y31.9982 z-0.1000
G1 x38.9078 y31.8182 z-0.1000
G1 x38.8078 y31.5682 z-0.1000
G0 z1.0000


G0 x39.8695 y33.1995
G0 z0.0000
F120.0000
G1 z-0.1000
F300.0000
G1 x39.8695 y32.9295 z-0.1000
G1 x39.8695 y32.6595 z-0.1000
G1 x39.8695 y32.3895 z-0.1000
G1 x39.8695 y32.1195 z-0.1000
G1 x39.8695 y31.8495 z-0.1000
G1 x39.8695 y31.5795 z-0.1000
G1 x40.0495 y31.3695 z-0.1000
G1 x40.3195 y31.3595 z-0.1000
G1 x40.5895 y31.3595 z-0.1000
G1 x40.8595 y31.3595 z-0.1000
G1 x41.1295 y31.3595 z-0.1000
G1 x41.3995 y31.3595 z-0.1000
G1 x41.6695 y31.3595 z-0.1000
G1 x41.9395 y31.3595 z-0.1000
G1 x42.2095 y31.3595 z-0.1000
G1 x42.4095 y31.5395 z-0.1000
G1 x42.4195 y31.8095 z-0.1000
G1 x42.4195 y32.0795 z-0.1000
G1 x42.4195 y32.3495 z-0.1000
G1 x42.4195 y32.6195 z-0.1000
G1 x42.4195 y32.8895 z-0.1000
G1 x42.4195 y33.1595 z-0.1000
G1 x42.2695 y33.3895 z-0.1000
G1 x41.9995 y33.4095 z-0.1000
G1 x41.7295 y33.4095 z-0.1000
G1 x41.4595 y33.4095 z-0.1000
G1 x41.1895 y33.4095 z-0.1000
G1 x40.9195 y33.4095 z-0.1000
G1 x40.6495 y33.4095 z-0.1000
G1 x40.3795 y33.4095 z-0.1000
G1 x40.1095 y33.4095 z-0.1000
G1 x39.8895 y33.2595 z-0.1000
G0 z1.0000


G0 x41.1433 y31.9535
G0 z0.0000
F120.0000
G1 z-0.1000
F300.0000
G1 x41.1833 y31.6835 z-0.1000
G1 x41.3433 y31.4735 z-0.1000
G1 x41.5933 y31.3635 z-0.1000
G1 x41.8633 y31.3635 z-0.1000
G1 x42.1333 y31.3635 z-0.1000
G1 x42.4033 y31.3635 z-0.1000
G1 x42.6733 y31.3635 z-0.1000
G1 x42.9433 y31.3635 z-0.1000
G1 x43.2133 y31.3635 z-0.1000
G1 x43.4833 y31.3635 z-0.1000
G1 x43.7533 y31.3635 z-0.1000
G1 x44.0233 y31.3635 z-0.1000
G1 x44.2933 y31.3635 z-0.1000
G1 x44.5533 y31.4235 z-0.1000
G1 x44.6433 y31.6735 z-0.1000
G1 x44.6433 y31.9435 z-0.1000
G1 x44.6333 y32.2135 z-0.1000
G1 x44.4333 y32.3935 z-0.1000
G1 x44.1633 y32.3935 z-0.1000
G1 x43.8933 y32.3935 z-0.1000
G1 x43.6233 y32.3935 z-0.1000
G1 x43.3533 y32.3935 z-0.1000
G1 x43.0833 y32.3835 z-0.1000
G1 x42.8133 y32.3835 z-0.1000
G1 x42.5433 y32.3835 z-0.1000
G1 x42.2733 y32.3835 z-0.1000
G1 x42.0033 y32.3835 z-0.1000
G1 x41.7333 y32.3835 z-0.1000
G1 x41.4633 y32.3535 z-0.1000
G1 x41.2533 y32.1935 z-0.1000
G1 x41.1433 y31.9535 z-0.1000
G0 z1.0000


G0 x42.9810 y29.6435
G0 z0.0000
F120.0000
G1 z-0.1000
F300.0000
G1 x42.9810 y29.3735 z-0.1000
G1 x42.9810 y29.1035 z-0.1000
G1 x43.1010 y28.8635 z-0.1000
G1 x43.3610 y28.8235 z-0.1000
G1 x43.6310 y28.8235 z-0.1000
G1 x43.9010 y28.8235 z-0.1000
G1 x44.1710 y28.8235 z-0.1000
G1 x44.4410 y28.8235 z-0.1000
G1 x44.6410 y29.0035 z-0.1000
G1 x44.6510 y29.2735 z-0.1000
G1 x44.6510 y29.5435 z-0.1000
G1 x44.5610 y29.7935 z-0.1000
G1 x44.3010 y29.8535 z-0.1000
G1 x44.0310 y29.8535 z-0.1000
G1 x43.7610 y29.8535 z-0.1000
G1 x43.4910 y29.8535 z-0.1000
G1 x43.2210 y29.8535 z-0.1000
G1 x43.0010 y29.7035 z-0.1000
G0 z1.0000


G0 x48.3150 y29.6402
G0 z0.0000
F120.0000
G1 z-0.1000
F300.0000
G1 x48.3150 y29.3702 z-0.1000
G1 x48.3150 y29.1002 z-0.1000
G1 x48.4350 y28.8602 z-0.1000
G1 x48.6950 y28.8202 z-0.1000
G1 x48.9650 y28.8202 z-0.1000
G1 x49.2350 y28.8202 z-0.1000
G1 x49.5050 y28.8202 z-0.1000
G1 x49.7750 y28.8202 z-0.1000
G1 x50.0450 y28.8302 z-0.1000
G1 x50.3150 y28.8302 z-0.1000
G1 x50.5850 y28.8302 z-0.1000
G1 x50.8450 y28.8802 z-0.1000
G1 x51.0550 y29.0602 z-0.1000
G1 x51.2750 y29.2102 z-0.1000
G1 x51.5450 y29.2102 z-0.1000
G1 x51.8150 y29.2102 z-0.1000
G1 x52.0850 y29.2102 z-0.1000
G1 x52.3550 y29.2102 z-0.1000
G1 x52.6250 y29.2102 z-0.1000
G1 x52.8950 y29.2102 z-0.1000
G1 x53.1650 y29.2102 z-0.1000
G1 x53.4350 y29.2102 z-0.1000
G1 x53.7050 y29.2102 z-0.1000
G1 x53.9750 y29.2102 z-0.1000
G1 x54.2450 y29.2102 z-0.1000
G1 x54.5150 y29.2102 z-0.1000
G1 x54.7750 y29.1602 z-0.1000
G1 x55.0450 y29.1902 z-0.1000
G1 x55.2750 y29.3402 z-0.1000
G1 x55.4050 y29.5702 z-0.1000
G1 x55.4150 y29.8402 z-0.1000
G1 x55.2950 y30.0802 z-0.1000
G1 x55.0850 y30.2402 z-0.1000
G1 x54.8250 y30.2802 z-0.1000
G1 x54.5650 y30.2302 z-0.1000
G1 x54.2950 y30.2302 z-0.1000
G1 x54.0250 y30.2302 z-0.1000
G1 x53.7550 y30.2302 z-0.1000
G1 x53.4850 y30.2302 z-0.1000
G1 x53.2150 y30.2302 z-0.1000
G1 x52.9450 y30.2302 z-0.1000
G1 x52.6750 y30.2302 z-0.1000
G1 x52.4050 y30.2302 z-0.1000
G1 x52.1350 y30.2302 z-0.1000
G1 x51.8650 y30.2302 z-0.1000
G1 x51.5950 y30.2302 z-0.1000
G1 x51.3250 y30.2302 z-0.1000
G1 x51.0550 y30.2302 z-0.1000
G1 x50.7950 y30.1902 z-0.1000
G1 x50.5750 y30.0302 z-0.1000
G1 x50.3750 y29.8502 z-0.1000
G1 x50.1050 y29.8502 z-0.1000
G1 x49.8350 y29.8502 z-0.1000
G1 x49.5650 y29.8502 z-0.1000
G1 x49.2950 y29.8502 z-0.1000
G1 x49.0250 y29.8502 z-0.1000
G1 x48.7550 y29.8502 z-0.1000
G1 x48.4850 y29.8302 z-0.1000
G0 z1.0000


G0 x48.3150 y30.9135
G0 z0.0000
F120.0000
G1 z-0.1000
F300.0000
G1 x48.3150 y30.6435 z-0.1000
G1 x48.3150 y30.3735 z-0.1000
G1 x48.4350 y30.1335 z-0.1000
G1 x48.6950 y30.0935 z-0.1000
G1 x48.9650 y30.0935 z-0.1000
G1 x49.2350 y30.0935 z-0.1000
G1 x49.5050 y30.0935 z-0.1000
G1 x49.7750 y30.0935 z-0.1000
G1 x49.9750 y30.2735 z-0.1000
G1 x49.9850 y30.5435 z-0.1000
G1 x49.9850 y30.8135 z-0.1000
G1 x49.8950 y31.0635 z-0.1000
G1 x49.6350 y31.1235 z-0.1000
G1 x49.3650 y31.1235 z-0.1000
G1 x49.0950 y31.1235 z-0.1000
G1 x48.8250 y31.1235 z-0.1000
G1 x48.5550 y31.1235 z-0.1000
G1 x48.3350 y30.9735 z-0.1000
G0 z1.0000


G0 x48.3150 y32.1775
G0 z0.0000
F120.0000
G1 z-0.1000
F300.0000
G1 x48.3150 y31.9075 z-0.1000
G1 x48.3150 y31.6375 z-0.1000
G1 x48.4450 y31.3975 z-0.1000
G1 x48.7150 y31.3675 z-0.1000
G1 x48.9850 y31.3675 z-0.1000
G1 x49.2550 y31.3675 z-0.1000
G1 x49.4950 y31.2375 z-0.1000
G1 x49.7450 y31.1275 z-0.1000
G1 x50.0150 y31.1175 z-0.1000
G1 x50.2850 y31.1175 z-0.1000
G1 x50.5550 y31.1175 z-0.1000
G1 x50.8250 y31.1175 z-0.1000
G1 x51.0950 y31.1175 z-0.1000
G1 x51.3550 y31.0675 z-0.1000
G1 x51.4250 y30.8075 z-0.1000
G1 x51.6050 y30.6075 z-0.1000
G1 x51.8750 y30.5975 z-0.1000
G1 x52.1450 y30.5975 z-0.1000
G1 x52.4150 y30.5975 z-0.1000
G1 x52.6850 y30.5975 z-0.1000
G1 x52.9550 y30.5975 z-0.1000
G1 x53.2250 y30.5975 z-0.1000
G1 x53.4950 y30.5975 z-0.1000
G1 x53.7650 y30.5975 z-0.1000
G1 x53.9750 y30.7775 z-0.1000
G1 x53.9850 y31.0475 z-0.1000
G1 x53.9850 y31.3175 z-0.1000
G1 x53.9850 y31.5875 z-0.1000
G1 x53.9850 y31.8575 z-0.1000
G1 x53.9850 y32.1275 z-0.1000
G1 x53.9850 y32.3975 z-0.1000
G1 x53.8350 y32.6275 z-0.1000
G1 x53.5650 y32.6475 z-0.1000
G1 x53.2950 y32.6475 z-0.1000
G1 x53.0250 y32.6475 z-0.1000
G1 x52.7550 y32.6475 z-0.1000
G1 x52.4850 y32.6475 z-0.1000
G1 x52.2150 y32.6475 z-0.1000
G1 x51.9450 y32.6475 z-0.1000
G1 x51.6750 y32.6475 z-0.1000
G1 x51.4050 y32.6375 z-0.1000
G1 x51.1350 y32.6375 z-0.1000
G1 x50.8650 y32.6375 z-0.1000
G1 x50.5950 y32.6375 z-0.1000
G1 x50.3250 y32.6375 z-0.1000
G1 x50.0550 y32.6375 z-0.1000
G1 x49.7850 y32.6275 z-0.1000
G1 x49.5350 y32.5375 z-0.1000
G1 x49.3150 y32.3875 z-0.1000
G1 x49.0450 y32.3875 z-0.1000
G1 x48.7750 y32.3875 z-0.1000
G1 x48.5050 y32.3775 z-0.1000
G1 x48.3150 y32.1775 z-0.1000
G0 z1.0000


G0 x48.3150 y28.3755
G0 z0.0000
F120.0000
G1 z-0.1000
F300.0000
G1 x48.3150 y28.1055 z-0.1000
G1 x48.3150 y27.8355 z-0.1000
G1 x48.4350 y27.5955 z-0.1000
G1 x48.6950 y27.5555 z-0.1000
G1 x48.9650 y27.5555 z-0.1000
G1 x49.2350 y27.5555 z-0.1000
G1 x49.5050 y27.5555 z-0.1000
G1 x49.7750 y27.5555 z-0.1000
G1 x50.0450 y27.5555 z-0.1000
G1 x50.3150 y27.5555 z-0.1000
G1 x50.5850 y27.5555 z-0.1000
G1 x50.8550 y27.5555 z-0.1000
G1 x51.1250 y27.5555 z-0.1000
G1 x51.3950 y27.5555 z-0.1000
G1 x51.5450 y27.3355 z-0.1000
G1 x51.8050 y27.2955 z-0.1000
G1 x52.0750 y27.2955 z-0.1000
G1 x52.1950 y27.0555 z-0.1000
G1 x52.1950 y26.7855 z-0.1000
G1 x52.1950 y26.5155 z-0.1000
G1 x52.1950 y26.2455 z-0.1000
G1 x52.1950 y25.9755 z-0.1000
G1 x52.1950 y25.7055 z-0.1000
G1 x52.1950 y25.4355 z-0.1000
G1 x52.1950 y25.1655 z-0.1000
G1 x52.1950 y24.8955 z-0.1000
G1 x52.1050 y24.6455 z-0.1000
G1 x51.8350 y24.6455 z-0.1000
G1 x51.5650 y24.6155 z-0.1000
G1 x51.3150 y24.5155 z-0.1000
G1 x51.0450 y24.5155 z-0.1000
G1 x50.7750 y24.5155 z-0.1000
G1 x50.5050 y24.5155 z-0.1000
G1 x50.2350 y24.5155 z-0.1000
G1 x49.9650 y24.5155 z-0.1000
G1 x49.6950 y24.5155 z-0.1000
G1 x49.4250 y24.5155 z-0.1000
G1 x49.1550 y24.5155 z-0.1000
G1 x48.8850 y24.5155 z-0.1000
G1 x48.6150 y24.5155 z-0.1000
G1 x48.3650 y24.4055 z-0.1000
G1 x48.3150 y24.1455 z-0.1000
G1 x48.3150 y23.8755 z-0.1000
G1 x48.3550 y23.6055 z-0.1000
G1 x48.5950 y23.4855 z-0.1000
G1 x48.8650 y23.4855 z-0.1000
G1 x49.1350 y23.4855 z-0.1000
G1 x49.4050 y23.4855 z-0.1000
G1 x49.6750 y23.4855 z-0.1000
G1 x49.9450 y23.4955 z-0.1000
G1 x50.2150 y23.4955 z-0.1000
G1 x50.4850 y23.4955 z-0.1000
G1 x50.7550 y23.4955 z-0.1000
G1 x51.0250 y23.4955 z-0.1000
G1 x51.2950 y23.4955 z-0.1000
G1 x51.4250 y23.2655 z-0.1000
G1 x51.4250 y22.9955 z-0.1000
G1 x51.4550 y22.7255 z-0.1000
G1 x51.6850 y22.5955 z-0.1000
G1 x51.9550 y22.5955 z-0.1000
G1 x52.2250 y22.5955 z-0.1000
G1 x52.4950 y22.5955 z-0.1000
G1 x52.7650 y22.5955 z-0.1000
G1 x53.0350 y22.5955 z-0.1000
G1 x53.3050 y22.5955 z-0.1000
G1 x53.5750 y22.5955 z-0.1000
G1 x53.8450 y22.6255 z-0.1000
G1 x53.9850 y22.8555 z-0.1000
G1 x54.2550 y22.8655 z-0.1000
G1 x54.5250 y22.8655 z-0.1000
G1 x54.7950 y22.8655 z-0.1000
G1 x55.0450 y22.7555 z-0.1000
G1 x55.3150 y22.7355 z-0.1000
G1 x55.5750 y22.8055 z-0.1000
G1 x55.7950 y22.9655 z-0.1000
G1 x55.9450 y23.1855 z-0.1000
G1 x56.0050 y23.4455 z-0.1000
G1 x55.9750 y23.7155 z-0.1000
G1 x55.8550 y23.9555 z-0.1000
G1 x55.6650 y24.1555 z-0.1000
G1 x55.4450 y24.3155 z-0.1000
G1 x55.1850 y24.3855 z-0.1000
G1 x54.9150 y24.3855 z-0.1000
G1 x54.6450 y24.3855 z-0.1000
G1 x54.3750 y24.3855 z-0.1000
G1 x54.1050 y24.3855 z-0.1000
G1 x53.9050 y24.5755 z-0.1000
G1 x53.6450 y24.6455 z-0.1000
G1 x53.3750 y24.6455 z-0.1000
G1 x53.2150 y24.8555 z-0.1000
G1 x53.2150 y25.1255 z-0.1000
G1 x53.2150 y25.3955 z-0.1000
G1 x53.2150 y25.6655 z-0.1000
G1 x53.2150 y25.9355 z-0.1000
G1 x53.2150 y26.2055 z-0.1000
G1 x53.2150 y26.4755 z-0.1000
G1 x53.2150 y26.7455 z-0.1000
G1 x53.2150 y27.0155 z-0.1000
G1 x53.2150 y27.2855 z-0.1000
G1 x53.4850 y27.2955 z-0.1000
G1 x53.7550 y27.2955 z-0.1000
G1 x53.9650 y27.4555 z-0.1000
G1 x53.9850 y27.7255 z-0.1000
G1 x53.9850 y27.9955 z-0.1000
G1 x53.9850 y28.2655 z-0.1000
G1 x53.9850 y28.5355 z-0.1000
G1 x53.9850 y28.8055 z-0.1000
G1 x53.9850 y29.0755 z-0.1000
G1 x53.8550 y29.3155 z-0.1000
G1 x53.5850 y29.3455 z-0.1000
G1 x53.3150 y29.3455 z-0.1000
G1 x53.0450 y29.3455 z-0.1000
G1 x52.7750 y29.3455 z-0.1000
G1 x52.5050 y29.3455 z-0.1000
G1 x52.2350 y29.3455 z-0.1000
G1 x51.9650 y29.3455 z-0.1000
G1 x51.6950 y29.3455 z-0.1000
G1 x51.4550 y29.2155 z-0.1000
G1 x51.4250 y28.9455 z-0.1000
G1 x51.4250 y28.6755 z-0.1000
G1 x51.1750 y28.5755 z-0.1000
G1 x50.9050 y28.5755 z-0.1000
G1 x50.6350 y28.5755 z-0.1000
G1 x50.3650 y28.5755 z-0.1000
G1 x50.0950 y28.5755 z-0.1000
G1 x49.8250 y28.5755 z-0.1000
G1 x49.5550 y28.5855 z-0.1000
G1 x49.2850 y28.5855 z-0.1000
G1 x49.0150 y28.5855 z-0.1000
G1 x48.7450 y28.5855 z-0.1000
G1 x48.4750 y28.5655 z-0.1000
G0 z1.0000


G0 x48.3150 y23.0395
G0 z0.0000
F120.0000
G1 z-0.1000
F300.0000
G1 x48.3150 y22.7695 z-0.1000
G1 x48.3150 y22.4995 z-0.1000
G1 x48.4350 y22.2595 z-0.1000
G1 x48.6950 y22.2195 z-0.1000
G1 x48.9650 y22.2195 z-0.1000
G1 x49.2350 y22.2195 z-0.1000
G1 x49.5050 y22.2195 z-0.1000
G1 x49.7750 y22.2195 z-0.1000
G1 x49.9750 y22.3995 z-0.1000
G1 x49.9850 y22.6695 z-0.1000
